%
(NCPROGRAM3)
(T1  D=6. CR=0. - ZMIN=-18. - FLAT END MILL)
N10 G90 G94 G17 G91.1
N15 G21
N20 G53 G0 Z0.
(FACE2)
N25 T1 M6
N30 S5000 M3
N35 G54
N40 G0 X2.672 Y-3.9
N45 G43 Z15. H1
N50 G0 Z5.
N55 G1 Z-1.4 F1000.
N60 G19 G3 Y-3.3 Z-2. J0.6 K0.
N65 G1 Y0.
N70 Y320.
N75 G17 G2 X8.286 I2.807 J0.
N80 G1 Y0.
N85 G3 X13.901 I2.807 J0.
N90 G1 Y320.
N95 G2 X19.516 I2.807 J0.
N100 G1 Y0.
N105 G3 X25.13 I2.807 J0.
N110 G1 Y320.
N115 G2 X30.745 I2.807 J0.
N120 G1 Y0.
N125 G3 X36.36 I2.807 J0.
N130 G1 Y320.
N135 G2 X41.974 I2.807 J0.
N140 G1 Y0.
N145 G3 X47.589 I2.807 J0.
N150 G1 Y320.
N155 G2 X53.204 I2.807 J0.
N160 G1 Y0.
N165 G3 X58.818 I2.807 J0.
N170 G1 Y320.
N175 G2 X64.433 I2.807 J0.
N180 G1 Y0.
N185 G3 X70.048 I2.807 J0.
N190 G1 Y320.
N195 G2 X75.662 I2.807 J0.
N200 G1 Y0.
N205 G3 X81.277 I2.807 J0.
N210 G1 Y320.
N215 G2 X86.892 I2.807 J0.
N220 G1 Y0.
N225 G3 X92.506 I2.807 J0.
N230 G1 Y320.
N235 G2 X98.121 I2.807 J0.
N240 G1 Y0.
N245 G3 X103.736 I2.807 J0.
N250 G1 Y320.
N255 G2 X109.35 I2.807 J0.
N260 G1 Y0.
N265 G3 X114.965 I2.807 J0.
N270 G1 Y320.
N275 G2 X120.58 I2.807 J0.
N280 G1 Y0.
N285 G3 X126.194 I2.807 J0.
N290 G1 Y320.
N295 G2 X131.809 I2.807 J0.
N300 G1 Y0.
N305 G3 X137.424 I2.807 J0.
N310 G1 Y320.
N315 G2 X143.038 I2.807 J0.
N320 G1 Y0.
N325 G3 X148.653 I2.807 J0.
N330 G1 Y320.
N335 G2 X154.268 I2.807 J0.
N340 G1 Y0.
N345 G3 X159.882 I2.807 J0.
N350 G1 Y320.
N355 G2 X165.497 I2.807 J0.
N360 G1 Y0.
N365 G3 X171.112 I2.807 J0.
N370 G1 Y320.
N375 G2 X176.726 I2.807 J0.
N380 G1 Y0.
N385 G3 X182.341 I2.807 J0.
N390 G1 Y320.
N395 G2 X187.956 I2.807 J0.
N400 G1 Y0.
N405 G3 X193.57 I2.807 J0.
N410 G1 Y320.
N415 G2 X199.185 I2.807 J0.
N420 G1 Y0.
N425 G3 X204.8 I2.807 J0.
N430 G1 Y320.
N435 G2 X210.414 I2.807 J0.
N440 G1 Y0.
N445 G3 X216.029 I2.807 J0.
N450 G1 Y320.
N455 G2 X221.644 I2.807 J0.
N460 G1 Y0.
N465 G3 X227.258 I2.807 J0.
N470 G1 Y320.
N475 G2 X232.873 I2.807 J0.
N480 G1 Y0.
N485 G3 X238.488 I2.807 J0.
N490 G1 Y320.
N495 G2 X244.102 I2.807 J0.
N500 G1 Y0.
N505 G3 X249.717 I2.807 J0.
N510 G1 Y320.
N515 G2 X255.332 I2.807 J0.
N520 G1 Y0.
N525 G3 X260.946 I2.807 J0.
N530 G1 Y320.
N535 G2 X266.561 I2.807 J0.
N540 G1 Y0.
N545 G3 X272.176 I2.807 J0.
N550 G1 Y320.
N555 G2 X277.79 I2.807 J0.
N560 G1 Y0.
N565 G3 X283.405 I2.807 J0.
N570 G1 Y320.
N575 G2 X289.02 I2.807 J0.
N580 G1 Y0.
N585 G3 X294.634 I2.807 J0.
N590 G1 Y320.
N595 G2 X300.249 I2.807 J0.
N600 G1 Y0.
N605 G3 X305.864 I2.807 J0.
N610 G1 Y320.
N615 G2 X311.478 I2.807 J0.
N620 G1 Y0.
N625 G3 X317.093 I2.807 J0.
N630 G1 Y320.
N635 G19 G3 Y320.6 Z-1.4 J0. K0.6
N640 G0 Z15.
N645 G17
(BORE1)
N650 G0 X159.5 Y160.6
N655 Z15.
N660 Z-6.15
N665 G1 Z-7.55 F1000.
N670 G18 G3 X158.9 Z-8.15 I-0.6 K0.
N675 G1 X158.6
N680 G17 G3 X158. Y160. I0. J-0.6
N685 X162. Z-8.65 I2. J0.
N690 X158. Z-9.15 I-2. J0.
N695 X162. Z-9.65 I2. J0.
N700 X158. Z-10.15 I-2. J0.
N705 X162. Z-10.65 I2. J0.
N710 X158. Z-11.15 I-2. J0.
N715 X162. Z-11.65 I2. J0.
N720 X158. Z-12.15 I-2. J0.
N725 X162. Z-12.65 I2. J0.
N730 X158. Z-13.15 I-2. J0.
N735 X162. Z-13.65 I2. J0.
N740 X158. Z-14.15 I-2. J0.
N745 X162. Z-14.65 I2. J0.
N750 X158. Z-15.15 I-2. J0.
N755 X162. Z-15.65 I2. J0.
N760 X158. Z-16.15 I-2. J0.
N765 X162. Z-16.65 I2. J0.
N770 X158. Z-17.15 I-2. J0.
N775 X162. Z-17.65 I2. J0.
N780 X158.824 Y161.618 Z-18. I-2. J0.
N785 X161.176 Y158.382 I1.176 J-1.618
N790 X158.824 Y161.618 I-1.176 J1.618
N795 X158.692 Y160.78 I0.353 J-0.485
N800 G1 X158.868 Y160.537
N805 X158.923 Y160.461 Z-17.993
N810 X158.977 Y160.387 Z-17.971
N815 X159.028 Y160.317 Z-17.935
N820 X159.075 Y160.252 Z-17.885
N825 X159.117 Y160.194 Z-17.824
N830 X159.153 Y160.145 Z-17.753
N835 X159.182 Y160.105 Z-17.672
N840 X159.203 Y160.076 Z-17.585
N845 X159.216 Y160.058 Z-17.494
N850 X159.221 Y160.052 Z-17.4
N855 G0 Z15.
N860 G53 G0 Z0.
N865 G53 G0 X0. Y0.
N870 M30
%
