%
(NCPROGAM4)
(T4  D=6. CR=3. - ZMIN=-18.211 - BALL END MILL)
N10 G90 G94 G17 G91.1
N15 G21
N20 G53 G0 Z0.
(MORPHED SPIRAL2)
N25 T4 M6
N30 S5000 M3
N35 G54
N40 M8
N45 G0 X161.915 Y159.446
N50 G43 Z15. H4
N55 G0 Z-5.955
N60 G1 Z-18. F1000.
N65 X161.912 Y159.439 Z-18.055
N70 X161.904 Y159.42 Z-18.106
N75 X161.891 Y159.388 Z-18.15
N80 X161.875 Y159.348 Z-18.184
N85 X161.856 Y159.3 Z-18.205
N90 X161.836 Y159.249 Z-18.212
N95 X161.815 Y159.198 Z-18.205
N100 X161.796 Y159.151 Z-18.184
N105 X161.78 Y159.11 Z-18.15
N110 X161.768 Y159.079 Z-18.106
N115 X161.76 Y159.059 Z-18.055
N120 X161.757 Y159.052 Z-18.
N125 Z-11.131
N130 X161.748 Y159.029 Z-11.004
N135 X161.721 Y158.968 Z-10.887
N140 X161.687 Y158.898 Z-10.818
N145 X161.64 Y158.811 Z-10.723
N150 X161.596 Y158.738 Z-10.675
N155 X161.533 Y158.647 Z-10.605
N160 X161.493 Y158.593 Z-10.579
N165 X161.467 Y158.561 Z-10.555
N170 X161.382 Y158.463 Z-10.508
N175 X161.316 Y158.397 Z-10.466
N180 X161.231 Y158.32 Z-10.436
N185 X161.147 Y158.252 Z-10.402
N190 X161.092 Y158.213 Z-10.39
N195 X161.011 Y158.159 Z-10.362
N200 X160.934 Y158.113 Z-10.35
N205 X160.864 Y158.076 Z-10.33
N210 X160.758 Y158.026 Z-10.317
N215 X160.65 Y157.984 Z-10.3
N220 X160.582 Y157.961 Z-10.295
N225 X160.524 Y157.943 Z-10.286
N230 X160.397 Y157.912 Z-10.28
N235 X160.281 Y157.892 Z-10.273
N240 X160.211 Y157.883 Z-10.274
N245 X160.037 Y157.871 Z-10.269
N250 X159.842 Y157.86 Z-10.215
N255 X159.748 Y157.858 Z-10.178
N260 X159.636 Y157.861 Z-10.144
N265 X159.495 Y157.873 Z-10.1
N270 X159.41 Y157.885 Z-10.072
N275 X159.241 Y157.919 Z-10.025
N280 X159.095 Y157.961 Z-9.988
N285 X158.969 Y158.006 Z-9.952
N290 X158.764 Y158.099 Z-9.903
N295 X158.665 Y158.154 Z-9.879
N300 X158.473 Y158.282 Z-9.836
N305 X158.295 Y158.431 Z-9.799
N310 X158.212 Y158.513 Z-9.784
N315 X158.105 Y158.634 Z-9.764
N320 X158.024 Y158.738 Z-9.746
N325 X157.95 Y158.848 Z-9.733
N330 X157.853 Y159.019 Z-9.717
N335 X157.81 Y159.109 Z-9.707
N340 X157.724 Y159.328 Z-9.694
N345 X157.67 Y159.528 Z-9.686
N350 X157.637 Y159.723 Z-9.681
N355 X157.617 Y160. Z-9.678
N360 X157.607 Y160.252 Z-9.635
N365 X157.618 Y160.482 Z-9.595
N370 X157.651 Y160.71 Z-9.556
N375 X157.707 Y160.936 Z-9.52
N380 X157.785 Y161.155 Z-9.487
N385 X157.884 Y161.367 Z-9.456
N390 X158.004 Y161.568 Z-9.428
N395 X158.143 Y161.757 Z-9.403
N400 X158.3 Y161.931 Z-9.38
N405 X158.474 Y162.089 Z-9.361
N410 X158.663 Y162.23 Z-9.344
N415 X158.865 Y162.351 Z-9.33
N420 X159.082 Y162.453 Z-9.318
N425 X159.29 Y162.528 Z-9.31
N430 X159.503 Y162.582 Z-9.305
N435 X159.73 Y162.618 Z-9.302
N440 X159.874 Y162.63
N445 X160.063 Y162.639 Z-9.296
N450 X160.285 Y162.644 Z-9.27
N455 X160.448 Y162.637 Z-9.248
N460 X160.63 Y162.617 Z-9.228
N465 X160.861 Y162.573 Z-9.202
N470 X161.088 Y162.508 Z-9.179
N475 X161.308 Y162.423 Z-9.156
N480 X161.519 Y162.319 Z-9.135
N485 X161.72 Y162.197 Z-9.116
N490 X161.91 Y162.057 Z-9.099
N495 X162.086 Y161.9 Z-9.083
N500 X162.228 Y161.751 Z-9.072
N505 X162.358 Y161.591 Z-9.059
N510 X162.46 Y161.446 Z-9.05
N515 X162.579 Y161.243 Z-9.04
N520 X162.696 Y160.991 Z-9.03
N525 X162.778 Y160.753 Z-9.024
N530 X162.838 Y160.505 Z-9.02
N535 X162.873 Y160.257 Z-9.018
N540 X162.882 Y160.126 Z-9.02
N545 X162.895 Y159.811 Z-9.002
N550 X162.89 Y159.572 Z-8.983
N555 X162.867 Y159.338 Z-8.965
N560 X162.836 Y159.165 Z-8.95
N565 X162.779 Y158.937 Z-8.932
N570 X162.704 Y158.714 Z-8.915
N575 X162.604 Y158.484 Z-8.898
N580 X162.48 Y158.255 Z-8.882
N585 X162.341 Y158.047 Z-8.867
N590 X162.185 Y157.852 Z-8.855
N595 X162.016 Y157.674 Z-8.843
N600 X161.834 Y157.512 Z-8.834
N605 X161.739 Y157.438 Z-8.827
N610 X161.542 Y157.303 Z-8.819
N615 X161.337 Y157.186 Z-8.813
N620 X161.124 Y157.086 Z-8.808
N625 X161.014 Y157.043 Z-8.804
N630 X160.774 Y156.966 Z-8.799
N635 X160.497 Y156.904 Z-8.796
N640 X160.241 Y156.872 Z-8.795
N645 X159.972 Y156.859 Z-8.792
N650 X159.631 Y156.855 Z-8.772
N655 X159.38 Y156.875 Z-8.757
N660 X159.125 Y156.915 Z-8.742
N665 X158.889 Y156.973 Z-8.729
N670 X158.664 Y157.046 Z-8.717
N675 X158.446 Y157.136 Z-8.705
N680 X158.235 Y157.242 Z-8.693
N685 X158.033 Y157.363 Z-8.682
N690 X157.828 Y157.509 Z-8.672
N695 X157.623 Y157.682 Z-8.662
N700 X157.434 Y157.872 Z-8.653
N705 X157.263 Y158.076 Z-8.646
N710 X157.185 Y158.182 Z-8.64
N715 X157.046 Y158.396 Z-8.634
N720 X156.911 Y158.652 Z-8.628
N725 X156.797 Y158.927 Z-8.623
N730 X156.709 Y159.212 Z-8.62
N735 X156.649 Y159.505 Z-8.617
N740 X156.619 Y159.771
N745 X156.606 Y160.063 Z-8.613
N750 X156.602 Y160.319 Z-8.603
N755 X156.617 Y160.58 Z-8.591
N760 X156.64 Y160.76 Z-8.581
N765 X156.683 Y160.992 Z-8.572
N770 X156.743 Y161.22 Z-8.563
N775 X156.818 Y161.443 Z-8.553
N780 X156.922 Y161.69 Z-8.543
N785 X157.036 Y161.912 Z-8.534
N790 X157.161 Y162.117 Z-8.526
N795 X157.319 Y162.337 Z-8.519
N800 X157.491 Y162.54 Z-8.511
N805 X157.655 Y162.708 Z-8.504
N810 X157.857 Y162.885 Z-8.497
N815 X158.071 Y163.045 Z-8.492
N820 X158.307 Y163.193 Z-8.487
N825 X158.522 Y163.306 Z-8.485
N830 X158.768 Y163.413 Z-8.48
N835 X159.022 Y163.5 Z-8.477
N840 X159.333 Y163.577 Z-8.475
N845 X159.651 Y163.624 Z-8.473
N850 X160.008 Y163.644 Z-8.472
N855 X160.468 Y163.658 Z-8.451
N860 X160.736 Y163.647 Z-8.436
N865 X160.965 Y163.621 Z-8.422
N870 X161.197 Y163.579 Z-8.41
N875 X161.426 Y163.521 Z-8.4
N880 X161.649 Y163.447 Z-8.39
N885 X161.897 Y163.344 Z-8.379
N890 X162.114 Y163.235 Z-8.371
N895 X162.374 Y163.077 Z-8.363
N900 X162.61 Y162.903 Z-8.357
N905 X162.794 Y162.744 Z-8.351
N910 X162.992 Y162.544 Z-8.346
N915 X163.174 Y162.328 Z-8.343
N920 X163.336 Y162.099 Z-8.342
N925 X163.476 Y161.862 Z-8.341
N930 X163.602 Y161.603
N935 X163.699 Y161.353 Z-8.342
N940 X163.78 Y161.083 Z-8.345
N945 X163.838 Y160.81 Z-8.349
N950 X163.867 Y160.596 Z-8.352
N955 X163.887 Y160.261 Z-8.359
N960 X163.903 Y159.77 Z-8.354
N965 X163.917 Y159.288 Z-8.327
N970 X163.906 Y159.026 Z-8.311
N975 X163.875 Y158.759 Z-8.298
N980 X163.832 Y158.532 Z-8.286
N985 X163.772 Y158.304 Z-8.276
N990 X163.684 Y158.049 Z-8.267
N995 X163.592 Y157.833 Z-8.259
N1000 X163.474 Y157.606 Z-8.252
N1005 X163.325 Y157.366 Z-8.247
N1010 X163.145 Y157.124 Z-8.242
N1015 X162.967 Y156.924 Z-8.238
N1020 X162.74 Y156.707 Z-8.236
N1025 X162.493 Y156.512 Z-8.235
N1030 X162.251 Y156.353 Z-8.236
N1035 X162.016 Y156.225 Z-8.237
N1040 X161.771 Y156.115 Z-8.239
N1045 X161.477 Y156.013 Z-8.244
N1050 X161.184 Y155.939 Z-8.25
N1055 X160.886 Y155.892 Z-8.257
N1060 X160.602 Y155.871 Z-8.265
N1065 X159.96 Y155.852 Z-8.272
N1070 X159.348 Y155.833 Z-8.254
N1075 X158.979 Y155.826 Z-8.233
N1080 X158.782 Y155.836 Z-8.223
N1085 X158.548 Y155.862 Z-8.213
N1090 X158.316 Y155.904 Z-8.204
N1095 X158.057 Y155.971 Z-8.196
N1100 X157.793 Y156.063 Z-8.19
N1105 X157.518 Y156.185 Z-8.183
N1110 X157.283 Y156.314 Z-8.179
N1115 X157.058 Y156.461 Z-8.176
N1120 X156.846 Y156.626 Z-8.174
N1125 X156.634 Y156.819 Z-8.172
N1130 X156.437 Y157.033
N1135 X156.269 Y157.247
N1140 X156.119 Y157.474
N1145 X155.987 Y157.713 Z-8.174
N1150 X155.876 Y157.957 Z-8.176
N1155 X155.785 Y158.209 Z-8.179
N1160 X155.714 Y158.467 Z-8.183
N1165 X155.663 Y158.731 Z-8.188
N1170 X155.63 Y159.043 Z-8.196
N1175 X155.607 Y159.79 Z-8.21
N1180 X155.586 Y160.536 Z-8.201
N1185 X155.568 Y161.233 Z-8.177
N1190 X155.579 Y161.468 Z-8.169
N1195 X155.608 Y161.72 Z-8.163
N1200 X155.658 Y161.979 Z-8.158
N1205 X155.729 Y162.238 Z-8.155
N1210 X155.821 Y162.49 Z-8.153
N1215 X155.931 Y162.734 Z-8.151
N1220 X156.096 Y163.026
N1225 X156.289 Y163.3 Z-8.15
N1230 X156.461 Y163.505
N1235 X156.63 Y163.677
N1240 X156.876 Y163.891
N1245 X157.11 Y164.059
N1250 X157.399 Y164.23
N1255 X157.703 Y164.371 Z-8.151
N1260 X158.003 Y164.477 Z-8.152
N1265 X158.28 Y164.547 Z-8.153
N1270 X158.544 Y164.593 Z-8.155
N1275 X158.855 Y164.619 Z-8.16
N1280 X160.112 Y164.654 Z-8.17
N1285 X161.446 Y164.688 Z-8.151
N1290 X161.714 Y164.678 Z-8.15
N1295 X161.98 Y164.647
N1300 X162.169 Y164.611
N1305 X162.428 Y164.544
N1310 X162.682 Y164.457
N1315 X162.928 Y164.351
N1320 X163.165 Y164.225
N1325 X163.392 Y164.082
N1330 X163.606 Y163.921
N1335 X163.807 Y163.743
N1340 X163.994 Y163.551
N1345 X164.165 Y163.344
N1350 X164.32 Y163.125
N1355 X164.456 Y162.894
N1360 X164.575 Y162.654
N1365 X164.674 Y162.404
N1370 X164.753 Y162.148
N1375 X164.812 Y161.887
N1380 X164.85 Y161.621
N1385 X164.868 Y161.353
N1390 X164.943 Y158.399
N1395 X164.942 Y158.177
N1400 X164.921 Y157.909
N1405 X164.879 Y157.644
N1410 X164.817 Y157.383
N1415 X164.734 Y157.128
N1420 X164.632 Y156.88
N1425 X164.51 Y156.641
N1430 X164.371 Y156.412
N1435 X164.214 Y156.195
N1440 X164.04 Y155.991
N1445 X163.851 Y155.801
N1450 X163.647 Y155.626
N1455 X163.431 Y155.468
N1460 X163.203 Y155.327
N1465 X162.964 Y155.204
N1470 X162.717 Y155.1
N1475 X162.462 Y155.017
N1480 X162.201 Y154.953
N1485 X161.937 Y154.91
N1490 X161.702 Y154.889
N1495 X159.188 Y154.826
N1500 X158.063 Y154.8
N1505 X157.795 Y154.81
N1510 X157.529 Y154.842
N1515 X157.266 Y154.894
N1520 X157.007 Y154.966
N1525 X156.756 Y155.059
N1530 X156.512 Y155.171
N1535 X156.278 Y155.301
N1540 X156.055 Y155.45
N1545 X155.844 Y155.616
N1550 X155.646 Y155.797
N1555 X155.464 Y155.994
N1560 X155.297 Y156.204
N1565 X155.147 Y156.426
N1570 X155.015 Y156.66
N1575 X154.902 Y156.903
N1580 X154.808 Y157.154
N1585 X154.734 Y157.412
N1590 X154.681 Y157.675
N1595 X154.648 Y157.941
N1600 X154.634 Y158.281
N1605 X154.545 Y162.107
N1610 X154.547 Y162.32
N1615 X154.568 Y162.588
N1620 X154.61 Y162.853
N1625 X154.672 Y163.113
N1630 X154.755 Y163.369
N1635 X154.857 Y163.617
N1640 X154.979 Y163.856
N1645 X155.118 Y164.085
N1650 X155.276 Y164.302
N1655 X155.449 Y164.506
N1660 X155.639 Y164.696
N1665 X155.842 Y164.871
N1670 X156.059 Y165.029
N1675 X156.287 Y165.17
N1680 X156.525 Y165.292
N1685 X156.773 Y165.396
N1690 X157.028 Y165.48
N1695 X157.288 Y165.543
N1700 X157.553 Y165.586
N1705 X157.79 Y165.607
N1710 X160.039 Y165.658
N1715 X162.435 Y165.711
N1720 X162.703 Y165.7
N1725 X162.969 Y165.669
N1730 X163.233 Y165.617
N1735 X163.491 Y165.544
N1740 X163.742 Y165.452
N1745 X163.986 Y165.34
N1750 X164.22 Y165.209
N1755 X164.444 Y165.06
N1760 X164.654 Y164.894
N1765 X164.852 Y164.713
N1770 X165.034 Y164.516
N1775 X165.201 Y164.306
N1780 X165.35 Y164.083
N1785 X165.482 Y163.85
N1790 X165.595 Y163.607
N1795 X165.689 Y163.355
N1800 X165.762 Y163.097
N1805 X165.816 Y162.835
N1810 X165.848 Y162.568
N1815 X165.862 Y162.225
N1820 X165.966 Y157.319
N1825 X165.955 Y157.051
N1830 X165.924 Y156.784
N1835 X165.871 Y156.521
N1840 X165.799 Y156.263
N1845 X165.706 Y156.011
N1850 X165.594 Y155.768
N1855 X165.464 Y155.533
N1860 X165.315 Y155.31
N1865 X165.15 Y155.099
N1870 X164.968 Y154.902
N1875 X164.772 Y154.719
N1880 X164.562 Y154.552
N1885 X164.339 Y154.403
N1890 X164.106 Y154.271
N1895 X163.862 Y154.158
N1900 X163.611 Y154.064
N1905 X163.353 Y153.99
N1910 X163.091 Y153.936
N1915 X162.824 Y153.904
N1920 X162.474 Y153.89
N1925 X157.072 Y153.78
N1930 X156.804 Y153.79
N1935 X156.537 Y153.822
N1940 X156.274 Y153.874
N1945 X156.016 Y153.947
N1950 X155.764 Y154.039
N1955 X155.52 Y154.151
N1960 X155.286 Y154.282
N1965 X155.063 Y154.43
N1970 X154.852 Y154.595
N1975 X154.654 Y154.777
N1980 X154.472 Y154.973
N1985 X154.305 Y155.183
N1990 X154.155 Y155.406
N1995 X154.023 Y155.639
N2000 X153.91 Y155.882
N2005 X153.816 Y156.134
N2010 X153.742 Y156.391
N2015 X153.688 Y156.654
N2020 X153.655 Y156.92
N2025 X153.641 Y157.276
N2030 X153.526 Y163.181
N2035 X153.536 Y163.449
N2040 X153.568 Y163.716
N2045 X153.62 Y163.979
N2050 X153.692 Y164.237
N2055 X153.785 Y164.489
N2060 X153.897 Y164.732
N2065 X154.028 Y164.966
N2070 X154.176 Y165.19
N2075 X154.342 Y165.401
N2080 X154.524 Y165.598
N2085 X154.72 Y165.78
N2090 X154.93 Y165.947
N2095 X155.153 Y166.096
N2100 X155.387 Y166.228
N2105 X155.63 Y166.341
N2110 X155.881 Y166.435
N2115 X156.139 Y166.509
N2120 X156.402 Y166.562
N2125 X156.668 Y166.594
N2130 X157.02 Y166.608
N2135 X163.426 Y166.728
N2140 X163.694 Y166.718
N2145 X163.961 Y166.686
N2150 X164.224 Y166.634
N2155 X164.482 Y166.562
N2160 X164.734 Y166.469
N2165 X164.977 Y166.357
N2170 X165.212 Y166.227
N2175 X165.435 Y166.078
N2180 X165.646 Y165.913
N2185 X165.843 Y165.731
N2190 X166.026 Y165.535
N2195 X166.193 Y165.325
N2200 X166.343 Y165.103
N2205 X166.475 Y164.869
N2210 X166.588 Y164.626
N2215 X166.682 Y164.375
N2220 X166.756 Y164.117
N2225 X166.81 Y163.855
N2230 X166.843 Y163.588
N2235 X166.857 Y163.227
N2240 X166.982 Y156.388
N2245 X166.98 Y156.192
N2250 X166.959 Y155.924
N2255 X166.917 Y155.659
N2260 X166.854 Y155.398
N2265 X166.772 Y155.143
N2270 X166.67 Y154.895
N2275 X166.548 Y154.656
N2280 X166.409 Y154.427
N2285 X166.252 Y154.21
N2290 X166.078 Y154.005
N2295 X165.889 Y153.815
N2300 X165.686 Y153.64
N2305 X165.47 Y153.481
N2310 X165.242 Y153.34
N2315 X165.003 Y153.217
N2320 X164.756 Y153.114
N2325 X164.501 Y153.029
N2330 X164.241 Y152.965
N2335 X163.976 Y152.922
N2340 X163.728 Y152.9
N2345 X162.003 Y152.868
N2350 X156.135 Y152.765
N2355 X155.941 Y152.767
N2360 X155.674 Y152.788
N2365 X155.409 Y152.829
N2370 X155.148 Y152.892
N2375 X154.893 Y152.974
N2380 X154.645 Y153.077
N2385 X154.406 Y153.198
N2390 X154.177 Y153.338
N2395 X153.959 Y153.495
N2400 X153.755 Y153.668
N2405 X153.565 Y153.857
N2410 X153.39 Y154.061
N2415 X153.231 Y154.277
N2420 X153.09 Y154.505
N2425 X152.967 Y154.744
N2430 X152.864 Y154.991
N2435 X152.779 Y155.245
N2440 X152.715 Y155.506
N2445 X152.672 Y155.771
N2450 X152.65 Y156.02
N2455 X152.619 Y157.745
N2460 X152.51 Y164.177
N2465 X152.521 Y164.445
N2470 X152.552 Y164.712
N2475 X152.605 Y164.975
N2480 X152.677 Y165.233
N2485 X152.77 Y165.485
N2490 X152.882 Y165.728
N2495 X153.012 Y165.962
N2500 X153.161 Y166.186
N2505 X153.326 Y166.397
N2510 X153.508 Y166.594
N2515 X153.704 Y166.777
N2520 X153.915 Y166.943
N2525 X154.137 Y167.093
N2530 X154.371 Y167.225
N2535 X154.614 Y167.338
N2540 X154.865 Y167.432
N2545 X155.123 Y167.506
N2550 X155.386 Y167.559
N2555 X155.652 Y167.592
N2560 X156.015 Y167.606
N2565 X164.423 Y167.743
N2570 X164.691 Y167.732
N2575 X164.957 Y167.701
N2580 X165.221 Y167.649
N2585 X165.479 Y167.576
N2590 X165.731 Y167.484
N2595 X165.974 Y167.372
N2600 X166.209 Y167.242
N2605 X166.432 Y167.093
N2610 X166.643 Y166.928
N2615 X166.841 Y166.746
N2620 X167.023 Y166.55
N2625 X167.19 Y166.34
N2630 X167.34 Y166.118
N2635 X167.472 Y165.884
N2640 X167.586 Y165.641
N2645 X167.68 Y165.39
N2650 X167.754 Y165.133
N2655 X167.808 Y164.87
N2660 X167.841 Y164.604
N2665 X167.853 Y164.367
N2670 X167.996 Y155.324
N2675 X167.986 Y155.056
N2680 X167.954 Y154.789
N2685 X167.902 Y154.526
N2690 X167.83 Y154.268
N2695 X167.737 Y154.016
N2700 X167.625 Y153.773
N2705 X167.495 Y153.538
N2710 X167.346 Y153.315
N2715 X167.18 Y153.104
N2720 X166.999 Y152.907
N2725 X166.802 Y152.724
N2730 X166.592 Y152.557
N2735 X166.37 Y152.408
N2740 X166.136 Y152.276
N2745 X165.893 Y152.163
N2750 X165.642 Y152.069
N2755 X165.384 Y151.995
N2760 X165.121 Y151.941
N2765 X164.855 Y151.909
N2770 X164.488 Y151.895
N2775 X155.079 Y151.751
N2780 X154.811 Y151.761
N2785 X154.544 Y151.792
N2790 X154.281 Y151.844
N2795 X154.023 Y151.917
N2800 X153.771 Y152.009
N2805 X153.527 Y152.121
N2810 X153.293 Y152.252
N2815 X153.07 Y152.4
N2820 X152.859 Y152.565
N2825 X152.661 Y152.747
N2830 X152.478 Y152.943
N2835 X152.311 Y153.153
N2840 X152.161 Y153.375
N2845 X152.029 Y153.608
N2850 X151.915 Y153.851
N2855 X151.821 Y154.102
N2860 X151.747 Y154.36
N2865 X151.692 Y154.623
N2870 X151.659 Y154.889
N2875 X151.647 Y155.131
N2880 X151.497 Y165.173
N2885 X151.508 Y165.441
N2890 X151.539 Y165.707
N2895 X151.591 Y165.97
N2900 X151.664 Y166.228
N2905 X151.756 Y166.48
N2910 X151.868 Y166.724
N2915 X151.999 Y166.958
N2920 X152.147 Y167.182
N2925 X152.312 Y167.393
N2930 X152.494 Y167.59
N2935 X152.69 Y167.773
N2940 X152.9 Y167.94
N2945 X153.122 Y168.09
N2950 X153.356 Y168.222
N2955 X153.599 Y168.335
N2960 X153.85 Y168.43
N2965 X154.108 Y168.504
N2970 X154.37 Y168.558
N2975 X154.636 Y168.591
N2980 X154.879 Y168.603
N2985 X165.422 Y168.756
N2990 X165.69 Y168.745
N2995 X165.956 Y168.714
N3000 X166.219 Y168.662
N3005 X166.478 Y168.589
N3010 X166.729 Y168.497
N3015 X166.973 Y168.385
N3020 X167.208 Y168.255
N3025 X167.431 Y168.106
N3030 X167.642 Y167.941
N3035 X167.84 Y167.759
N3040 X168.022 Y167.563
N3045 X168.189 Y167.353
N3050 X168.339 Y167.131
N3055 X168.472 Y166.898
N3060 X168.585 Y166.655
N3065 X168.679 Y166.404
N3070 X168.754 Y166.146
N3075 X168.808 Y165.883
N3080 X168.841 Y165.617
N3085 X168.853 Y165.372
N3090 X169.009 Y154.323
N3095 X168.998 Y154.055
N3100 X168.967 Y153.788
N3105 X168.915 Y153.525
N3110 X168.842 Y153.267
N3115 X168.749 Y153.015
N3120 X168.638 Y152.772
N3125 X168.507 Y152.537
N3130 X168.358 Y152.314
N3135 X168.193 Y152.103
N3140 X168.011 Y151.906
N3145 X167.815 Y151.723
N3150 X167.604 Y151.557
N3155 X167.382 Y151.407
N3160 X167.148 Y151.275
N3165 X166.905 Y151.162
N3170 X166.654 Y151.068
N3175 X166.396 Y150.994
N3180 X166.133 Y150.941
N3185 X165.867 Y150.908
N3190 X165.629 Y150.896
N3195 X154.117 Y150.739
N3200 X153.802 Y150.749
N3205 X153.536 Y150.78
N3210 X153.273 Y150.833
N3215 X153.015 Y150.905
N3220 X152.763 Y150.998
N3225 X152.519 Y151.11
N3230 X152.285 Y151.241
N3235 X152.062 Y151.389
N3240 X151.851 Y151.555
N3245 X151.654 Y151.737
N3250 X151.471 Y151.933
N3255 X151.305 Y152.143
N3260 X151.155 Y152.366
N3265 X151.024 Y152.6
N3270 X150.911 Y152.843
N3275 X150.817 Y153.094
N3280 X150.743 Y153.352
N3285 X150.69 Y153.615
N3290 X150.658 Y153.881
N3295 X150.646 Y154.117
N3300 X150.486 Y166.178
N3305 X150.496 Y166.446
N3310 X150.528 Y166.713
N3315 X150.58 Y166.976
N3320 X150.652 Y167.234
N3325 X150.745 Y167.486
N3330 X150.857 Y167.729
N3335 X150.988 Y167.963
N3340 X151.136 Y168.187
N3345 X151.302 Y168.398
N3350 X151.483 Y168.595
N3355 X151.68 Y168.778
N3360 X151.89 Y168.944
N3365 X152.112 Y169.094
N3370 X152.346 Y169.226
N3375 X152.589 Y169.339
N3380 X152.84 Y169.433
N3385 X153.098 Y169.507
N3390 X153.361 Y169.56
N3395 X153.627 Y169.593
N3400 X153.867 Y169.604
N3405 X166.422 Y169.767
N3410 X166.69 Y169.757
N3415 X166.957 Y169.725
N3420 X167.22 Y169.673
N3425 X167.478 Y169.601
N3430 X167.73 Y169.508
N3435 X167.974 Y169.396
N3440 X168.208 Y169.266
N3445 X168.431 Y169.118
N3450 X168.643 Y168.952
N3455 X168.84 Y168.771
N3460 X169.023 Y168.575
N3465 X169.19 Y168.365
N3470 X169.34 Y168.143
N3475 X169.472 Y167.909
N3480 X169.586 Y167.666
N3485 X169.68 Y167.415
N3490 X169.755 Y167.158
N3495 X169.809 Y166.895
N3500 X169.842 Y166.629
N3505 X169.855 Y166.378
N3510 X170.02 Y153.319
N3515 X170.009 Y153.051
N3520 X169.978 Y152.785
N3525 X169.926 Y152.522
N3530 X169.853 Y152.264
N3535 X169.76 Y152.012
N3540 X169.648 Y151.768
N3545 X169.518 Y151.534
N3550 X169.369 Y151.311
N3555 X169.203 Y151.1
N3560 X169.022 Y150.903
N3565 X168.825 Y150.72
N3570 X168.615 Y150.554
N3575 X168.392 Y150.404
N3580 X168.159 Y150.272
N3585 X167.916 Y150.159
N3590 X167.664 Y150.066
N3595 X167.406 Y149.992
N3600 X167.144 Y149.939
N3605 X166.877 Y149.906
N3610 X166.637 Y149.895
N3615 X153.076 Y149.728
N3620 X152.808 Y149.738
N3625 X152.542 Y149.77
N3630 X152.278 Y149.822
N3635 X152.02 Y149.894
N3640 X151.768 Y149.986
N3645 X151.525 Y150.098
N3650 X151.29 Y150.229
N3655 X151.067 Y150.377
N3660 X150.856 Y150.542
N3665 X150.658 Y150.724
N3670 X150.475 Y150.92
N3675 X150.308 Y151.13
N3680 X150.158 Y151.352
N3685 X150.026 Y151.586
N3690 X149.913 Y151.829
N3695 X149.818 Y152.08
N3700 X149.744 Y152.337
N3705 X149.69 Y152.6
N3710 X149.657 Y152.866
N3715 X149.644 Y153.118
N3720 X149.475 Y167.182
N3725 X149.486 Y167.45
N3730 X149.517 Y167.716
N3735 X149.569 Y167.979
N3740 X149.642 Y168.237
N3745 X149.734 Y168.489
N3750 X149.846 Y168.733
N3755 X149.977 Y168.967
N3760 X150.126 Y169.19
N3765 X150.291 Y169.401
N3770 X150.473 Y169.598
N3775 X150.67 Y169.781
N3780 X150.88 Y169.947
N3785 X151.102 Y170.097
N3790 X151.336 Y170.229
N3795 X151.579 Y170.342
N3800 X151.83 Y170.435
N3805 X152.088 Y170.509
N3810 X152.351 Y170.562
N3815 X152.617 Y170.595
N3820 X152.86 Y170.606
N3825 X167.433 Y170.778
N3830 X167.701 Y170.767
N3835 X167.967 Y170.736
N3840 X168.231 Y170.683
N3845 X168.489 Y170.611
N3850 X168.74 Y170.518
N3855 X168.984 Y170.406
N3860 X169.218 Y170.275
N3865 X169.441 Y170.127
N3870 X169.652 Y169.961
N3875 X169.85 Y169.779
N3880 X170.032 Y169.583
N3885 X170.199 Y169.372
N3890 X170.348 Y169.15
N3895 X170.48 Y168.916
N3900 X170.593 Y168.673
N3905 X170.686 Y168.422
N3910 X170.76 Y168.164
N3915 X170.813 Y167.901
N3920 X170.846 Y167.635
N3925 X170.857 Y167.393
N3930 X171.03 Y152.322
N3935 X171.019 Y152.054
N3940 X170.988 Y151.788
N3945 X170.936 Y151.524
N3950 X170.863 Y151.266
N3955 X170.771 Y151.015
N3960 X170.659 Y150.771
N3965 X170.529 Y150.536
N3970 X170.38 Y150.313
N3975 X170.215 Y150.102
N3980 X170.033 Y149.905
N3985 X169.837 Y149.722
N3990 X169.627 Y149.555
N3995 X169.405 Y149.405
N4000 X169.171 Y149.273
N4005 X168.928 Y149.16
N4010 X168.677 Y149.066
N4015 X168.419 Y148.991
N4020 X168.156 Y148.938
N4025 X167.89 Y148.904
N4030 X167.639 Y148.892
N4035 X152.074 Y148.718
N4040 X151.806 Y148.728
N4045 X151.539 Y148.759
N4050 X151.276 Y148.812
N4055 X151.018 Y148.884
N4060 X150.766 Y148.976
N4065 X150.522 Y149.088
N4070 X150.288 Y149.219
N4075 X150.065 Y149.367
N4080 X149.853 Y149.532
N4085 X149.656 Y149.714
N4090 X149.473 Y149.91
N4095 X149.306 Y150.12
N4100 X149.156 Y150.342
N4105 X149.024 Y150.575
N4110 X148.91 Y150.818
N4115 X148.816 Y151.069
N4120 X148.741 Y151.327
N4125 X148.687 Y151.59
N4130 X148.654 Y151.856
N4135 X148.642 Y152.112
N4140 X148.465 Y168.178
N4145 X148.476 Y168.446
N4150 X148.507 Y168.713
N4155 X148.559 Y168.976
N4160 X148.632 Y169.234
N4165 X148.724 Y169.486
N4170 X148.836 Y169.729
N4175 X148.966 Y169.964
N4180 X149.115 Y170.187
N4185 X149.28 Y170.398
N4190 X149.462 Y170.596
N4195 X149.658 Y170.779
N4200 X149.868 Y170.945
N4205 X150.09 Y171.095
N4210 X150.323 Y171.228
N4215 X150.566 Y171.341
N4220 X150.818 Y171.435
N4225 X151.075 Y171.51
N4230 X151.338 Y171.564
N4235 X151.604 Y171.597
N4240 X151.859 Y171.609
N4245 X168.434 Y171.787
N4250 X168.702 Y171.777
N4255 X168.968 Y171.745
N4260 X169.231 Y171.693
N4265 X169.356 Y171.661
N4270 X169.393 Y171.65 Z-7.916
N4275 X169.457 Y171.631 Z-7.674
N4280 X169.489 Y171.621 Z-7.583
N4285 X169.551 Y171.6 Z-7.437
N4290 X169.612 Y171.578 Z-7.316
N4295 X169.673 Y171.555 Z-7.21
N4300 X169.735 Y171.53 Z-7.119
N4305 X169.809 Y171.499 Z-7.023
N4310 X169.883 Y171.466 Z-6.941
N4315 X169.969 Y171.424 Z-6.858
N4320 X170.053 Y171.38 Z-6.789
N4325 X170.149 Y171.327 Z-6.724
N4330 X170.243 Y171.27 Z-6.673
N4335 X170.386 Y171.176 Z-6.619
N4340 X170.548 Y171.057 Z-6.581
N4345 X170.648 Y170.975 Z-6.566
N4350 X170.746 Y170.889 Z-6.557
N4355 X170.889 Y170.751 Z-6.555
N4360 X171.025 Y170.603 Z-6.564
N4365 X171.109 Y170.502 Z-6.573
N4370 X171.189 Y170.398 Z-6.589
N4375 X171.257 Y170.303 Z-6.608
N4380 X171.321 Y170.205 Z-6.634
N4385 X171.438 Y170.008 Z-6.697
N4390 X171.497 Y169.896 Z-6.737
N4395 X171.551 Y169.782 Z-6.786
N4400 X171.595 Y169.683 Z-6.835
N4405 X171.635 Y169.582 Z-6.893
N4410 X171.67 Y169.485 Z-6.955
N4415 X171.73 Y169.297 Z-7.094
N4420 X171.754 Y169.206 Z-7.171
N4425 X171.777 Y169.109 Z-7.264
N4430 X171.798 Y169.012 Z-7.375
N4435 X171.811 Y168.939 Z-7.474
N4440 X171.823 Y168.865 Z-7.591
N4445 X171.831 Y168.807 Z-7.703
N4450 X171.838 Y168.748 Z-7.843
N4455 X171.845 Y168.687 Z-8.052
N4460 X171.846 Y168.668 Z-8.15
N4465 X171.86 Y168.397
N4470 X172.037 Y151.603
N4475 Y151.574 Z-7.998
N4480 Y151.536 Z-7.858
N4485 X172.038 Y151.497 Z-7.749
N4490 X172.039 Y151.426 Z-7.586
N4495 X172.04 Y151.319 Z-7.393
N4500 X172.037 Y151.18 Z-7.192
N4505 X172.028 Y151.036 Z-7.025
N4510 X172.019 Y150.946 Z-6.935
N4515 X172.008 Y150.856 Z-6.856
N4520 X171.993 Y150.755 Z-6.778
N4525 X171.975 Y150.656 Z-6.708
N4530 X171.952 Y150.548 Z-6.641
N4535 X171.893 Y150.327 Z-6.52
N4540 X171.857 Y150.216 Z-6.466
N4545 X171.781 Y150.013 Z-6.383
N4550 X171.731 Y149.898 Z-6.345
N4555 X171.618 Y149.673 Z-6.281
N4560 X171.555 Y149.562 Z-6.253
N4565 X171.43 Y149.367 Z-6.214
N4570 X171.354 Y149.261 Z-6.199
N4575 X171.189 Y149.058 Z-6.181
N4580 X171.101 Y148.961 Z-6.175
N4585 X170.929 Y148.792 Z-6.174
N4590 X170.777 Y148.661 Z-6.186
N4595 X170.631 Y148.548 Z-6.206
N4600 X170.535 Y148.48 Z-6.228
N4605 X170.438 Y148.417 Z-6.26
N4610 X170.34 Y148.358 Z-6.302
N4615 X170.245 Y148.304 Z-6.352
N4620 X170.148 Y148.254 Z-6.413
N4625 X170.057 Y148.21 Z-6.479
N4630 X169.965 Y148.168 Z-6.556
N4635 X169.881 Y148.134 Z-6.636
N4640 X169.796 Y148.101 Z-6.728
N4645 X169.72 Y148.074 Z-6.82
N4650 X169.644 Y148.049 Z-6.924
N4655 X169.578 Y148.029 Z-7.025
N4660 X169.511 Y148.01 Z-7.14
N4665 X169.399 Y147.981 Z-7.375
N4670 X169.308 Y147.961 Z-7.63
N4675 X169.275 Y147.954 Z-7.754
N4680 X169.241 Y147.948 Z-7.912
N4685 X169.208 Y147.942 Z-8.15
N4690 X168.943 Y147.905
N4695 X168.645 Y147.889
N4700 X151.069 Y147.708
N4705 X150.801 Y147.719
N4710 X150.535 Y147.75
N4715 X150.272 Y147.802
N4720 X150.014 Y147.875
N4725 X149.762 Y147.967
N4730 X149.518 Y148.079
N4735 X149.284 Y148.209
N4740 X149.06 Y148.358
N4745 X148.849 Y148.523
N4750 X148.652 Y148.705
N4755 X148.469 Y148.901
N4760 X148.302 Y149.111
N4765 X148.152 Y149.333
N4770 X148.02 Y149.566
N4775 X147.906 Y149.809
N4780 X147.812 Y150.061
N4785 X147.738 Y150.318
N4790 X147.684 Y150.581
N4795 X147.651 Y150.847
N4800 X147.638 Y151.105
N4805 X147.456 Y169.184
N4810 X147.466 Y169.452
N4815 X147.498 Y169.718
N4820 X147.55 Y169.981 Z-8.148
N4825 X147.62 Y170.231 Z-8.142
N4830 X147.712 Y170.483 Z-8.138
N4835 X147.823 Y170.727 Z-8.134
N4840 X147.953 Y170.962 Z-8.132
N4845 X148.101 Y171.186
N4850 X148.266 Y171.397
N4855 X148.447 Y171.595 Z-8.134
N4860 X148.643 Y171.778 Z-8.137
N4865 X148.852 Y171.945 Z-8.142
N4870 X149.074 Y172.096 Z-8.147
N4875 X149.308 Y172.228 Z-8.15
N4880 X149.55 Y172.342
N4885 X149.801 Y172.437
N4890 X150.059 Y172.512
N4895 X150.321 Y172.566
N4900 X150.625 Y172.603
N4905 X150.654 Y172.605 Z-8.049
N4910 X150.719 Y172.609 Z-7.905
N4915 X150.785 Y172.611 Z-7.805
N4920 X150.851 Y172.613 Z-7.732
N4925 X150.946 Z-7.652
N4930 X151.04 Y172.614 Z-7.592
N4935 X151.155 Y172.616 Z-7.537
N4940 X151.27 Y172.617 Z-7.501
N4945 X151.397 Y172.618 Z-7.479
N4950 X151.525 Y172.619 Z-7.474
N4955 X151.658 Y172.621 Z-7.489
N4960 X151.791 Y172.622 Z-7.523
N4965 X151.903 Y172.623 Z-7.57
N4970 X152.015 Y172.624 Z-7.635
N4975 X152.112 Y172.625 Z-7.712
N4980 X152.21 Y172.626 Z-7.814
N4985 X152.284 Y172.627 Z-7.92
N4990 X152.359 Z-8.074
N4995 X152.385 Y172.628 Z-8.15
N5000 X169.089 Y172.793
N5005 X169.128 Z-7.862
N5010 X169.183 Y172.794 Z-7.617
N5015 X169.284 Y172.795 Z-7.311
N5020 X169.406 Y172.796 Z-7.038
N5025 X169.502 Z-6.864
N5030 X169.637 Y172.791 Z-6.659
N5035 X169.789 Y172.779 Z-6.464
N5040 X169.958 Y172.757 Z-6.281
N5045 X170.046 Y172.742 Z-6.197
N5050 X170.143 Y172.724 Z-6.114
N5055 X170.238 Y172.702 Z-6.038
N5060 X170.341 Y172.676 Z-5.964
N5065 X170.442 Y172.646 Z-5.897
N5070 X170.55 Y172.612 Z-5.834
N5075 X170.656 Y172.573 Z-5.778
N5080 X170.767 Y172.529 Z-5.727
N5085 X170.876 Y172.481 Z-5.683
N5090 X170.988 Y172.426 Z-5.645
N5095 X171.098 Y172.368 Z-5.615
N5100 X171.209 Y172.304 Z-5.591
N5105 X171.386 Y172.19 Z-5.568
N5110 X171.531 Y172.084 Z-5.559
N5115 X171.733 Y171.915 Z-5.552
N5120 X171.925 Y171.727
N5125 X172.102 Y171.526 Z-5.556
N5130 X172.262 Y171.311 Z-5.566
N5135 X172.389 Y171.112 Z-5.581
N5140 X172.501 Y170.905 Z-5.601
N5145 X172.61 Y170.667 Z-5.629
N5150 X172.691 Y170.447 Z-5.663
N5155 X172.756 Y170.224 Z-5.707
N5160 X172.786 Y170.098 Z-5.734
N5165 X172.829 Y169.858 Z-5.794
N5170 X172.854 Y169.633 Z-5.865
N5175 X172.863 Y169.406 Z-5.952
N5180 X172.868 Y168.973 Z-6.145
N5185 X172.871 Y168.657 Z-6.313
N5190 X172.875 Y168.242 Z-6.574
N5195 X172.878 Y167.94 Z-6.799
N5200 X172.879 Y167.758 Z-6.96
N5205 X172.882 Y167.495 Z-7.234
N5210 X172.884 Y167.331 Z-7.442
N5215 X172.885 Y167.196 Z-7.661
N5220 Y167.134 Z-7.789
N5225 X172.886 Y167.087 Z-7.909
N5230 Y167.028 Z-8.133
N5235 X172.887 Y167.024 Z-8.15
N5240 X173.021 Y153.224
N5245 Y153.179 Z-7.972
N5250 X173.022 Y153.076 Z-7.714
N5255 X173.023 Y152.964 Z-7.51
N5260 X173.024 Y152.826 Z-7.313
N5265 X173.026 Y152.664 Z-7.127
N5270 X173.028 Y152.485 Z-6.951
N5275 X173.031 Y152.096 Z-6.635
N5280 X173.034 Y151.787 Z-6.427
N5285 X173.038 Y151.391 Z-6.205
N5290 X173.042 Y151.004 Z-6.017
N5295 X173.046 Y150.581 Z-5.849
N5300 X173.049 Y150.314 Z-5.755
N5305 X173.046 Y150.189 Z-5.717
N5310 X173.039 Y150.064 Z-5.683
N5315 X173.028 Y149.937 Z-5.652
N5320 X173.012 Y149.811 Z-5.625
N5325 X172.964 Y149.557 Z-5.58
N5330 X172.897 Y149.307 Z-5.542
N5335 X172.811 Y149.061 Z-5.514
N5340 X172.699 Y148.806 Z-5.493
N5345 X172.583 Y148.589 Z-5.478
N5350 X172.458 Y148.39 Z-5.468
N5355 X172.299 Y148.174 Z-5.462
N5360 X172.123 Y147.971 Z-5.458
N5365 X171.932 Y147.783
N5370 X171.728 Y147.61 Z-5.462
N5375 X171.623 Y147.531 Z-5.466
N5380 X171.516 Y147.457 Z-5.475
N5385 X171.417 Y147.394 Z-5.488
N5390 X171.316 Y147.334 Z-5.508
N5395 X171.214 Y147.278 Z-5.532
N5400 X171.11 Y147.226 Z-5.563
N5405 X171.007 Y147.179 Z-5.598
N5410 X170.903 Y147.134 Z-5.64
N5415 X170.8 Y147.095 Z-5.685
N5420 X170.696 Y147.059 Z-5.737
N5425 X170.596 Y147.027 Z-5.792
N5430 X170.494 Y146.999 Z-5.854
N5435 X170.298 Y146.953 Z-5.989
N5440 X170.11 Y146.921 Z-6.142
N5445 X169.934 Y146.9 Z-6.311
N5450 X169.77 Y146.889 Z-6.495
N5455 X169.653 Y146.886 Z-6.646
N5460 X169.515 Y146.884 Z-6.855
N5465 X169.393 Y146.883 Z-7.078
N5470 X169.289 Y146.882 Z-7.316
N5475 X169.203 Y146.881 Z-7.568
N5480 X169.138 Z-7.843
N5485 X169.095 Y146.88 Z-8.15
N5490 X153.722 Y146.734
N5495 X153.668 Y146.733 Z-7.953
N5500 X153.581 Z-7.751
N5505 X153.46 Y146.731 Z-7.548
N5510 X153.334 Y146.73 Z-7.369
N5515 X153.173 Y146.729 Z-7.181
N5520 X152.992 Y146.727 Z-7.006
N5525 X152.796 Y146.725 Z-6.843
N5530 X152.589 Y146.723 Z-6.692
N5535 X152.37 Y146.721 Z-6.565
N5540 X152.136 Y146.719 Z-6.464
N5545 X151.888 Y146.716 Z-6.392
N5550 X151.631 Y146.714 Z-6.352
N5555 X151.37 Y146.712 Z-6.345
N5560 X151.237 Y146.71 Z-6.354
N5565 X150.987 Y146.708 Z-6.395
N5570 X150.757 Y146.706 Z-6.462
N5575 X150.535 Y146.704 Z-6.555
N5580 X150.324 Y146.702 Z-6.675
N5585 X150.221 Y146.701 Z-6.746
N5590 X150.065 Y146.699 Z-6.875
N5595 X149.978 Y146.7 Z-6.961
N5600 X149.854 Y146.706 Z-7.109
N5605 X149.744 Y146.714 Z-7.272
N5610 X149.683 Y146.721 Z-7.379
N5615 X149.622 Y146.728 Z-7.504
N5620 X149.573 Y146.735 Z-7.62
N5625 X149.525 Y146.742 Z-7.761
N5630 X149.49 Y146.748 Z-7.888
N5635 X149.447 Y146.755 Z-8.124
N5640 X149.191 Y146.812 Z-8.113
N5645 X148.939 Y146.889 Z-8.103
N5650 X148.691 Y146.986 Z-8.094
N5655 X148.45 Y147.103 Z-8.086
N5660 X148.218 Y147.239 Z-8.08
N5665 X147.998 Y147.392 Z-8.074
N5670 X147.791 Y147.561 Z-8.07
N5675 X147.597 Y147.747 Z-8.067
N5680 X147.418 Y147.947 Z-8.065
N5685 X147.256 Y148.16
N5690 X147.111 Y148.386 Z-8.066
N5695 X146.984 Y148.622 Z-8.068
N5700 X146.875 Y148.867 Z-8.072
N5705 X146.786 Y149.12 Z-8.076
N5710 X146.717 Y149.38 Z-8.082
N5715 X146.669 Y149.643 Z-8.09
N5720 X146.642 Y149.91 Z-8.098
N5725 X146.635 Y150.098 Z-8.105
N5730 X146.622 Y151.426 Z-8.15
N5735 X146.463 Y168.46 Z-8.149
N5740 X146.447 Y170.186 Z-8.085
N5745 X146.457 Y170.451 Z-8.075
N5750 X146.488 Y170.718 Z-8.067
N5755 X146.54 Y170.981 Z-8.06
N5760 X146.613 Y171.239 Z-8.054
N5765 X146.705 Y171.491 Z-8.05
N5770 X146.816 Y171.735 Z-8.046
N5775 X146.947 Y171.969 Z-8.044
N5780 X147.095 Y172.193
N5785 X147.26 Y172.404
N5790 X147.442 Y172.602 Z-8.046
N5795 X147.638 Y172.785 Z-8.049
N5800 X147.848 Y172.952 Z-8.054
N5805 X148.07 Y173.102 Z-8.06
N5810 X148.303 Y173.234 Z-8.067
N5815 X148.546 Y173.348 Z-8.075
N5820 X148.797 Y173.442 Z-8.084
N5825 X149.073 Y173.521 Z-8.095
N5830 X149.109 Y173.529 Z-7.887
N5835 X149.167 Y173.542 Z-7.677
N5840 X149.249 Y173.558 Z-7.465
N5845 X149.355 Y173.577 Z-7.255
N5850 X149.487 Y173.594 Z-7.054
N5855 X149.565 Y173.602 Z-6.955
N5860 X149.643 Y173.609 Z-6.866
N5865 X149.733 Y173.613 Z-6.775
N5870 X149.846 Y173.616 Z-6.673
N5875 X150.126 Y173.619 Z-6.457
N5880 X150.258 Y173.62 Z-6.371
N5885 X150.483 Y173.622 Z-6.252
N5890 X150.722 Y173.624 Z-6.156
N5895 X150.971 Y173.627 Z-6.087
N5900 X151.227 Y173.629 Z-6.045
N5905 X151.489 Y173.631 Z-6.031
N5910 X151.757 Y173.634 Z-6.047
N5915 X151.991 Y173.636 Z-6.087
N5920 X152.222 Y173.638 Z-6.15
N5925 X152.446 Y173.64 Z-6.237
N5930 X152.875 Y173.644 Z-6.443
N5935 X153.186 Y173.647 Z-6.619
N5940 X153.596 Y173.651 Z-6.882
N5945 X153.8 Y173.653 Z-7.035
N5950 X153.984 Y173.654 Z-7.194
N5955 X154.238 Y173.657 Z-7.447
N5960 X154.326 Z-7.55
N5965 X154.415 Y173.658 Z-7.669
N5970 X154.482 Y173.659 Z-7.775
N5975 X154.548 Z-7.903
N5980 X154.618 Y173.66 Z-8.094
N5985 X154.634 Z-8.15
N5990 X169.225 Y173.794 Z-8.146
N5995 X169.265 Z-7.859
N6000 X169.339 Y173.795 Z-7.565
N6005 X169.437 Y173.796 Z-7.292
N6010 X169.538 Y173.797 Z-7.076
N6015 X169.659 Y173.798 Z-6.865
N6020 X169.798 Y173.799 Z-6.663
N6025 X169.955 Y173.801 Z-6.47
N6030 X170.129 Y173.802 Z-6.289
N6035 X170.315 Y173.804 Z-6.125
N6040 X170.44 Y173.805 Z-6.028
N6045 X170.652 Y173.799 Z-5.884
N6050 X170.763 Y173.79 Z-5.817
N6055 X170.873 Y173.778 Z-5.755
N6060 X170.988 Y173.761 Z-5.697
N6065 X171.103 Y173.74 Z-5.645
N6070 X171.221 Y173.715 Z-5.596
N6075 X171.338 Y173.685 Z-5.553
N6080 X171.458 Y173.651 Z-5.515
N6085 X171.576 Y173.611 Z-5.482
N6090 X171.696 Y173.567 Z-5.454
N6095 X171.814 Y173.518 Z-5.433
N6100 X171.932 Y173.463 Z-5.416
N6105 X172.048 Y173.404 Z-5.406
N6110 X172.211 Y173.312 Z-5.4
N6115 X172.435 Y173.165
N6120 X172.647 Y173.
N6125 X172.845 Y172.819
N6130 X173.029 Y172.624
N6135 X173.197 Y172.415
N6140 X173.347 Y172.193
N6145 X173.48 Y171.96
N6150 X173.595 Y171.717
N6155 X173.69 Y171.467
N6160 X173.765 Y171.209
N6165 X173.82 Y170.947
N6170 X173.846 Y170.764 Z-5.403
N6175 X173.865 Y170.498 Z-5.413
N6180 X173.87 Y170.056 Z-5.449
N6185 X173.875 Y169.587 Z-5.509
N6190 X173.88 Y169.006 Z-5.618
N6195 X173.884 Y168.545 Z-5.727
N6200 X173.889 Y167.965 Z-5.898
N6205 X173.893 Y167.504 Z-6.059
N6210 X173.899 Y166.93 Z-6.292
N6215 X173.903 Y166.502 Z-6.501
N6220 X173.904 Y166.294 Z-6.624
N6225 X173.906 Y166.098 Z-6.772
N6230 X173.908 Y165.918 Z-6.944
N6235 X173.909 Y165.757 Z-7.139
N6240 X173.91 Y165.618 Z-7.355
N6245 X173.912 Y165.502 Z-7.595
N6250 Y165.458 Z-7.715
N6255 Y165.413 Z-7.864
N6260 X173.913 Y165.364 Z-8.118
N6265 Y165.359 Z-8.15
N6270 X174.009 Y154.73
N6275 Y154.705 Z-7.985
N6280 Y154.667 Z-7.818
N6285 X174.01 Y154.588 Z-7.575
N6290 Y154.546 Z-7.475
N6295 X174.011 Y154.461 Z-7.306
N6300 X174.012 Y154.334 Z-7.102
N6305 X174.013 Y154.184 Z-6.91
N6310 X174.015 Y154.01 Z-6.733
N6315 X174.017 Y153.817 Z-6.574
N6320 X174.019 Y153.604 Z-6.437
N6325 X174.022 Y153.257 Z-6.266
N6330 X174.025 Y152.896 Z-6.116
N6335 X174.031 Y152.292 Z-5.899
N6340 X174.035 Y151.803 Z-5.755
N6345 X174.04 Y151.294 Z-5.628
N6350 X174.044 Y150.78 Z-5.529
N6355 X174.049 Y150.26 Z-5.455
N6360 X174.054 Y149.737 Z-5.412
N6365 X174.057 Y149.301 Z-5.4
N6370 X174.047 Y149.033
N6375 X174.015 Y148.767
N6380 X173.963 Y148.504
N6385 X173.89 Y148.246
N6390 X173.797 Y147.994
N6395 X173.685 Y147.75
N6400 X173.554 Y147.516
N6405 X173.405 Y147.293
N6410 X173.239 Y147.083
N6415 X173.057 Y146.886
N6420 X172.86 Y146.703
N6425 X172.65 Y146.537
N6430 X172.427 Y146.388
N6435 X172.252 Y146.288 Z-5.401
N6440 X172.09 Y146.206 Z-5.412
N6445 X171.982 Y146.158 Z-5.424
N6450 X171.874 Y146.113 Z-5.442
N6455 X171.764 Y146.073 Z-5.464
N6460 X171.654 Y146.037 Z-5.491
N6465 X171.544 Y146.004 Z-5.522
N6470 X171.433 Y145.976 Z-5.558
N6475 X171.324 Y145.952 Z-5.598
N6480 X171.107 Y145.914 Z-5.691
N6485 X170.894 Y145.891 Z-5.801
N6490 X170.728 Y145.883 Z-5.901
N6495 X170.469 Y145.88 Z-6.084
N6500 X170.284 Y145.878 Z-6.242
N6505 X170.11 Y145.877 Z-6.415
N6510 X169.95 Y145.875 Z-6.603
N6515 X169.804 Y145.874 Z-6.805
N6520 X169.674 Y145.873 Z-7.022
N6525 X169.562 Y145.872 Z-7.253
N6530 X169.468 Y145.871 Z-7.5
N6535 X169.394 Y145.87 Z-7.766
N6540 X169.368 Z-7.895
N6545 X169.336 Z-8.124
N6550 X167.727 Y145.856 Z-8.15
N6555 X156.464 Y145.756 Z-8.146
N6560 X156.418 Z-8.037
N6565 X156.377 Y145.755 Z-7.96
N6570 X156.31 Z-7.859
N6575 X156.157 Y145.753 Z-7.682
N6580 X155.909 Y145.751 Z-7.439
N6585 X155.711 Y145.749 Z-7.281
N6590 X155.388 Y145.747 Z-7.069
N6595 X155.079 Y145.744 Z-6.876
N6600 X154.734 Y145.741 Z-6.693
N6605 X154.273 Y145.737 Z-6.468
N6610 X153.681 Y145.731 Z-6.221
N6615 X153.216 Y145.727 Z-6.049
N6620 X152.618 Y145.722 Z-5.857
N6625 X152.08 Y145.717 Z-5.716
N6630 X151.855 Y145.715 Z-5.673
N6635 X151.595 Y145.713 Z-5.647
N6640 X151.331 Y145.711 Z-5.646
N6645 X151.079 Y145.708 Z-5.669
N6650 X150.845 Y145.706 Z-5.711
N6655 X150.558 Y145.704 Z-5.793
N6660 X150.168 Y145.7 Z-5.936
N6665 X149.84 Y145.697 Z-6.079
N6670 X149.523 Y145.695 Z-6.243
N6675 X149.216 Y145.692 Z-6.431
N6680 X149.059 Y145.691 Z-6.541
N6685 X148.964 Y145.692 Z-6.615
N6690 X148.869 Y145.696 Z-6.698
N6695 X148.783 Y145.702 Z-6.781
N6700 X148.696 Y145.71 Z-6.875
N6705 X148.618 Y145.719 Z-6.968
N6710 X148.541 Y145.73 Z-7.073
N6715 X148.474 Y145.741 Z-7.176
N6720 X148.408 Y145.753 Z-7.292
N6725 X148.352 Y145.764 Z-7.403
N6730 X148.297 Y145.776 Z-7.531
N6735 X148.254 Y145.786 Z-7.65
N6740 X148.212 Y145.797 Z-7.796
N6745 X148.164 Y145.809 Z-8.024
N6750 X147.901 Y145.892 Z-8.014
N6755 X147.654 Y145.992 Z-8.005
N6760 X147.414 Y146.111 Z-7.998
N6765 X147.184 Y146.249 Z-7.991
N6770 X146.965 Y146.404 Z-7.986
N6775 X146.759 Y146.576 Z-7.981
N6780 X146.568 Y146.764 Z-7.979
N6785 X146.391 Y146.966 Z-7.977
N6790 X146.231 Y147.181
N6795 X146.088 Y147.408 Z-7.978
N6800 X145.963 Y147.645 Z-7.981
N6805 X145.858 Y147.892 Z-7.984
N6810 X145.772 Y148.146 Z-7.989
N6815 X145.705 Y148.406 Z-7.995
N6820 X145.66 Y148.67 Z-8.003
N6825 X145.635 Y148.937 Z-8.011
N6830 X145.631 Y149.089 Z-8.017
N6835 X145.598 Y152.807 Z-8.15
N6840 X145.57 Y156.035
N6845 Y156.093 Z-8.032
N6850 X145.569 Y156.134 Z-7.974
N6855 Y156.214 Z-7.886
N6860 X145.568 Y156.294 Z-7.822
N6865 X145.567 Y156.403 Z-7.761
N6870 X145.566 Y156.511 Z-7.723
N6875 X145.565 Y156.639 Z-7.702
N6880 X145.564 Y156.766 Z-7.705
N6885 X145.563 Y156.896 Z-7.732
N6890 X145.562 Y157.027 Z-7.788
N6895 X145.56 Y157.156 Z-7.88
N6900 Y157.234 Z-7.954
N6905 X145.559 Y157.315 Z-8.05
N6910 Y157.382 Z-8.15
N6915 X145.515 Y162.363 Z-8.148
N6920 Y162.407 Z-8.07
N6925 X145.514 Y162.48 Z-7.97
N6930 X145.513 Y162.564 Z-7.879
N6935 X145.512 Y162.748 Z-7.722
N6940 X145.51 Y162.902 Z-7.617
N6945 X145.509 Y163.066 Z-7.542
N6950 X145.508 Y163.19 Z-7.508
N6955 X145.507 Y163.314 Z-7.493
N6960 X145.506 Y163.445 Z-7.496
N6965 X145.505 Y163.577 Z-7.518
N6970 X145.504 Y163.691 Z-7.554
N6975 X145.503 Y163.806 Z-7.608
N6980 X145.502 Y163.909 Z-7.675
N6985 X145.501 Y164.012 Z-7.766
N6990 X145.5 Y164.094 Z-7.863
N6995 X145.499 Y164.177 Z-8.
N7000 Y164.235 Z-8.15
N7005 X145.473 Y167.201 Z-8.145
N7010 X145.439 Y171.188 Z-7.997
N7015 X145.449 Y171.453 Z-7.988
N7020 X145.48 Y171.72 Z-7.979
N7025 X145.532 Y171.983 Z-7.972
N7030 X145.604 Y172.241 Z-7.967
N7035 X145.696 Y172.493 Z-7.962
N7040 X145.808 Y172.737 Z-7.959
N7045 X145.938 Y172.971 Z-7.957
N7050 X146.086 Y173.195 Z-7.956
N7055 X146.251 Y173.406
N7060 X146.433 Y173.604 Z-7.958
N7065 X146.629 Y173.787 Z-7.962
N7070 X146.838 Y173.954 Z-7.966
N7075 X147.06 Y174.104 Z-7.972
N7080 X147.294 Y174.237 Z-7.979
N7085 X147.536 Y174.351 Z-7.987
N7090 X147.81 Y174.453 Z-7.997
N7095 X147.854 Y174.467 Z-7.781
N7100 X147.918 Y174.486 Z-7.568
N7105 X148.005 Y174.51 Z-7.354
N7110 X148.116 Y174.537 Z-7.145
N7115 X148.251 Y174.564 Z-6.945
N7120 X148.409 Y174.589 Z-6.757
N7125 X148.498 Y174.6 Z-6.667
N7130 X148.588 Y174.609 Z-6.585
N7135 X148.688 Y174.616 Z-6.504
N7140 X148.842 Y174.62 Z-6.394
N7145 X149.174 Y174.623 Z-6.194
N7150 X149.522 Y174.626 Z-6.02
N7155 X149.883 Y174.629 Z-5.87
N7160 X150.252 Y174.633 Z-5.742
N7165 X150.63 Y174.636 Z-5.636
N7170 X151.013 Y174.639 Z-5.554
N7175 X151.273 Y174.641 Z-5.524
N7180 X151.535 Y174.644 Z-5.518
N7185 X151.803 Y174.646 Z-5.536
N7190 X152.387 Y174.651 Z-5.631
N7195 X153.222 Y174.658 Z-5.811
N7200 X154.048 Y174.665 Z-6.03
N7205 X154.977 Y174.673 Z-6.315
N7210 X155.786 Y174.68 Z-6.592
N7215 X156.133 Y174.683 Z-6.717
N7220 X156.59 Y174.687 Z-6.886
N7225 X156.81 Y174.689 Z-6.97
N7230 X157.277 Y174.693 Z-7.143
N7235 X157.495 Y174.694 Z-7.23
N7240 X157.964 Y174.698 Z-7.398
N7245 X158.292 Y174.701 Z-7.539
N7250 X158.397 Y174.702 Z-7.603
N7255 X158.501 Y174.703 Z-7.688
N7260 X158.587 Y174.704 Z-7.78
N7265 X158.673 Y174.705 Z-7.902
N7270 X158.734 Z-8.022
N7275 X158.779 Z-8.15
N7280 X166.165 Y174.769 Z-8.147
N7285 X169.558 Y174.798 Z-8.079
N7290 X169.585 Z-7.894
N7295 X169.652 Z-7.607
N7300 X169.719 Y174.799 Z-7.404
N7305 X169.825 Y174.8 Z-7.155
N7310 X169.939 Y174.801 Z-6.941
N7315 X170.072 Y174.802 Z-6.734
N7320 X170.223 Y174.803 Z-6.537
N7325 X170.392 Y174.805 Z-6.352
N7330 X170.576 Y174.806 Z-6.179
N7335 X170.775 Y174.808 Z-6.021
N7340 X170.988 Y174.81 Z-5.879
N7345 X171.212 Y174.812 Z-5.754
N7350 X171.437 Y174.813 Z-5.651
N7355 X171.559 Y174.811 Z-5.603
N7360 X171.68 Y174.805 Z-5.56
N7365 X171.804 Y174.794 Z-5.522
N7370 X171.928 Y174.778 Z-5.488
N7375 X172.054 Y174.758 Z-5.46
N7380 X172.179 Y174.732 Z-5.437
N7385 X172.305 Y174.702 Z-5.419
N7390 X172.43 Y174.667 Z-5.407
N7395 X172.63 Y174.6 Z-5.4
N7400 X172.877 Y174.497
N7405 X173.116 Y174.375
N7410 X173.345 Y174.235
N7415 X173.562 Y174.077
N7420 X173.766 Y173.903
N7425 X173.956 Y173.714
N7430 X174.13 Y173.51
N7435 X174.289 Y173.294
N7440 X174.429 Y173.065
N7445 X174.552 Y172.827
N7450 X174.655 Y172.579
N7455 X174.739 Y172.324
N7460 X174.803 Y172.064
N7465 X174.846 Y171.799
N7470 X174.868 Y171.532
N7475 X174.882 Y170.201
N7480 X174.89 Y169.244 Z-5.403
N7485 X174.895 Y168.632 Z-5.434
N7490 X174.9 Y168.044 Z-5.491
N7495 X174.906 Y167.342 Z-5.59
N7500 X174.91 Y166.876 Z-5.676
N7505 X174.912 Y166.646 Z-5.738
N7510 X174.913 Y166.421 Z-5.82
N7515 X174.915 Y166.203 Z-5.922
N7520 X174.917 Y165.994 Z-6.042
N7525 X174.919 Y165.794 Z-6.182
N7530 X174.92 Y165.607 Z-6.338
N7535 X174.922 Y165.433 Z-6.512
N7540 X174.923 Y165.273 Z-6.703
N7545 X174.924 Y165.13 Z-6.909
N7550 X174.925 Y165.004 Z-7.13
N7555 X174.926 Y164.896 Z-7.367
N7560 X174.927 Y164.809 Z-7.621
N7565 X174.928 Y164.743 Z-7.901
N7570 Y164.709 Z-8.15
N7575 X175.007 Y155.32
N7580 Y155.272 Z-7.825
N7585 X175.008 Y155.189 Z-7.513
N7590 X175.009 Y155.107 Z-7.294
N7595 Y155.004 Z-7.078
N7600 X175.01 Y154.882 Z-6.868
N7605 X175.012 Y154.74 Z-6.666
N7610 X175.013 Y154.579 Z-6.476
N7615 X175.014 Y154.401 Z-6.299
N7620 X175.016 Y154.207 Z-6.137
N7625 X175.018 Y153.997 Z-5.993
N7630 X175.02 Y153.774 Z-5.867
N7635 X175.022 Y153.54 Z-5.761
N7640 X175.024 Y153.295 Z-5.677
N7645 X175.026 Y152.987 Z-5.604
N7650 X175.031 Y152.395 Z-5.514
N7655 X175.037 Y151.743 Z-5.444
N7660 X175.042 Y151.087 Z-5.406
N7665 X175.049 Y150.339 Z-5.4
N7670 X175.066 Y148.298
N7675 X175.055 Y148.03
N7680 X175.024 Y147.763
N7685 X174.971 Y147.5
N7690 X174.899 Y147.242
N7695 X174.806 Y146.99
N7700 X174.694 Y146.747
N7705 X174.563 Y146.513
N7710 X174.414 Y146.289
N7715 X174.248 Y146.079
N7720 X174.066 Y145.882
N7725 X173.87 Y145.699
N7730 X173.659 Y145.533
N7735 X173.437 Y145.384
N7740 X173.203 Y145.252
N7745 X172.959 Y145.14
N7750 X172.708 Y145.046
N7755 X172.596 Y145.012 Z-5.404
N7760 X172.484 Y144.982 Z-5.412
N7765 X172.369 Y144.955 Z-5.425
N7770 X172.254 Y144.932 Z-5.442
N7775 X172.139 Y144.913 Z-5.464
N7780 X172.024 Y144.898 Z-5.491
N7785 X171.795 Y144.881 Z-5.556
N7790 X171.563 Y144.877 Z-5.64
N7795 X171.344 Y144.875 Z-5.739
N7800 X171.133 Y144.873 Z-5.854
N7805 X170.93 Y144.871 Z-5.985
N7810 X170.737 Y144.87 Z-6.132
N7815 X170.556 Y144.868 Z-6.294
N7820 X170.386 Y144.867 Z-6.472
N7825 X170.231 Y144.866 Z-6.664
N7830 X170.09 Y144.864 Z-6.871
N7835 X169.966 Y144.863 Z-7.091
N7840 X169.859 Y144.862 Z-7.325
N7845 X169.772 Z-7.575
N7850 X169.705 Y144.861 Z-7.844
N7855 X169.671 Z-8.057
N7860 X164.574 Y144.819 Z-8.15
N7865 X159.705 Y144.779
N7870 X159.679 Y144.778 Z-7.996
N7875 X159.612 Z-7.758
N7880 X159.545 Y144.777 Z-7.593
N7885 X159.437 Y144.776 Z-7.392
N7890 X159.3 Y144.775 Z-7.196
N7895 X159.136 Y144.774 Z-7.015
N7900 X158.947 Y144.772 Z-6.854
N7905 X158.736 Y144.771 Z-6.717
N7910 X158.507 Y144.769 Z-6.608
N7915 X158.263 Y144.767 Z-6.529
N7920 X157.491 Y144.76 Z-6.385
N7925 X157.116 Y144.757 Z-6.311
N7930 X156.485 Y144.752 Z-6.182
N7935 X154.764 Y144.738 Z-5.82
N7940 X153.757 Y144.729 Z-5.637
N7945 X152.873 Y144.722 Z-5.511
N7950 X152.089 Y144.716 Z-5.435
N7955 X151.498 Y144.711 Z-5.406
N7960 X151.164 Y144.708 Z-5.417
N7965 X150.694 Y144.704 Z-5.46
N7970 X150.226 Y144.7 Z-5.528
N7975 X149.762 Y144.696 Z-5.624
N7980 X149.304 Y144.693 Z-5.748
N7985 X148.856 Y144.689 Z-5.903
N7990 X148.527 Y144.686 Z-6.042
N7995 X148.206 Y144.683 Z-6.201
N8000 X148.059 Y144.682 Z-6.284
N8005 X147.958 Y144.684 Z-6.347
N8010 X147.856 Y144.688 Z-6.416
N8015 X147.761 Y144.695 Z-6.489
N8020 X147.665 Y144.705 Z-6.569
N8025 X147.577 Y144.716 Z-6.651
N8030 X147.49 Y144.73 Z-6.741
N8035 X147.411 Y144.744 Z-6.832
N8040 X147.263 Y144.776 Z-7.033
N8045 X147.136 Y144.809 Z-7.252
N8050 X147.03 Y144.84 Z-7.49
N8055 X146.951 Y144.866 Z-7.739
N8060 X146.927 Y144.874 Z-7.838
N8065 X146.691 Y144.967 Z-7.774
N8070 X146.46 Y145.077 Z-7.717
N8075 X146.237 Y145.206 Z-7.668
N8080 X146.023 Y145.351 Z-7.627
N8085 X145.82 Y145.514 Z-7.595
N8090 X145.628 Y145.691 Z-7.571
N8095 X145.45 Y145.884 Z-7.557
N8100 X145.286 Y146.092 Z-7.552
N8105 X145.136 Y146.315 Z-7.557
N8110 X145.069 Y146.429 Z-7.563
N8115 X144.954 Y146.652 Z-7.581
N8120 X144.856 Y146.88 Z-7.608
N8125 X144.771 Y147.127 Z-7.644
N8130 X144.706 Y147.378 Z-7.689
N8135 X144.66 Y147.633 Z-7.742
N8140 X144.634 Y147.888 Z-7.802
N8145 X144.626 Y148.088 Z-7.854
N8150 X144.624 Y148.408 Z-7.941
N8155 X144.576 Y154.295 Z-8.15
N8160 X144.575 Y154.378
N8165 Y154.407 Z-7.958
N8170 X144.574 Y154.463 Z-7.731
N8175 Y154.52 Z-7.567
N8180 X144.573 Y154.583 Z-7.419
N8185 X144.572 Y154.709 Z-7.185
N8190 X144.571 Y154.846 Z-6.986
N8195 X144.57 Y155.006 Z-6.8
N8200 X144.568 Y155.188 Z-6.63
N8205 X144.567 Y155.388 Z-6.479
N8210 X144.565 Y155.606 Z-6.349
N8215 X144.563 Y155.838 Z-6.244
N8220 X144.561 Y156.083 Z-6.164
N8225 X144.559 Y156.337 Z-6.111
N8230 X144.557 Y156.596 Z-6.087
N8235 X144.555 Y156.861 Z-6.093
N8240 X144.547 Y157.814 Z-6.222
N8245 X144.541 Y158.544 Z-6.3
N8250 X144.535 Y159.277 Z-6.348
N8255 X144.529 Y160.05 Z-6.358
N8260 X144.523 Y160.803 Z-6.329
N8265 X144.517 Y161.562 Z-6.264
N8270 X144.511 Y162.319 Z-6.169
N8275 X144.504 Y163.072 Z-6.059
N8280 X144.502 Y163.333 Z-6.042
N8285 X144.5 Y163.601 Z-6.055
N8290 X144.498 Y163.836 Z-6.092
N8295 X144.496 Y164.067 Z-6.153
N8300 X144.494 Y164.292 Z-6.238
N8305 X144.493 Y164.508 Z-6.345
N8310 X144.491 Y164.714 Z-6.475
N8315 X144.489 Y164.907 Z-6.627
N8320 X144.488 Y165.084 Z-6.8
N8325 X144.487 Y165.244 Z-6.994
N8330 X144.486 Y165.385 Z-7.206
N8335 X144.485 Y165.505 Z-7.438
N8340 X144.484 Y165.601 Z-7.692
N8345 Y165.637 Z-7.817
N8350 X144.483 Y165.687 Z-8.076
N8355 Y165.697 Z-8.15
N8360 X144.437 Y171.355 Z-7.939
N8365 X144.43 Y172.196 Z-7.718
N8370 X144.44 Y172.45 Z-7.654
N8375 X144.468 Y172.704 Z-7.598
N8380 X144.516 Y172.957 Z-7.548
N8385 X144.583 Y173.207 Z-7.507
N8390 X144.669 Y173.452 Z-7.473
N8395 X144.774 Y173.691 Z-7.449
N8400 X144.897 Y173.923 Z-7.434
N8405 X145.039 Y174.147 Z-7.429
N8410 X145.118 Y174.255 Z-7.43
N8415 X145.277 Y174.452 Z-7.439
N8420 X145.448 Y174.634 Z-7.456
N8425 X145.641 Y174.811 Z-7.483
N8430 X145.847 Y174.972 Z-7.517
N8435 X146.063 Y175.117 Z-7.558
N8440 X146.289 Y175.244 Z-7.605
N8445 X146.522 Y175.353 Z-7.659
N8450 X146.619 Y175.393 Z-7.681
N8455 X146.689 Y175.419 Z-7.462
N8460 X146.786 Y175.453 Z-7.237
N8465 X146.898 Y175.487 Z-7.036
N8470 X147.035 Y175.524 Z-6.838
N8475 X147.194 Y175.56 Z-6.653
N8480 X147.279 Y175.576 Z-6.569
N8485 X147.374 Y175.59 Z-6.484
N8490 X147.47 Y175.603 Z-6.407
N8495 X147.574 Y175.613 Z-6.331
N8500 X147.755 Y175.623 Z-6.217
N8505 X148.064 Y175.627 Z-6.057
N8510 X148.423 Y175.63 Z-5.901
N8515 X148.79 Y175.633 Z-5.769
N8520 X149.167 Y175.636 Z-5.659
N8525 X149.548 Y175.639 Z-5.569
N8530 X149.935 Y175.642 Z-5.498
N8535 X150.456 Y175.646 Z-5.434
N8540 X150.98 Y175.65 Z-5.403
N8545 X152.087 Y175.659 Z-5.402
N8550 X152.832 Y175.665 Z-5.432
N8555 X153.773 Y175.672 Z-5.509
N8560 X154.738 Y175.68 Z-5.62
N8565 X156.793 Y175.697 Z-5.891
N8570 X157.392 Y175.701 Z-5.964
N8575 X158.123 Y175.707 Z-6.041
N8580 X158.358 Y175.709 Z-6.083
N8585 X158.588 Y175.711 Z-6.148
N8590 X158.811 Y175.713 Z-6.236
N8595 X159.026 Y175.714 Z-6.348
N8600 X159.23 Y175.716 Z-6.481
N8605 X159.42 Y175.718 Z-6.637
N8610 X159.595 Y175.719 Z-6.812
N8615 X159.753 Y175.72 Z-7.008
N8620 X159.891 Y175.721 Z-7.223
N8625 X160.008 Y175.722 Z-7.457
N8630 X160.102 Y175.723 Z-7.713
N8635 X160.136 Z-7.838
N8640 X160.182 Y175.724 Z-8.086
N8645 X160.19 Z-8.15
N8650 X163.275 Y175.748 Z-8.145
N8655 X169.892 Y175.801 Z-8.012
N8660 X169.948 Y175.802 Z-7.721
N8665 X170.015 Z-7.489
N8670 X170.115 Y175.803 Z-7.231
N8675 X170.217 Y175.804 Z-7.025
N8680 X170.342 Y175.805 Z-6.816
N8685 X170.486 Y175.806 Z-6.616
N8690 X170.647 Y175.807 Z-6.425
N8695 X170.825 Y175.809 Z-6.248
N8700 X171.018 Y175.81 Z-6.084
N8705 X171.225 Y175.812 Z-5.935
N8710 X171.444 Y175.814 Z-5.803
N8715 X171.675 Y175.816 Z-5.689
N8720 X171.914 Y175.818 Z-5.592
N8725 X172.161 Y175.82 Z-5.515
N8730 X172.452 Y175.822 Z-5.45
N8735 X172.582 Y175.819 Z-5.43
N8740 X172.711 Y175.812 Z-5.415
N8745 X172.841 Y175.8 Z-5.405
N8750 X173.012 Y175.776 Z-5.4
N8755 X173.274 Y175.722
N8760 X173.532 Y175.647
N8765 X173.783 Y175.553
N8770 X174.026 Y175.439
N8775 X174.259 Y175.306
N8780 X174.481 Y175.156
N8785 X174.691 Y174.989
N8790 X174.887 Y174.805
N8795 X175.068 Y174.608
N8800 X175.233 Y174.396
N8805 X175.38 Y174.172
N8810 X175.51 Y173.938
N8815 X175.621 Y173.694
N8820 X175.713 Y173.442
N8825 X175.785 Y173.183
N8830 X175.836 Y172.92
N8835 X175.867 Y172.653
N8840 X175.877 Y172.291
N8845 X175.915 Y167.406 Z-5.403
N8850 X175.917 Y167.162 Z-5.42
N8855 X175.919 Y166.927 Z-5.456
N8860 X175.921 Y166.696 Z-5.511
N8865 X175.923 Y166.468 Z-5.584
N8870 X175.925 Y166.247 Z-5.675
N8875 X175.926 Y166.032 Z-5.785
N8880 X175.928 Y165.826 Z-5.911
N8885 X175.929 Y165.63 Z-6.055
N8890 X175.931 Y165.446 Z-6.215
N8895 X175.932 Y165.274 Z-6.39
N8900 X175.934 Y165.116 Z-6.581
N8905 X175.935 Y164.972 Z-6.786
N8910 X175.936 Y164.845 Z-7.004
N8915 X175.937 Y164.735 Z-7.237
N8920 Y164.644 Z-7.484
N8925 X175.938 Y164.572 Z-7.751
N8930 Y164.546 Z-7.879
N8935 Y164.511 Z-8.148
N8940 X176.009 Y155.489 Z-8.144
N8945 X176.01 Y155.458 Z-7.898
N8950 Y155.424 Z-7.73
N8955 Y155.357 Z-7.485
N8960 X176.011 Y155.257 Z-7.216
N8965 X176.012 Y155.153 Z-6.999
N8970 X176.013 Y155.03 Z-6.788
N8975 X176.014 Y154.889 Z-6.585
N8980 X176.015 Y154.73 Z-6.393
N8985 X176.017 Y154.554 Z-6.213
N8990 X176.018 Y154.362 Z-6.048
N8995 X176.02 Y154.156 Z-5.898
N9000 X176.022 Y153.937 Z-5.766
N9005 X176.023 Y153.706 Z-5.653
N9010 X176.025 Y153.465 Z-5.56
N9015 X176.027 Y153.216 Z-5.487
N9020 X176.029 Y152.961 Z-5.436
N9025 X176.031 Y152.701 Z-5.407
N9030 X176.035 Y152.232 Z-5.4
N9035 X176.074 Y147.304
N9040 X176.063 Y147.036
N9045 X176.032 Y146.77
N9050 X175.98 Y146.507
N9055 X175.907 Y146.249
N9060 X175.815 Y145.997
N9065 X175.703 Y145.753
N9070 X175.573 Y145.519
N9075 X175.424 Y145.296
N9080 X175.259 Y145.084
N9085 X175.077 Y144.887
N9090 X174.881 Y144.704
N9095 X174.671 Y144.537
N9100 X174.449 Y144.387
N9105 X174.216 Y144.255
N9110 X173.973 Y144.141
N9115 X173.722 Y144.047
N9120 X173.464 Y143.973
N9125 X173.201 Y143.919
N9130 X173.002 Y143.892 Z-5.402
N9135 X172.758 Y143.875 Z-5.42
N9140 X172.552 Y143.872 Z-5.45
N9145 X172.204 Y143.869 Z-5.531
N9150 X171.867 Y143.867 Z-5.65
N9155 X171.649 Y143.865 Z-5.751
N9160 X171.439 Y143.863 Z-5.867
N9165 X171.237 Y143.862 Z-6.
N9170 X171.045 Y143.86 Z-6.149
N9175 X170.864 Y143.859 Z-6.313
N9180 X170.697 Y143.858 Z-6.492
N9185 X170.543 Y143.856 Z-6.686
N9190 X170.404 Y143.855 Z-6.894
N9195 X170.281 Y143.854 Z-7.116
N9200 X170.177 Z-7.351
N9205 X170.092 Y143.853 Z-7.603
N9210 X170.027 Y143.852 Z-7.875
N9215 X170.007 Z-7.991
N9220 X161.424 Y143.786 Z-8.15
N9225 X160.497 Y143.778
N9230 X160.469 Z-7.937
N9235 X160.41 Z-7.675
N9240 X160.351 Y143.777 Z-7.488
N9245 X160.29 Z-7.333
N9250 X160.171 Y143.776 Z-7.09
N9255 X160.044 Y143.775 Z-6.883
N9260 X159.897 Y143.774 Z-6.686
N9265 X159.731 Y143.773 Z-6.501
N9270 X159.547 Y143.771 Z-6.331
N9275 X159.347 Y143.77 Z-6.177
N9280 X159.131 Y143.768 Z-6.042
N9285 X158.903 Y143.766 Z-5.927
N9290 X158.663 Y143.764 Z-5.833
N9295 X158.414 Y143.762 Z-5.763
N9300 X158.158 Y143.76 Z-5.716
N9305 X154.964 Y143.736 Z-5.469
N9310 X153.941 Y143.728 Z-5.416
N9315 X153.134 Y143.721 Z-5.4
N9320 X150.056 Y143.698 Z-5.404
N9325 X149.575 Y143.694 Z-5.432
N9330 X149.105 Y143.69 Z-5.485
N9335 X148.639 Y143.687 Z-5.565
N9340 X148.178 Y143.683 Z-5.672
N9345 X147.723 Y143.679 Z-5.809
N9350 X147.39 Y143.677 Z-5.933
N9355 X147.044 Y143.674 Z-6.086
N9360 X146.939 Y143.676 Z-6.144
N9365 X146.834 Y143.681 Z-6.21
N9370 X146.737 Y143.688 Z-6.281
N9375 X146.639 Y143.698 Z-6.36
N9380 X146.551 Y143.71 Z-6.442
N9385 X146.462 Y143.724 Z-6.532
N9390 X146.383 Y143.739 Z-6.623
N9395 X146.235 Y143.771 Z-6.823
N9400 X146.107 Y143.805 Z-7.04
N9405 X146.026 Y143.829 Z-7.208
N9410 X145.787 Y143.913 Z-7.141
N9415 X145.554 Y144.016 Z-7.081
N9420 X145.327 Y144.136 Z-7.029
N9425 X145.109 Y144.274 Z-6.985
N9430 X144.9 Y144.429 Z-6.949
N9435 X144.703 Y144.6 Z-6.924
N9440 X144.537 Y144.767 Z-6.909
N9445 X144.383 Y144.945 Z-6.901
N9450 X144.3 Y145.051 Z-6.9
N9455 X144.222 Y145.16 Z-6.901
N9460 X144.149 Y145.272 Z-6.905
N9465 X144.016 Y145.502 Z-6.919
N9470 X143.903 Y145.738 Z-6.943
N9475 X143.813 Y145.969 Z-6.975
N9480 X143.74 Y146.205 Z-7.014
N9485 X143.682 Y146.457 Z-7.063
N9490 X143.643 Y146.712 Z-7.12
N9495 X143.625 Y146.955 Z-7.18
N9500 X143.622 Y147.071 Z-7.211
N9505 X143.606 Y149.074 Z-7.754
N9510 X143.601 Y149.788 Z-7.94
N9515 X143.572 Y153.647 Z-8.08
N9520 X143.571 Y153.676 Z-7.91
N9525 Y153.745 Z-7.646
N9530 X143.57 Y153.815 Z-7.452
N9535 Y153.886 Z-7.295
N9540 X143.569 Y154.001 Z-7.083
N9545 X143.568 Y154.136 Z-6.878
N9550 X143.567 Y154.291 Z-6.682
N9555 X143.565 Y154.462 Z-6.498
N9560 X143.564 Y154.648 Z-6.327
N9565 X143.562 Y154.849 Z-6.169
N9570 X143.561 Y155.061 Z-6.025
N9575 X143.559 Y155.283 Z-5.896
N9580 X143.557 Y155.515 Z-5.782
N9585 X143.555 Y155.756 Z-5.689
N9590 X143.554 Y156.005 Z-5.617
N9595 X143.552 Y156.26 Z-5.568
N9600 X143.55 Y156.521 Z-5.542
N9605 X143.547 Y156.816
N9610 X143.537 Y158.135 Z-5.608
N9615 X143.53 Y159.135 Z-5.64
N9620 X143.522 Y160.167 Z-5.645
N9625 X143.515 Y161.046 Z-5.628
N9630 X143.508 Y161.949 Z-5.593
N9635 X143.498 Y163.235 Z-5.525
N9640 X143.496 Y163.501 Z-5.527
N9645 X143.494 Y163.752 Z-5.552
N9650 X143.493 Y163.986 Z-5.596
N9655 X143.491 Y164.215 Z-5.658
N9660 X143.489 Y164.496 Z-5.764
N9665 X143.487 Y164.766 Z-5.894
N9670 X143.484 Y165.075 Z-6.077
N9675 X143.482 Y165.369 Z-6.292
N9680 X143.481 Y165.552 Z-6.452
N9685 X143.479 Y165.724 Z-6.627
N9690 X143.478 Y165.882 Z-6.816
N9695 X143.477 Y166.027 Z-7.02
N9700 X143.476 Y166.155 Z-7.24
N9705 X143.475 Y166.264 Z-7.477
N9710 Y166.352 Z-7.735
N9715 X143.474 Y166.384 Z-7.861
N9720 Y166.423 Z-8.073
N9725 X143.447 Y169.959 Z-7.941
N9730 X143.441 Y170.72 Z-7.733
N9735 X143.428 Y172.5 Z-7.268
N9740 X143.422 Y173.202 Z-7.085
N9745 X143.432 Y173.457 Z-7.022
N9750 X143.46 Y173.711 Z-6.967
N9755 X143.502 Y173.939 Z-6.922
N9760 X143.567 Y174.189 Z-6.882
N9765 X143.652 Y174.435 Z-6.849
N9770 X143.755 Y174.675 Z-6.826
N9775 X143.877 Y174.908 Z-6.813
N9780 X144.019 Y175.134 Z-6.808
N9785 X144.178 Y175.35 Z-6.813
N9790 X144.354 Y175.551 Z-6.827
N9795 X144.521 Y175.717 Z-6.849
N9800 X144.698 Y175.87 Z-6.878
N9805 X144.907 Y176.026 Z-6.915
N9810 X145.126 Y176.165 Z-6.959
N9815 X145.354 Y176.286 Z-7.009
N9820 X145.59 Y176.39 Z-7.066
N9825 X145.744 Y176.446 Z-7.103
N9830 X145.855 Y176.482 Z-6.89
N9835 X145.987 Y176.519 Z-6.689
N9840 X146.141 Y176.556 Z-6.501
N9845 X146.23 Y176.573 Z-6.41
N9850 X146.318 Y176.588 Z-6.329
N9855 X146.417 Y176.602 Z-6.248
N9860 X146.516 Y176.613 Z-6.176
N9865 X146.624 Y176.622 Z-6.106
N9870 X146.824 Y176.629 Z-5.998
N9875 X147.06 Y176.631 Z-5.893
N9880 X147.429 Y176.634 Z-5.764
N9885 X147.805 Y176.637 Z-5.654
N9890 X148.188 Y176.64 Z-5.565
N9895 X148.575 Y176.643 Z-5.496
N9900 X149.095 Y176.647 Z-5.433
N9905 X149.62 Y176.651 Z-5.403
N9910 X154.598 Y176.688
N9915 X155.877 Y176.698 Z-5.437
N9920 X158.066 Y176.714 Z-5.526
N9925 X158.301 Y176.716 Z-5.556
N9930 X158.534 Y176.718 Z-5.605
N9935 X158.762 Y176.719 Z-5.674
N9940 X158.985 Y176.721 Z-5.762
N9945 X159.201 Y176.723 Z-5.868
N9950 X159.408 Y176.724 Z-5.993
N9955 X159.604 Y176.726 Z-6.135
N9960 X159.789 Y176.727 Z-6.294
N9965 X159.961 Y176.728 Z-6.469
N9970 X160.119 Y176.729 Z-6.66
N9975 X160.295 Y176.731 Z-6.921
N9980 X160.386 Z-7.086
N9985 X160.494 Y176.732 Z-7.32
N9990 X160.582 Y176.733 Z-7.569
N9995 X160.65 Z-7.838
N10000 X160.693 Y176.734 Z-8.129
N10005 X160.694 Z-8.136
N10010 X170.229 Y176.805 Z-7.944
N10015 X170.286 Y176.806 Z-7.672
N10020 X170.354 Z-7.453
N10025 X170.421 Y176.807 Z-7.28
N10030 X170.546 Y176.808 Z-7.021
N10035 X170.671 Y176.809 Z-6.812
N10040 X170.815 Y176.81 Z-6.612
N10045 X170.977 Y176.811 Z-6.422
N10050 X171.155 Y176.812 Z-6.245
N10055 X171.348 Y176.814 Z-6.081
N10060 X171.555 Y176.815 Z-5.933
N10065 X171.775 Y176.817 Z-5.801
N10070 X172.005 Y176.819 Z-5.687
N10075 X172.245 Y176.821 Z-5.591
N10080 X172.618 Y176.823 Z-5.48
N10085 X173.001 Y176.826 Z-5.398
N10090 X173.26 Y176.828 Z-5.364
N10095 X173.516 Y176.829 Z-5.348
N10100 X173.713 Y176.82 Z-5.341
N10105 X173.979 Y176.789 Z-5.334
N10110 X174.242 Y176.737 Z-5.33
N10115 X174.5 Y176.665 Z-5.328
N10120 X174.752 Y176.573 Z-5.33
N10125 X174.996 Y176.461 Z-5.334
N10130 X175.231 Y176.331 Z-5.341
N10135 X175.454 Y176.183 Z-5.35
N10140 X175.662 Y176.021 Z-5.362
N10145 X175.856 Y175.845 Z-5.377
N10150 X176.036 Y175.654 Z-5.394
N10155 X176.2 Y175.45 Z-5.4
N10160 X176.352 Y175.229
N10165 X176.486 Y174.996
N10170 X176.602 Y174.754
N10175 X176.698 Y174.504
N10180 X176.774 Y174.247
N10185 X176.83 Y173.984
N10190 X176.866 Y173.719
N10195 X176.881 Y173.424
N10200 X176.926 Y167.377 Z-5.403
N10205 X176.927 Y167.114 Z-5.425
N10210 X176.929 Y166.88 Z-5.465
N10215 X176.931 Y166.649 Z-5.523
N10220 X176.933 Y166.423 Z-5.6
N10225 X176.934 Y166.203 Z-5.695
N10230 X176.936 Y165.991 Z-5.807
N10235 X176.937 Y165.787 Z-5.937
N10240 X176.939 Y165.593 Z-6.084
N10245 X176.94 Y165.411 Z-6.247
N10250 X176.941 Y165.242 Z-6.425
N10255 X176.942 Y165.087 Z-6.618
N10260 X176.943 Y164.947 Z-6.825
N10265 X176.944 Y164.823 Z-7.045
N10270 X176.945 Y164.717 Z-7.279
N10275 X176.946 Y164.63 Z-7.528
N10280 Y164.562 Z-7.794
N10285 X176.947 Y164.516 Z-8.085
N10290 X177.014 Y155.483 Z-8.078
N10295 Y155.46 Z-7.913
N10300 Y155.427 Z-7.741
N10305 X177.015 Y155.36 Z-7.493
N10310 Y155.259 Z-7.222
N10315 X177.016 Y155.156 Z-7.005
N10320 X177.017 Y155.033 Z-6.793
N10325 X177.018 Y154.893 Z-6.59
N10330 X177.019 Y154.734 Z-6.398
N10335 X177.02 Y154.559 Z-6.218
N10340 X177.022 Y154.367 Z-6.052
N10345 X177.023 Y154.162 Z-5.902
N10350 X177.025 Y153.943 Z-5.77
N10355 X177.027 Y153.712 Z-5.656
N10360 X177.029 Y153.472 Z-5.562
N10365 X177.03 Y153.223 Z-5.488
N10370 X177.032 Y152.968 Z-5.437
N10375 X177.034 Y152.708 Z-5.407
N10380 X177.036 Y152.446 Z-5.4
N10385 X177.082 Y146.3
N10390 X177.071 Y146.032
N10395 X177.04 Y145.766
N10400 X176.988 Y145.503
N10405 X176.915 Y145.245
N10410 X176.823 Y144.993
N10415 X176.711 Y144.749
N10420 X176.581 Y144.515
N10425 X176.432 Y144.291
N10430 X176.286 Y144.103 Z-5.404
N10435 X176.118 Y143.916 Z-5.413
N10440 X175.948 Y143.752 Z-5.424
N10445 X175.768 Y143.6 Z-5.433
N10450 X175.553 Y143.444 Z-5.441
N10455 X175.324 Y143.304 Z-5.448
N10460 X175.085 Y143.183 Z-5.452
N10465 X174.837 Y143.08 Z-5.454
N10470 X174.582 Y142.997
N10475 X174.321 Y142.934 Z-5.452
N10480 X174.056 Y142.892 Z-5.448
N10485 X173.789 Y142.871 Z-5.441
N10490 X173.406 Y142.866 Z-5.431
N10495 X173.138 Y142.864 Z-5.437
N10500 X172.902 Y142.862 Z-5.46
N10505 X172.668 Y142.861 Z-5.503
N10510 X172.438 Y142.859 Z-5.564
N10515 X172.212 Y142.857 Z-5.644
N10520 X171.94 Y142.855 Z-5.769
N10525 X171.681 Y142.854 Z-5.921
N10530 X171.483 Y142.852 Z-6.061
N10535 X171.296 Y142.851 Z-6.216
N10540 X171.12 Y142.849 Z-6.386
N10545 X170.958 Y142.848 Z-6.572
N10550 X170.81 Y142.847 Z-6.771
N10555 X170.678 Y142.846 Z-6.985
N10560 X170.563 Y142.845 Z-7.213
N10565 X170.466 Z-7.455
N10570 X170.39 Y142.844 Z-7.712
N10575 X170.365 Z-7.814
N10580 X169.459 Y142.837 Z-7.941
N10585 X160.85 Y142.774 Z-8.104
N10590 X160.816 Z-7.873
N10595 X160.749 Z-7.593
N10600 X160.682 Y142.773 Z-7.392
N10605 X160.582 Z-7.155
N10610 X160.468 Y142.772 Z-6.941
N10615 X160.336 Y142.771 Z-6.734
N10620 X160.185 Y142.77 Z-6.537
N10625 X160.017 Y142.768 Z-6.351
N10630 X159.833 Y142.767 Z-6.178
N10635 X159.634 Y142.766 Z-6.02
N10640 X159.422 Y142.764 Z-5.877
N10645 X159.198 Y142.762 Z-5.752
N10650 X158.963 Y142.761 Z-5.645
N10655 X158.658 Y142.758 Z-5.537
N10660 X158.342 Y142.756 Z-5.462
N10665 X158.083 Y142.754 Z-5.426
N10670 X157.69 Y142.751 Z-5.412
N10675 X155.814 Y142.738 Z-5.4
N10680 X148.663 Y142.686 Z-5.404
N10685 X148.182 Y142.682 Z-5.432
N10690 X147.83 Y142.679 Z-5.469
N10695 X147.596 Y142.678 Z-5.51
N10700 X147.366 Y142.676 Z-5.57
N10705 X147.14 Y142.674 Z-5.649
N10710 X146.867 Y142.672 Z-5.773
N10715 X146.604 Y142.67 Z-5.92
N10720 X146.306 Y142.668 Z-6.122
N10725 X146.05 Y142.667 Z-6.334
N10730 X145.875 Y142.671 Z-6.506
N10735 X145.714 Y142.683 Z-6.694
N10740 X145.667 Y142.688 Z-6.755
N10745 X145.422 Y142.724 Z-6.673
N10750 X145.177 Y142.779 Z-6.596
N10755 X144.96 Y142.844 Z-6.532
N10760 X144.723 Y142.933 Z-6.467
N10765 X144.491 Y143.041 Z-6.41
N10770 X144.266 Y143.166 Z-6.359
N10775 X144.072 Y143.293 Z-6.321
N10780 X143.865 Y143.451 Z-6.288
N10785 X143.67 Y143.625 Z-6.266
N10790 X143.488 Y143.814 Z-6.253
N10795 X143.337 Y143.996 Z-6.248
N10800 X143.181 Y144.214 Z-6.25
N10805 X143.042 Y144.444 Z-6.263
N10810 X142.925 Y144.678 Z-6.285
N10815 X142.835 Y144.895 Z-6.315
N10820 X142.753 Y145.142 Z-6.355
N10825 X142.69 Y145.393 Z-6.403
N10830 X142.647 Y145.647 Z-6.457
N10835 X142.622 Y145.902 Z-6.519
N10840 X142.617 Y146.075 Z-6.566
N10845 X142.599 Y148.557 Z-7.251
N10850 X142.58 Y151.183 Z-7.939
N10855 X142.568 Y152.929 Z-8.003
N10860 X142.567 Y152.962 Z-7.84
N10865 Y153.029 Z-7.605
N10870 X142.566 Y153.098 Z-7.422
N10875 Y153.168 Z-7.272
N10880 X142.565 Y153.285 Z-7.06
N10885 X142.564 Y153.423 Z-6.856
N10890 X142.563 Y153.579 Z-6.662
N10895 X142.562 Y153.752 Z-6.48
N10900 X142.56 Y153.94 Z-6.31
N10905 X142.559 Y154.142 Z-6.153
N10910 X142.557 Y154.355 Z-6.011
N10915 X142.556 Y154.579 Z-5.883
N10920 X142.553 Y154.931 Z-5.719
N10925 X142.551 Y155.298 Z-5.589
N10930 X142.548 Y155.677 Z-5.492
N10935 X142.545 Y156.064 Z-5.43
N10940 X142.542 Y156.455 Z-5.402
N10945 X142.528 Y158.4 Z-5.403
N10950 X142.505 Y161.609 Z-5.402
N10955 X142.491 Y163.611 Z-5.403
N10960 X142.488 Y163.954 Z-5.428
N10965 X142.486 Y164.305 Z-5.48
N10970 X142.483 Y164.652 Z-5.56
N10975 X142.481 Y164.992 Z-5.669
N10980 X142.478 Y165.323 Z-5.806
N10985 X142.476 Y165.641 Z-5.973
N10990 X142.474 Y165.944 Z-6.17
N10995 X142.472 Y166.226 Z-6.398
N11000 X142.471 Y166.401 Z-6.567
N11005 X142.469 Y166.564 Z-6.751
N11010 X142.468 Y166.713 Z-6.95
N11015 X142.467 Y166.846 Z-7.164
N11020 Y166.961 Z-7.393
N11025 X142.466 Y167.056 Z-7.64
N11030 X142.465 Y167.126 Z-7.901
N11035 Y167.144 Z-7.995
N11040 X142.455 Y168.594 Z-7.941
N11045 X142.444 Y170.114 Z-7.521
N11050 X142.428 Y172.375 Z-6.924
N11055 X142.422 Y173.113 Z-6.735
N11060 X142.415 Y174.203 Z-6.457
N11065 X142.424 Y174.457 Z-6.394
N11070 X142.453 Y174.712 Z-6.34
N11075 X142.5 Y174.965 Z-6.294
N11080 X142.568 Y175.216 Z-6.256
N11085 X142.654 Y175.462 Z-6.227
N11090 X142.759 Y175.701 Z-6.205
N11095 X142.819 Y175.818 Z-6.198
N11100 X142.883 Y175.933 Z-6.194
N11105 X143.027 Y176.159 Z-6.193
N11110 X143.188 Y176.373 Z-6.202
N11115 X143.362 Y176.57 Z-6.219
N11120 X143.55 Y176.753 Z-6.245
N11125 X143.75 Y176.92 Z-6.279
N11130 X143.962 Y177.071 Z-6.318
N11135 X144.184 Y177.205 Z-6.361
N11140 X144.415 Y177.322 Z-6.413
N11145 X144.652 Y177.42 Z-6.471
N11150 X144.895 Y177.5 Z-6.536
N11155 X144.993 Y177.527 Z-6.562
N11160 X145.144 Y177.562 Z-6.37
N11165 X145.23 Y177.579 Z-6.278
N11170 X145.317 Y177.593 Z-6.195
N11175 X145.413 Y177.607 Z-6.112
N11180 X145.51 Y177.618 Z-6.037
N11185 X145.617 Y177.627 Z-5.965
N11190 X145.723 Y177.632 Z-5.9
N11195 X145.939 Y177.635 Z-5.79
N11200 X146.298 Y177.638 Z-5.643
N11205 X146.672 Y177.64 Z-5.529
N11210 X147.055 Y177.643 Z-5.449
N11215 X147.445 Y177.646 Z-5.4
N11220 X147.838 Y177.649 Z-5.382
N11225 X148.224 Y177.651 Z-5.392
N11230 X148.389 Y177.653 Z-5.4
N11235 X157.996 Y177.721 Z-5.402
N11240 X158.257 Y177.723 Z-5.422
N11245 X158.608 Y177.725 Z-5.483
N11250 X158.952 Y177.727 Z-5.58
N11255 X159.175 Y177.729 Z-5.667
N11260 X159.391 Y177.731 Z-5.769
N11265 X159.601 Y177.732 Z-5.888
N11270 X159.801 Y177.733 Z-6.023
N11275 X159.991 Y177.735 Z-6.174
N11280 X160.17 Y177.736 Z-6.34
N11285 X160.336 Y177.737 Z-6.521
N11290 X160.489 Y177.738 Z-6.717
N11295 X160.626 Y177.739 Z-6.926
N11300 X160.746 Y177.74 Z-7.15
N11305 X160.848 Y177.741 Z-7.388
N11310 X160.931 Y177.742 Z-7.642
N11315 X160.992 Z-7.918
N11320 X161.014 Z-8.07
N11325 X167.609 Y177.789 Z-7.94
N11330 X168.911 Y177.798 Z-7.759
N11335 X170.666 Y177.811 Z-7.524
N11340 X170.733 Z-7.343
N11345 X170.841 Y177.812 Z-7.112
N11350 X170.962 Y177.813 Z-6.902
N11355 X171.102 Y177.814 Z-6.698
N11360 X171.258 Y177.815 Z-6.503
N11365 X171.43 Y177.816 Z-6.318
N11370 X171.615 Y177.817 Z-6.145
N11375 X171.813 Y177.819 Z-5.985
N11380 X172.13 Y177.821 Z-5.769
N11385 X172.354 Y177.823 Z-5.643
N11390 X172.708 Y177.825 Z-5.48
N11395 X172.952 Y177.827 Z-5.392
N11400 X173.328 Y177.829 Z-5.29
N11405 X173.585 Y177.831 Z-5.243
N11410 X173.845 Y177.833 Z-5.213
N11415 X174.432 Y177.837 Z-5.186
N11420 X174.72 Y177.827 Z-5.176
N11425 X174.986 Y177.796 Z-5.17
N11430 X175.249 Y177.744 Z-5.166
N11435 X175.508 Y177.672 Z-5.165
N11440 X175.76 Y177.58 Z-5.166
N11445 X176.004 Y177.469 Z-5.17
N11450 X176.238 Y177.338 Z-5.176
N11455 X176.461 Y177.19 Z-5.185
N11460 X176.649 Y177.044 Z-5.195
N11465 X176.845 Y176.869 Z-5.208
N11470 X177.008 Y176.699 Z-5.221
N11475 X177.176 Y176.497 Z-5.238
N11480 X177.313 Y176.306 Z-5.257
N11485 X177.436 Y176.106 Z-5.278
N11490 X177.557 Y175.873 Z-5.302
N11495 X177.66 Y175.633 Z-5.329
N11500 X177.744 Y175.385 Z-5.357
N11505 X177.803 Y175.158 Z-5.384
N11510 X177.829 Y175.03 Z-5.399
N11515 X177.867 Y174.768 Z-5.4
N11520 X177.883 Y174.534
N11525 X177.902 Y172.018
N11530 X177.935 Y167.345 Z-5.404
N11535 X177.937 Y167.114 Z-5.425
N11540 X177.938 Y166.88 Z-5.465
N11545 X177.94 Y166.649 Z-5.523
N11550 X177.942 Y166.423 Z-5.6
N11555 X177.943 Y166.203 Z-5.695
N11560 X177.945 Y165.991 Z-5.807
N11565 X177.946 Y165.787 Z-5.937
N11570 X177.947 Y165.593 Z-6.084
N11575 X177.949 Y165.411 Z-6.247
N11580 X177.95 Y165.242 Z-6.425
N11585 X177.951 Y165.087 Z-6.618
N11590 X177.952 Y164.947 Z-6.825
N11595 X177.953 Y164.823 Z-7.045
N11600 Y164.717 Z-7.279
N11605 X177.954 Y164.63 Z-7.528
N11610 X177.955 Y164.562 Z-7.794
N11615 Y164.523 Z-8.022
N11620 X178.018 Y155.476 Z-8.018
N11625 Y155.437 Z-7.787
N11630 X178.019 Y155.403 Z-7.644
N11635 Y155.355 Z-7.477
N11640 X178.02 Y155.257 Z-7.217
N11645 Y155.152 Z-6.997
N11650 X178.021 Y155.029 Z-6.787
N11655 X178.022 Y154.888 Z-6.585
N11660 X178.023 Y154.73 Z-6.393
N11665 X178.025 Y154.554 Z-6.214
N11670 X178.026 Y154.363 Z-6.048
N11675 X178.027 Y154.157 Z-5.899
N11680 X178.029 Y153.938 Z-5.767
N11685 X178.03 Y153.708 Z-5.654
N11690 X178.032 Y153.467 Z-5.56
N11695 X178.034 Y153.219 Z-5.487
N11700 X178.036 Y152.964 Z-5.436
N11705 X178.038 Y152.704 Z-5.407
N11710 X178.04 Y152.305 Z-5.4
N11715 X178.089 Y145.288
N11720 X178.079 Y145.02
N11725 X178.047 Y144.754 Z-5.401
N11730 X177.998 Y144.503 Z-5.415
N11735 X177.918 Y144.219 Z-5.432
N11740 X177.826 Y143.971 Z-5.442
N11745 X177.714 Y143.729 Z-5.451
N11750 X177.583 Y143.495 Z-5.459
N11755 X177.433 Y143.272 Z-5.467
N11760 X177.262 Y143.055 Z-5.477
N11765 X177.116 Y142.897 Z-5.489
N11770 X176.936 Y142.725 Z-5.5
N11775 X176.743 Y142.566 Z-5.511
N11780 X176.482 Y142.386 Z-5.522
N11785 X176.214 Y142.234 Z-5.531
N11790 X175.97 Y142.122 Z-5.538
N11795 X175.718 Y142.029 Z-5.542
N11800 X175.46 Y141.957 Z-5.545
N11805 X175.164 Y141.9 Z-5.546
N11810 X174.93 Y141.874 Z-5.551
N11815 X174.688 Y141.863 Z-5.554
N11820 X173.95 Y141.858 Z-5.567
N11825 X173.648 Y141.856 Z-5.593
N11830 X173.297 Y141.854 Z-5.648
N11835 X172.95 Y141.851 Z-5.729
N11840 X172.611 Y141.849 Z-5.839
N11845 X172.28 Y141.847 Z-5.978
N11850 X171.964 Y141.844 Z-6.148
N11855 X171.763 Y141.843 Z-6.283
N11860 X171.573 Y141.842 Z-6.437
N11865 X171.397 Y141.841 Z-6.609
N11870 X171.237 Y141.839 Z-6.798
N11875 X171.093 Y141.838 Z-7.005
N11880 X170.952 Y141.837 Z-7.262
N11885 X170.941 Z-7.281
N11890 X166.303 Y141.805 Z-7.941
N11895 X161.169 Y141.77 Z-8.038
N11900 X161.139 Z-7.854
N11905 X161.072 Y141.769 Z-7.581
N11910 X161.005 Z-7.382
N11915 X160.9 Y141.768 Z-7.14
N11920 X160.786 Y141.767 Z-6.926
N11925 X160.652 Y141.766 Z-6.72
N11930 X160.5 Y141.765 Z-6.523
N11935 X160.33 Y141.764 Z-6.338
N11940 X160.145 Y141.763 Z-6.166
N11945 X159.945 Y141.762 Z-6.009
N11950 X159.732 Y141.76 Z-5.868
N11955 X159.507 Y141.759 Z-5.744
N11960 X159.272 Y141.757 Z-5.638
N11965 X159.028 Y141.755 Z-5.55
N11970 X158.778 Y141.753 Z-5.483
N11975 X158.521 Y141.752 Z-5.435
N11980 X158.261 Y141.75 Z-5.407
N11985 X157.999 Y141.748 Z-5.4
N11990 X148.487 Y141.683 Z-5.401
N11995 X148.083 Y141.68 Z-5.426
N12000 X147.585 Y141.676 Z-5.474
N12005 X147.236 Y141.674 Z-5.536
N12010 X146.891 Y141.672 Z-5.628
N12015 X146.555 Y141.669 Z-5.75
N12020 X146.23 Y141.667 Z-5.902
N12025 X145.919 Y141.665 Z-6.082
N12030 X145.624 Y141.663 Z-6.294
N12035 X145.483 Y141.662 Z-6.41
N12040 X145.031 Y141.659 Z-6.234
N12045 X144.787 Y141.668 Z-6.142
N12050 X144.535 Y141.695 Z-6.053
N12055 X144.32 Y141.734 Z-5.992
N12060 X144.196 Y141.762 Z-5.963
N12065 X144.073 Y141.796 Z-5.937
N12070 X143.95 Y141.834 Z-5.915
N12075 X143.828 Y141.878 Z-5.897
N12080 X143.588 Y141.979 Z-5.867
N12085 X143.355 Y142.098 Z-5.846
N12090 X143.131 Y142.235 Z-5.831
N12095 X142.919 Y142.39 Z-5.822
N12100 X142.714 Y142.563 Z-5.82
N12105 X142.525 Y142.753 Z-5.821
N12110 X142.319 Y142.996 Z-5.824
N12115 X142.155 Y143.229 Z-5.826
N12120 X142.019 Y143.46 Z-5.83
N12125 X141.902 Y143.699 Z-5.835
N12130 X141.829 Y143.88 Z-5.843
N12135 X141.754 Y144.104 Z-5.855
N12140 X141.694 Y144.332 Z-5.87
N12145 X141.651 Y144.563 Z-5.891
N12150 X141.624 Y144.797 Z-5.919
N12155 X141.612 Y145.055 Z-5.959
N12160 X141.609 Y145.519 Z-6.056
N12165 X141.602 Y146.485 Z-6.32
N12170 X141.594 Y147.67 Z-6.65
N12175 X141.567 Y151.658 Z-7.708
N12180 X141.563 Y152.23 Z-7.85
N12185 Y152.295 Z-7.618
N12190 X141.562 Y152.359 Z-7.447
N12195 Y152.458 Z-7.233
N12200 X141.561 Y152.579 Z-7.023
N12205 X141.56 Y152.72 Z-6.82
N12210 X141.559 Y152.88 Z-6.628
N12215 X141.558 Y153.056 Z-6.448
N12220 X141.556 Y153.246 Z-6.28
N12225 X141.555 Y153.45 Z-6.126
N12230 X141.553 Y153.665 Z-5.987
N12235 X141.552 Y153.891 Z-5.862
N12240 X141.549 Y154.246 Z-5.701
N12245 X141.547 Y154.614 Z-5.576
N12250 X141.544 Y154.994 Z-5.483
N12255 X141.542 Y155.382 Z-5.425
N12260 X141.539 Y155.75 Z-5.401
N12265 X141.481 Y164.313 Z-5.402
N12270 X141.478 Y164.688 Z-5.428
N12275 X141.476 Y165.039 Z-5.48
N12280 X141.474 Y165.386 Z-5.56
N12285 X141.471 Y165.726 Z-5.669
N12290 X141.469 Y166.057 Z-5.806
N12295 X141.467 Y166.374 Z-5.973
N12300 X141.465 Y166.678 Z-6.171
N12305 X141.463 Y166.959 Z-6.398
N12310 X141.462 Y167.135 Z-6.568
N12315 X141.461 Y167.298 Z-6.752
N12320 X141.46 Y167.447 Z-6.951
N12325 X141.459 Y167.58 Z-7.164
N12330 X141.458 Y167.694 Z-7.394
N12335 X141.457 Y167.789 Z-7.641
N12340 Y167.828 Z-7.774
N12345 X141.443 Y169.855 Z-7.215
N12350 X141.432 Y171.581 Z-6.754
N12355 X141.426 Y172.343 Z-6.553
N12360 X141.419 Y173.363 Z-6.294
N12365 X141.413 Y174.257 Z-6.081
N12370 X141.411 Y174.643 Z-6.009
N12375 X141.408 Y175.033 Z-5.955
N12380 X141.409 Y175.34 Z-5.928
N12385 X141.429 Y175.601 Z-5.915
N12390 X141.47 Y175.863 Z-5.91
N12395 X141.531 Y176.124 Z-5.909
N12400 X141.613 Y176.38 Z-5.91
N12405 X141.714 Y176.628
N12410 X141.835 Y176.867 Z-5.913
N12415 X141.973 Y177.096 Z-5.919
N12420 X142.129 Y177.314 Z-5.925
N12425 X142.302 Y177.52 Z-5.933
N12430 X142.49 Y177.711 Z-5.941
N12435 X142.693 Y177.886 Z-5.947
N12440 X142.909 Y178.046 Z-5.951
N12445 X143.136 Y178.188 Z-5.956
N12450 X143.365 Y178.307 Z-5.964
N12455 X143.587 Y178.404 Z-5.977
N12460 X143.81 Y178.482 Z-5.996
N12465 X144.036 Y178.544 Z-6.025
N12470 X144.278 Y178.594 Z-6.059
N12475 X144.325 Y178.601 Z-6.064
N12480 X144.462 Y178.619 Z-5.946
N12485 X144.621 Y178.633 Z-5.83
N12490 X144.815 Y178.639 Z-5.714
N12495 X145.046 Y178.641 Z-5.6
N12500 X145.409 Y178.643 Z-5.457
N12505 X145.783 Y178.646 Z-5.347
N12510 X146.167 Y178.648 Z-5.268
N12515 X146.557 Y178.651 Z-5.221
N12520 X146.953 Y178.654 Z-5.205
N12525 X147.355 Y178.656 Z-5.218
N12530 X147.826 Y178.66 Z-5.262
N12535 X149.079 Y178.668 Z-5.399
N12540 X158.331 Y178.73 Z-5.403
N12545 X158.585 Y178.732 Z-5.422
N12550 X158.936 Y178.734 Z-5.483
N12555 X159.279 Y178.736 Z-5.58
N12560 X159.502 Y178.738 Z-5.667
N12565 X159.719 Y178.739 Z-5.769
N12570 X159.928 Y178.741 Z-5.888
N12575 X160.129 Y178.742 Z-6.024
N12580 X160.319 Y178.743 Z-6.174
N12585 X160.498 Y178.745 Z-6.34
N12590 X160.664 Y178.746 Z-6.522
N12595 X160.816 Y178.747 Z-6.717
N12600 X160.953 Y178.748 Z-6.927
N12605 X161.073 Z-7.15
N12610 X161.176 Y178.749 Z-7.388
N12615 X161.258 Y178.75 Z-7.642
N12620 X161.318 Z-7.908
N12625 X161.333 Z-8.004
N12630 X164.507 Y178.771 Z-7.941
N12635 X165.288 Y178.777 Z-7.829
N12640 X168.1 Y178.796 Z-7.443
N12645 X169.403 Y178.804 Z-7.271
N12650 X171.363 Y178.818 Z-7.015
N12655 X171.498 Z-6.774
N12660 X171.637 Y178.819 Z-6.569
N12665 X171.792 Y178.82 Z-6.373
N12670 X171.963 Y178.822 Z-6.187
N12675 X172.148 Y178.823 Z-6.013
N12680 X172.345 Y178.824 Z-5.851
N12685 X172.554 Y178.826 Z-5.703
N12690 X172.774 Y178.827 Z-5.569
N12695 X173.003 Y178.829 Z-5.449
N12700 X173.24 Y178.83 Z-5.345
N12705 X173.484 Y178.832 Z-5.256
N12710 X173.734 Y178.833 Z-5.184
N12715 X173.989 Y178.835 Z-5.129
N12720 X174.247 Y178.837 Z-5.09
N12725 X174.64 Y178.839 Z-5.064
N12730 X175.468 Y178.845 Z-5.034
N12735 X175.736 Y178.834 Z-5.026
N12740 X175.988 Y178.805 Z-5.02
N12745 X176.252 Y178.754 Z-5.016
N12750 X176.51 Y178.683 Z-5.015
N12755 X176.762 Y178.591 Z-5.016
N12760 X177.006 Y178.48 Z-5.019
N12765 X177.241 Y178.35 Z-5.025
N12770 X177.454 Y178.21 Z-5.033
N12775 X177.645 Y178.063 Z-5.042
N12780 X177.842 Y177.888 Z-5.053
N12785 X178.006 Y177.719 Z-5.066
N12790 X178.174 Y177.518 Z-5.082
N12795 X178.312 Y177.326 Z-5.099
N12800 X178.449 Y177.103 Z-5.12
N12805 X178.569 Y176.87 Z-5.143
N12810 X178.671 Y176.629 Z-5.167
N12815 X178.754 Y176.381 Z-5.192
N12820 X178.817 Y176.127 Z-5.22
N12825 X178.858 Y175.896 Z-5.245
N12830 X178.884 Y175.636 Z-5.277
N12835 X178.891 Y175.315 Z-5.318
N12840 X178.895 Y174.717 Z-5.4
N12845 X178.944 Y167.353 Z-5.404
N12850 X178.946 Y167.114 Z-5.425
N12855 X178.947 Y166.88 Z-5.465
N12860 X178.949 Y166.649 Z-5.523
N12865 X178.95 Y166.423 Z-5.6
N12870 X178.952 Y166.203 Z-5.695
N12875 X178.953 Y165.991 Z-5.807
N12880 X178.954 Y165.787 Z-5.937
N12885 X178.956 Y165.593 Z-6.084
N12890 X178.957 Y165.411 Z-6.247
N12895 X178.958 Y165.242 Z-6.425
N12900 X178.959 Y165.087 Z-6.618
N12905 X178.96 Y164.947 Z-6.825
N12910 X178.961 Y164.823 Z-7.045
N12915 X178.962 Y164.717 Z-7.279
N12920 Y164.63 Z-7.528
N12925 X178.963 Y164.562 Z-7.794
N12930 Y164.533 Z-7.959
N12935 X179.023 Y155.466 Z-7.952
N12940 Y155.412 Z-7.678
N12945 X179.024 Y155.35 Z-7.464
N12950 Y155.268 Z-7.244
N12955 X179.025 Y155.167 Z-7.026
N12960 X179.026 Y155.047 Z-6.814
N12965 X179.027 Y154.908 Z-6.61
N12970 X179.028 Y154.751 Z-6.417
N12975 X179.029 Y154.577 Z-6.235
N12980 X179.03 Y154.387 Z-6.068
N12985 X179.031 Y154.183 Z-5.917
N12990 X179.033 Y153.966 Z-5.782
N12995 X179.034 Y153.736 Z-5.667
N13000 X179.036 Y153.497 Z-5.57
N13005 X179.038 Y153.249 Z-5.495
N13010 X179.039 Y152.994 Z-5.441
N13015 X179.041 Y152.735 Z-5.409
N13020 X179.043 Y152.473 Z-5.4
N13025 X179.091 Y145.173
N13030 X179.093 Y144.861 Z-5.415
N13035 X179.097 Y144.289 Z-5.439
N13040 X179.087 Y144.026 Z-5.449
N13045 X179.056 Y143.765 Z-5.46
N13050 X179.006 Y143.506 Z-5.47
N13055 X178.936 Y143.252 Z-5.484
N13060 X178.857 Y143.03 Z-5.5
N13065 X178.752 Y142.79 Z-5.517
N13070 X178.628 Y142.558 Z-5.533
N13075 X178.487 Y142.337 Z-5.547
N13080 X178.33 Y142.127 Z-5.561
N13085 X178.157 Y141.93 Z-5.576
N13090 X177.989 Y141.764 Z-5.59
N13095 X177.789 Y141.594 Z-5.603
N13100 X177.576 Y141.439 Z-5.615
N13105 X177.376 Y141.315 Z-5.625
N13110 X177.143 Y141.193 Z-5.636
N13115 X176.9 Y141.088 Z-5.643
N13120 X176.668 Y141.008 Z-5.65
N13125 X176.409 Y140.94 Z-5.655
N13130 X176.11 Y140.887 Z-5.657
N13135 X175.873 Y140.864 Z-5.663
N13140 X175.42 Y140.856 Z-5.676
N13145 X174.765 Y140.852 Z-5.698
N13150 X174.412 Y140.85 Z-5.735
N13155 X174.063 Y140.848 Z-5.797
N13160 X173.717 Y140.845 Z-5.887
N13165 X173.381 Y140.843 Z-6.006
N13170 X173.054 Y140.841 Z-6.154
N13175 X172.742 Y140.839 Z-6.334
N13180 X172.544 Y140.838 Z-6.472
N13185 X172.347 Y140.836 Z-6.63
N13190 X169.799 Y140.82 Z-6.998
N13195 X165.196 Y140.79 Z-7.668
N13200 X163.196 Y140.776 Z-7.94
N13205 X161.486 Y140.765 Z-7.972
N13210 X161.444 Z-7.752
N13215 X161.384 Z-7.534
N13220 X161.305 Y140.764 Z-7.315
N13225 X161.206 Y140.763 Z-7.097
N13230 X161.087 Z-6.885
N13235 X160.95 Y140.762 Z-6.68
N13240 X160.794 Y140.761 Z-6.486
N13245 X160.622 Y140.76 Z-6.303
N13250 X160.433 Y140.758 Z-6.134
N13255 X160.231 Y140.757 Z-5.98
N13260 X160.015 Y140.756 Z-5.842
N13265 X159.788 Y140.754 Z-5.722
N13270 X159.551 Y140.753 Z-5.619
N13275 X159.306 Y140.751 Z-5.536
N13280 X159.054 Y140.749 Z-5.472
N13285 X158.797 Y140.748 Z-5.428
N13290 X158.536 Y140.746 Z-5.404
N13295 X156.224 Y140.731 Z-5.4
N13300 X149.146 Y140.685 Z-5.403
N13305 X148.31 Y140.679 Z-5.46
N13310 X148.045 Y140.677 Z-5.475
N13315 X147.43 Y140.673 Z-5.528
N13320 X146.818 Y140.669 Z-5.612
N13325 X146.47 Y140.667 Z-5.687
N13330 X146.129 Y140.665 Z-5.793
N13335 X145.798 Y140.663 Z-5.929
N13340 X145.46 Y140.661 Z-6.105
N13345 X145.437 Y140.66 Z-6.115
N13350 X145.066 Y140.658 Z-5.993
N13355 X144.686 Y140.656 Z-5.9
N13360 X144.299 Y140.653 Z-5.839
N13365 X144.027 Y140.651 Z-5.816
N13370 X143.806 Y140.658 Z-5.809
N13375 X143.567 Y140.682 Z-5.812
N13380 X143.298 Y140.73 Z-5.819
N13385 X143.059 Y140.791 Z-5.828
N13390 X142.834 Y140.866 Z-5.836
N13395 X142.588 Y140.969 Z-5.842
N13400 X142.35 Y141.091 Z-5.847
N13405 X142.121 Y141.231 Z-5.848
N13410 X141.905 Y141.39 Z-5.85
N13415 X141.701 Y141.564 Z-5.853
N13420 X141.512 Y141.754 Z-5.854
N13425 X141.372 Y141.915 Z-5.855
N13430 X141.212 Y142.13
N13435 X141.075 Y142.344 Z-5.852
N13440 X140.949 Y142.581 Z-5.849
N13445 X140.841 Y142.827 Z-5.846
N13450 X140.754 Y143.08
N13455 X140.686 Y143.34
N13460 X140.639 Y143.604 Z-5.847
N13465 X140.613 Y143.871
N13470 X140.606 Y144.184 Z-5.846
N13475 X140.599 Y145.257 Z-5.864
N13480 X140.596 Y145.744 Z-5.897
N13485 X140.593 Y146.213 Z-5.958
N13490 X140.589 Y146.795 Z-6.065
N13495 X140.586 Y147.255 Z-6.177
N13500 X140.559 Y151.442 Z-7.298
N13505 X140.557 Y151.731 Z-7.368
N13510 Y151.83 Z-7.149
N13515 X140.556 Y151.949 Z-6.938
N13520 X140.555 Y152.089 Z-6.736
N13525 X140.554 Y152.248 Z-6.545
N13530 X140.553 Y152.424 Z-6.367
N13535 X140.552 Y152.617 Z-6.203
N13540 X140.55 Y152.825 Z-6.056
N13545 X140.549 Y153.045 Z-5.924
N13550 X140.547 Y153.394 Z-5.752
N13555 X140.544 Y153.757 Z-5.615
N13560 X140.542 Y154.135 Z-5.511
N13565 X140.539 Y154.52 Z-5.441
N13570 X140.537 Y154.911 Z-5.405
N13575 X140.523 Y157.006 Z-5.4
N13580 X140.471 Y165.054 Z-5.402
N13585 X140.469 Y165.421 Z-5.428
N13590 X140.467 Y165.772 Z-5.48
N13595 X140.465 Y166.119 Z-5.56
N13600 X140.462 Y166.459 Z-5.669
N13605 X140.46 Y166.79 Z-5.807
N13610 X140.458 Y167.127 Z-5.985
N13615 X140.457 Y167.311 Z-6.103
N13620 X140.456 Y167.503 Z-6.252
N13625 X140.454 Y167.684 Z-6.418
N13630 X140.453 Y167.85 Z-6.6
N13635 X140.452 Y168.001 Z-6.798
N13640 Y168.135 Z-7.011
N13645 X140.451 Y168.267 Z-7.272
N13650 X140.441 Y169.765 Z-6.86
N13655 X140.43 Y171.49 Z-6.396
N13660 X140.423 Y172.61 Z-6.107
N13665 X140.42 Y172.993 Z-6.022
N13670 X140.418 Y173.381 Z-5.958
N13675 X140.414 Y173.9 Z-5.902
N13680 X140.411 Y174.43 Z-5.884
N13685 X140.404 Y175.569 Z-5.883
N13690 X140.399 Y176.218 Z-5.87
N13695 X140.41 Y176.486 Z-5.866
N13700 X140.441 Y176.752 Z-5.863
N13705 X140.494 Y177.015 Z-5.859
N13710 X140.566 Y177.273 Z-5.856
N13715 X140.659 Y177.525 Z-5.854
N13720 X140.777 Y177.781 Z-5.852
N13725 X140.908 Y178.014 Z-5.854
N13730 X141.058 Y178.237 Z-5.858
N13735 X141.224 Y178.447 Z-5.862
N13740 X141.407 Y178.644 Z-5.865
N13745 X141.604 Y178.826 Z-5.867
N13750 X141.814 Y178.992 Z-5.869
N13755 X142.038 Y179.141 Z-5.871
N13760 X142.272 Y179.271 Z-5.877
N13765 X142.507 Y179.38 Z-5.883
N13770 X142.759 Y179.474 Z-5.888
N13775 X143.017 Y179.547 Z-5.892
N13780 X143.28 Y179.601 Z-5.895
N13785 X143.383 Y179.616 Z-5.893
N13790 X143.546 Y179.633 Z-5.76
N13795 X143.719 Y179.643 Z-5.644
N13800 X143.919 Y179.645 Z-5.533
N13805 X144.272 Y179.647 Z-5.373
N13810 X144.641 Y179.65 Z-5.245
N13815 X145.02 Y179.652 Z-5.149
N13820 X145.407 Y179.655 Z-5.084
N13825 X145.798 Y179.657 Z-5.049
N13830 X146.195 Y179.66 Z-5.044
N13835 X146.624 Y179.662 Z-5.071
N13840 X148.525 Y179.674 Z-5.258
N13845 X149.752 Y179.682 Z-5.392
N13850 X150.281 Y179.686 Z-5.4
N13855 X158.696 Y179.739 Z-5.404
N13860 X159.031 Y179.741 Z-5.438
N13865 X159.379 Y179.744 Z-5.511
N13870 X159.72 Y179.746 Z-5.622
N13875 X159.94 Y179.747 Z-5.716
N13880 X160.154 Y179.749 Z-5.828
N13885 X160.359 Y179.75 Z-5.955
N13890 X160.555 Y179.751 Z-6.098
N13895 X160.739 Y179.752 Z-6.257
N13900 X160.912 Y179.753 Z-6.431
N13905 X161.072 Y179.754 Z-6.62
N13910 X161.217 Y179.755 Z-6.823
N13915 X161.345 Y179.756 Z-7.041
N13920 X161.457 Y179.757 Z-7.273
N13925 X161.55 Z-7.521
N13930 X161.622 Y179.758 Z-7.789
N13935 X161.647 Z-7.916
N13940 X164.251 Y179.775 Z-7.534
N13945 X166.335 Y179.788 Z-7.251
N13950 X169.148 Y179.806 Z-6.876
N13955 X170.164 Y179.812 Z-6.75
N13960 X171.182 Y179.819 Z-6.625
N13965 X172.143 Y179.825 Z-6.489
N13970 X172.289 Y179.826 Z-6.296
N13975 X172.455 Y179.827 Z-6.107
N13980 X172.636 Y179.828 Z-5.93
N13985 X172.83 Y179.829 Z-5.764
N13990 X173.036 Y179.831 Z-5.613
N13995 X173.253 Y179.832 Z-5.475
N14000 X173.479 Y179.833 Z-5.351
N14005 X173.714 Y179.835 Z-5.243
N14010 X174.05 Y179.837 Z-5.12
N14015 X174.395 Y179.839 Z-5.028
N14020 X174.716 Y179.841 Z-4.972
N14025 X175.092 Y179.844 Z-4.941
N14030 X176.463 Y179.852 Z-4.895
N14035 X176.731 Y179.842 Z-4.887
N14040 X176.998 Y179.811 Z-4.882
N14045 X177.261 Y179.758 Z-4.879
N14050 X177.519 Y179.686 Z-4.877
N14055 X177.771 Y179.594 Z-4.878
N14060 X178.014 Y179.482 Z-4.882
N14065 X178.249 Y179.351 Z-4.887
N14070 X178.466 Y179.207 Z-4.894
N14075 X178.678 Y179.042 Z-4.903
N14080 X178.894 Y178.844 Z-4.916
N14085 X179.035 Y178.693 Z-4.927
N14090 X179.185 Y178.511 Z-4.941
N14095 X179.337 Y178.298 Z-4.959
N14100 X179.459 Y178.096 Z-4.976
N14105 X179.578 Y177.863 Z-4.996
N14110 X179.669 Y177.646 Z-5.016
N14115 X179.746 Y177.424 Z-5.043
N14120 X179.806 Y177.198 Z-5.076
N14125 X179.852 Y176.969 Z-5.113
N14130 X179.881 Y176.738 Z-5.154
N14135 X179.896 Y176.441 Z-5.209
N14140 X179.902 Y175.498 Z-5.4
N14145 X179.953 Y167.341 Z-5.404
N14150 X179.954 Y167.114 Z-5.425
N14155 X179.956 Y166.88 Z-5.465
N14160 X179.957 Y166.649 Z-5.523
N14165 X179.959 Y166.367 Z-5.622
N14170 X179.961 Y166.095 Z-5.749
N14175 X179.962 Y165.886 Z-5.871
N14180 X179.963 Y165.687 Z-6.01
N14185 X179.965 Y165.499 Z-6.165
N14190 X179.966 Y165.323 Z-6.336
N14195 X179.967 Y165.161 Z-6.522
N14200 X179.968 Y165.013 Z-6.722
N14205 Y164.881 Z-6.937
N14210 X179.969 Y164.766 Z-7.165
N14215 X179.97 Y164.669 Z-7.408
N14220 Y164.606 Z-7.603
N14225 X179.992 Y161.113 Z-7.598
N14230 X180.007 Y158.774 Z-7.609
N14235 X180.019 Y156.896 Z-7.611
N14240 X180.028 Y155.395 Z-7.615
N14245 X180.029 Y155.328 Z-7.4
N14250 Y155.261 Z-7.228
N14255 X180.03 Y155.136 Z-6.969
N14260 X180.031 Y155.012 Z-6.759
N14265 Y154.868 Z-6.559
N14270 X180.032 Y154.707 Z-6.368
N14275 X180.034 Y154.529 Z-6.191
N14280 X180.035 Y154.336 Z-6.028
N14285 X180.036 Y154.129 Z-5.88
N14290 X180.037 Y153.909 Z-5.749
N14295 X180.039 Y153.678 Z-5.635
N14300 X180.04 Y153.438 Z-5.54
N14305 X180.042 Y153.19 Z-5.465
N14310 X180.044 Y152.936 Z-5.411
N14315 X180.045 Y152.677 Z-5.377
N14320 X180.047 Y152.349 Z-5.366
N14325 X180.083 Y146.728 Z-5.362
N14330 X180.084 Y146.459 Z-5.379
N14335 X180.085 Y146.306 Z-5.4
N14340 X180.096 Y144.548 Z-5.404
N14345 X180.102 Y143.663 Z-5.432
N14350 X180.104 Y143.212 Z-5.458
N14355 X180.096 Y143.035 Z-5.475
N14360 X180.072 Y142.802 Z-5.503
N14365 X180.046 Y142.644 Z-5.527
N14370 X179.989 Y142.389 Z-5.545
N14375 X179.92 Y142.163 Z-5.561
N14380 X179.806 Y141.874 Z-5.582
N14385 X179.713 Y141.682 Z-5.598
N14390 X179.596 Y141.478 Z-5.617
N14395 X179.45 Y141.26 Z-5.637
N14400 X179.288 Y141.054 Z-5.655
N14405 X179.11 Y140.861 Z-5.673
N14410 X178.939 Y140.7 Z-5.689
N14415 X178.735 Y140.535 Z-5.706
N14420 X178.494 Y140.37 Z-5.723
N14425 X178.264 Y140.239 Z-5.738
N14430 X177.997 Y140.114 Z-5.752
N14435 X177.7 Y140.007 Z-5.764
N14440 X177.398 Y139.928 Z-5.772
N14445 X177.067 Y139.874 Z-5.777
N14450 X176.787 Y139.854 Z-5.781
N14455 X175.743 Y139.847 Z-5.82
N14460 X175.441 Y139.845 Z-5.843
N14465 X175.009 Y139.842 Z-5.905
N14470 X174.213 Y139.838 Z-5.955
N14475 X173.157 Y139.831 Z-6.071
N14480 X172.662 Y139.828 Z-6.134
N14485 X170.606 Y139.815 Z-6.432
N14490 X166.293 Y139.788 Z-7.08
N14495 X163.276 Y139.77 Z-7.508
N14500 X161.762 Y139.76 Z-7.718
N14505 X161.714 Z-7.545
N14510 X161.621 Y139.759 Z-7.29
N14515 X161.528 Z-7.089
N14520 X161.409 Y139.758 Z-6.877
N14525 X161.27 Y139.757 Z-6.673
N14530 X161.114 Y139.756 Z-6.479
N14535 X160.941 Y139.755 Z-6.296
N14540 X160.752 Y139.754 Z-6.128
N14545 X160.549 Y139.753 Z-5.975
N14550 X160.333 Y139.751 Z-5.837
N14555 X160.106 Y139.75 Z-5.717
N14560 X159.868 Y139.748 Z-5.616
N14565 X159.623 Y139.747 Z-5.533
N14570 X159.371 Y139.745 Z-5.47
N14575 X159.113 Y139.744 Z-5.426
N14580 X158.853 Y139.742 Z-5.404
N14585 X149.844 Y139.686
N14590 X149.297 Y139.683 Z-5.445
N14595 X148.767 Y139.68 Z-5.464
N14600 X148.267 Y139.676 Z-5.497
N14605 X147.299 Y139.67 Z-5.575
N14610 X146.569 Y139.666 Z-5.671
N14615 X146.192 Y139.664 Z-5.728
N14620 X145.845 Y139.661 Z-5.806
N14625 X145.473 Y139.659 Z-5.924
N14630 X145.093 Y139.657 Z-5.858
N14635 X144.702 Y139.654 Z-5.822
N14640 X144.439 Y139.653 Z-5.817
N14645 X143.266 Y139.645 Z-5.873
N14650 X142.892 Y139.646 Z-5.886
N14655 X142.629 Y139.667 Z-5.894
N14660 X142.38 Y139.705 Z-5.902
N14665 X142.134 Y139.761 Z-5.908
N14670 X141.878 Y139.841 Z-5.912
N14675 X141.629 Y139.941 Z-5.915
N14680 X141.347 Y140.082 Z-5.917
N14685 X141.119 Y140.223 Z-5.914
N14690 X140.902 Y140.381
N14695 X140.726 Y140.53 Z-5.909
N14700 X140.534 Y140.717 Z-5.905
N14705 X140.358 Y140.92 Z-5.9
N14710 X140.199 Y141.134 Z-5.894
N14715 X140.056 Y141.361 Z-5.888
N14720 X139.918 Y141.629 Z-5.881
N14725 X139.826 Y141.846 Z-5.876
N14730 X139.73 Y142.136 Z-5.868
N14735 X139.678 Y142.347 Z-5.866
N14740 X139.628 Y142.645 Z-5.861
N14745 X139.607 Y142.879 Z-5.858
N14750 X139.6 Y143.312 Z-5.855
N14755 X139.591 Y144.722 Z-5.86
N14760 X139.578 Y146.858 Z-5.907
N14765 X139.575 Y147.329 Z-5.945
N14770 X139.573 Y147.798 Z-6.009
N14775 X139.57 Y148.263 Z-6.1
N14780 X139.567 Y148.721 Z-6.218
N14785 X139.556 Y150.47 Z-6.695
N14790 X139.55 Y151.393 Z-6.931
N14795 Y151.519 Z-6.722
N14800 X139.549 Y151.665 Z-6.523
N14805 X139.548 Y151.83 Z-6.336
N14810 X139.546 Y152.061 Z-6.12
N14815 X139.545 Y152.316 Z-5.929
N14820 X139.543 Y152.534 Z-5.796
N14825 X139.542 Y152.764 Z-5.681
N14830 X139.541 Y153.003 Z-5.584
N14835 X139.539 Y153.25 Z-5.507
N14840 X139.538 Y153.504 Z-5.448
N14845 X139.536 Y153.762 Z-5.408
N14850 X139.534 Y154.023 Z-5.388
N14855 X139.533 Y154.288
N14860 X139.531 Y154.54 Z-5.4
N14865 X139.462 Y165.787 Z-5.402
N14870 X139.461 Y166.036 Z-5.421
N14875 X139.459 Y166.271 Z-5.458
N14880 X139.458 Y166.502 Z-5.513
N14885 X139.456 Y166.729 Z-5.587
N14890 X139.455 Y167.032 Z-5.718
N14895 X139.453 Y167.269 Z-5.85
N14900 X139.452 Y167.471 Z-5.984
N14905 X139.451 Y167.662 Z-6.133
N14910 X139.45 Y167.843 Z-6.298
N14915 X139.449 Y168.011 Z-6.477
N14920 X139.448 Y168.165 Z-6.671
N14925 X139.447 Y168.306 Z-6.879
N14930 X139.436 Y170.054 Z-6.397
N14935 X139.428 Y171.426 Z-6.036
N14940 X139.425 Y171.81 Z-5.958
N14945 X139.423 Y172.2 Z-5.902
N14950 X139.42 Y172.723 Z-5.858
N14955 X139.416 Y173.253 Z-5.847
N14960 X139.403 Y175.412 Z-5.867
N14965 X139.398 Y176.216 Z-5.852
N14970 X139.392 Y177.226 Z-5.818
N14975 X139.403 Y177.494 Z-5.81
N14980 X139.43 Y177.737 Z-5.803
N14985 X139.475 Y177.976 Z-5.796
N14990 X139.544 Y178.236 Z-5.788
N14995 X139.651 Y178.531 Z-5.779
N15000 X139.732 Y178.714 Z-5.777
N15005 X139.858 Y178.951 Z-5.774
N15010 X140.002 Y179.177 Z-5.773
N15015 X140.172 Y179.401 Z-5.772
N15020 X140.35 Y179.601 Z-5.77
N15025 X140.544 Y179.787 Z-5.768
N15030 X140.751 Y179.957 Z-5.766
N15035 X140.971 Y180.11 Z-5.767
N15040 X141.202 Y180.246 Z-5.769
N15045 X141.444 Y180.363 Z-5.773
N15050 X141.694 Y180.461 Z-5.776
N15055 X141.95 Y180.538 Z-5.78
N15060 X142.212 Y180.596 Z-5.783
N15065 X142.381 Y180.622 Z-5.782
N15070 X142.545 Y180.639 Z-5.645
N15075 X142.68 Y180.647 Z-5.55
N15080 X142.909 Y180.65 Z-5.416
N15085 X143.259 Y180.652 Z-5.252
N15090 X143.626 Y180.655 Z-5.119
N15095 X144.003 Y180.657 Z-5.018
N15100 X144.389 Y180.659 Z-4.947
N15105 X144.78 Y180.662 Z-4.905
N15110 X145.176 Y180.664 Z-4.894
N15115 X145.62 Y180.667 Z-4.915
N15120 X147.542 Y180.678 Z-5.088
N15125 X149.267 Y180.689 Z-5.259
N15130 X150.547 Y180.697 Z-5.398
N15135 X158.856 Y180.747 Z-5.4
N15140 X159.123 Y180.749 Z-5.411
N15145 X159.475 Y180.751 Z-5.458
N15150 X159.822 Y180.753 Z-5.544
N15155 X160.158 Y180.755 Z-5.667
N15160 X160.375 Y180.756 Z-5.769
N15165 X160.584 Y180.757 Z-5.888
N15170 X160.833 Y180.759 Z-6.06
N15175 X161.067 Y180.76 Z-6.258
N15180 X161.239 Y180.761 Z-6.434
N15185 X161.396 Y180.762 Z-6.625
N15190 X161.539 Y180.763 Z-6.831
N15195 X161.665 Y180.764 Z-7.051
N15200 X161.773 Y180.765 Z-7.286
N15205 X161.833 Z-7.442
N15210 X163.366 Y180.774 Z-7.217
N15215 X165.423 Y180.787 Z-6.934
N15220 X166.465 Y180.793 Z-6.796
N15225 X166.96 Y180.796 Z-6.733
N15230 X169.514 Y180.812 Z-6.403
N15235 X170.27 Y180.816 Z-6.312
N15240 X171.432 Y180.823 Z-6.176
N15245 X172.332 Y180.829 Z-6.076
N15250 X172.725 Y180.831 Z-6.041
N15255 X172.976 Y180.833 Z-6.006
N15260 X173.151 Y180.834 Z-5.83
N15265 X173.343 Y180.835 Z-5.664
N15270 X173.548 Y180.836 Z-5.51
N15275 X173.763 Y180.837 Z-5.37
N15280 X173.989 Y180.839 Z-5.245
N15285 X174.223 Y180.84 Z-5.136
N15290 X174.586 Y180.842 Z-5.001
N15295 X174.839 Y180.844 Z-4.93
N15300 X175.218 Y180.846 Z-4.858
N15305 X175.483 Y180.848 Z-4.831
N15310 X177.476 Y180.86 Z-4.765
N15315 X177.744 Y180.849 Z-4.758
N15320 X178.01 Y180.818 Z-4.754
N15325 X178.273 Y180.766 Z-4.751
N15330 X178.531 Y180.693 Z-4.75
N15335 X178.783 Y180.6 Z-4.751
N15340 X179.027 Y180.488 Z-4.754
N15345 X179.261 Y180.358 Z-4.758
N15350 X179.484 Y180.209 Z-4.765
N15355 X179.678 Y180.058 Z-4.773
N15360 X179.855 Y179.899 Z-4.783
N15365 X180.036 Y179.71 Z-4.796
N15370 X180.233 Y179.467 Z-4.812
N15375 X180.354 Y179.292 Z-4.831
N15380 X180.474 Y179.091 Z-4.863
N15385 X180.58 Y178.883 Z-4.905
N15390 X180.67 Y178.67 Z-4.955
N15395 X180.746 Y178.453 Z-5.01
N15400 X180.807 Y178.232 Z-5.069
N15405 X180.853 Y178.008 Z-5.129
N15410 X180.883 Y177.782 Z-5.191
N15415 X180.899 Y177.555 Z-5.252
N15420 X180.904 Y176.997 Z-5.4
N15425 X180.919 Y174.5
N15430 X180.92 Y174.232 Z-5.412
N15435 X180.922 Y173.997 Z-5.437
N15440 X180.956 Y168.23 Z-5.474
N15445 X180.96 Y167.593 Z-5.489
N15450 X180.962 Y167.324 Z-5.513
N15455 X180.964 Y166.975 Z-5.578
N15460 X180.966 Y166.632 Z-5.68
N15465 X180.967 Y166.409 Z-5.769
N15470 X180.968 Y166.194 Z-5.875
N15475 X180.97 Y165.986 Z-5.997
N15480 X180.971 Y165.74 Z-6.173
N15485 X180.972 Y165.512 Z-6.375
N15490 X180.973 Y165.344 Z-6.555
N15495 X180.974 Y165.191 Z-6.751
N15500 X180.975 Y165.054 Z-6.962
N15505 X180.976 Y164.963 Z-7.13
N15510 X181. Y160.956 Z-7.142
N15515 X181.015 Y158.351 Z-7.158
N15520 X181.035 Y155.128 Z-7.178
N15525 Y155. Z-6.907
N15530 X181.036 Y154.86 Z-6.668
N15535 X181.037 Y154.717 Z-6.465
N15540 X181.038 Y154.557 Z-6.273
N15545 X181.039 Y154.381 Z-6.093
N15550 X181.04 Y154.189 Z-5.926
N15555 X181.041 Y153.985 Z-5.774
N15560 X181.043 Y153.696 Z-5.6
N15565 X181.045 Y153.419 Z-5.47
N15570 X181.046 Y153.176 Z-5.381
N15575 X181.048 Y152.926 Z-5.312
N15580 X181.049 Y152.67 Z-5.264
N15585 X181.051 Y152.41 Z-5.238
N15590 X181.058 Y151.206 Z-5.231
N15595 X181.085 Y146.704 Z-5.229
N15600 X181.087 Y146.453 Z-5.247
N15605 X181.088 Y146.218 Z-5.283
N15610 X181.089 Y145.987 Z-5.337
N15615 X181.091 Y145.784 Z-5.4
N15620 X181.112 Y142.273 Z-5.401
N15625 X181.101 Y142.005 Z-5.408
N15630 X181.07 Y141.741 Z-5.423
N15635 X181.032 Y141.539 Z-5.444
N15640 X180.974 Y141.312 Z-5.479
N15645 X180.901 Y141.091 Z-5.528
N15650 X180.813 Y140.875 Z-5.592
N15655 X180.716 Y140.676 Z-5.673
N15660 X180.696 Y140.637 Z-5.691
N15665 X180.562 Y140.413 Z-5.715
N15670 X180.412 Y140.199 Z-5.738
N15675 X180.246 Y139.997 Z-5.76
N15680 X180.083 Y139.826 Z-5.781
N15685 X179.91 Y139.668 Z-5.802
N15690 X179.726 Y139.521 Z-5.821
N15695 X179.51 Y139.373 Z-5.841
N15700 X179.283 Y139.242 Z-5.859
N15705 X179.071 Y139.14 Z-5.875
N15710 X178.827 Y139.043 Z-5.888
N15715 X178.576 Y138.965 Z-5.899
N15720 X178.346 Y138.912 Z-5.908
N15725 X178.082 Y138.871 Z-5.913
N15730 X177.815 Y138.85 Z-5.916
N15735 X176.765 Y138.842 Z-5.915
N15740 X176.497 Y138.841 Z-5.921
N15745 X175.49 Y138.835 Z-5.861
N15750 X174.473 Y138.829 Z-5.819
N15755 X173.286 Y138.822 Z-5.816
N15760 X172.634 Y138.818 Z-5.833
N15765 X171.574 Y138.811 Z-5.9
N15770 X170.869 Y138.807 Z-5.969
N15775 X169.789 Y138.801 Z-6.111
N15780 X166.75 Y138.783 Z-6.58
N15785 X165.737 Y138.777 Z-6.733
N15790 X163.995 Y138.767 Z-6.983
N15795 X161.967 Y138.755 Z-7.274
N15800 X161.862 Y138.754 Z-7.288
N15805 X161.768 Y138.753 Z-7.069
N15810 X161.655 Z-6.855
N15815 X161.523 Y138.752 Z-6.648
N15820 X161.372 Y138.751 Z-6.451
N15825 X161.204 Y138.75 Z-6.265
N15830 X161.019 Y138.749 Z-6.093
N15835 X160.819 Y138.748 Z-5.937
N15840 X160.605 Y138.747 Z-5.798
N15845 X160.379 Y138.745 Z-5.677
N15850 X160.142 Y138.744 Z-5.575
N15855 X159.896 Y138.742 Z-5.494
N15860 X159.643 Y138.741 Z-5.435
N15865 X159.385 Y138.739 Z-5.398
N15870 X159.123 Y138.738 Z-5.383
N15875 X158.485 Y138.734 Z-5.4
N15880 X150.571 Y138.687 Z-5.404
N15885 X150.023 Y138.684 Z-5.438
N15890 X149.228 Y138.679 Z-5.468
N15895 X148.728 Y138.676 Z-5.501
N15900 X147.706 Y138.67 Z-5.581
N15905 X146.553 Y138.663 Z-5.688
N15910 X145.526 Y138.657 Z-5.852
N15915 X145.465 Z-5.855
N15920 X145.101 Y138.655 Z-5.847
N15925 X143.705 Y138.647 Z-5.913
N15930 X142.811 Y138.641 Z-5.955
N15935 X141.904 Y138.639 Z-5.98
N15940 X141.621 Y138.66 Z-5.987
N15945 X141.364 Y138.7 Z-5.993
N15950 X141.111 Y138.76 Z-5.997
N15955 X140.818 Y138.855
N15960 X140.571 Y138.959 Z-5.993
N15965 X140.333 Y139.082 Z-5.989
N15970 X140.105 Y139.223 Z-5.984
N15975 X139.888 Y139.382 Z-5.975
N15980 X139.708 Y139.536 Z-5.968
N15985 X139.518 Y139.725 Z-5.958
N15990 X139.362 Y139.903 Z-5.949
N15995 X139.201 Y140.118 Z-5.94
N16000 X139.073 Y140.318 Z-5.931
N16005 X138.948 Y140.551 Z-5.919
N16010 X138.827 Y140.827 Z-5.905
N16015 X138.761 Y141.012 Z-5.897
N16020 X138.689 Y141.271 Z-5.887
N16025 X138.642 Y141.503 Z-5.879
N16030 X138.609 Y141.769 Z-5.872
N16035 X138.596 Y142.042 Z-5.866
N16040 X138.587 Y143.651 Z-5.846
N16045 X138.57 Y146.602 Z-5.876
N16050 X138.561 Y148.141 Z-5.927
N16055 X138.558 Y148.613 Z-5.964
N16060 X138.555 Y149.081 Z-6.025
N16065 X138.553 Y149.546 Z-6.114
N16070 X138.55 Y150.007 Z-6.222
N16075 X138.543 Y151.103 Z-6.499
N16080 X138.542 Y151.258 Z-6.303
N16085 X138.541 Y151.431 Z-6.121
N16090 X138.54 Y151.62 Z-5.954
N16095 X138.539 Y151.824 Z-5.802
N16100 X138.538 Y152.041 Z-5.667
N16105 X138.537 Y152.27 Z-5.55
N16110 X138.535 Y152.508 Z-5.451
N16115 X138.534 Y152.755 Z-5.37
N16120 X138.532 Y153.008 Z-5.309
N16125 X138.531 Y153.266 Z-5.267
N16130 X138.529 Y153.527 Z-5.245
N16135 X138.528 Y153.789 Z-5.241
N16140 X138.525 Y154.293 Z-5.274
N16145 X138.516 Y155.812 Z-5.394
N16150 X138.506 Y157.415 Z-5.4
N16155 X138.464 Y164.655 Z-5.404
N16160 X138.457 Y165.9 Z-5.474
N16165 X138.455 Y166.224 Z-5.503
N16170 X138.453 Y166.487 Z-5.547
N16175 X138.452 Y166.718 Z-5.604
N16180 X138.451 Y166.944 Z-5.678
N16185 X138.449 Y167.166 Z-5.77
N16190 X138.448 Y167.38 Z-5.878
N16195 X138.447 Y167.587 Z-6.002
N16200 X138.446 Y167.832 Z-6.18
N16205 X138.444 Y168.061 Z-6.383
N16210 X138.443 Y168.204 Z-6.528
N16215 X138.439 Y168.963 Z-6.315
N16220 X138.433 Y169.951 Z-6.046
N16225 X138.431 Y170.334 Z-5.96
N16230 X138.429 Y170.722 Z-5.896
N16235 X138.426 Y171.244 Z-5.844
N16240 X138.423 Y171.771 Z-5.822
N16245 X138.415 Y172.998 Z-5.841
N16250 X138.406 Y174.636 Z-5.855
N16255 X138.398 Y175.978 Z-5.844
N16260 X138.393 Y176.75 Z-5.82
N16265 X138.387 Y177.775 Z-5.771
N16270 X138.385 Y178.231 Z-5.751
N16275 X138.395 Y178.494 Z-5.739
N16280 X138.421 Y178.728 Z-5.727
N16285 X138.463 Y178.96 Z-5.716
N16290 X138.529 Y179.214 Z-5.703
N16295 X138.616 Y179.468 Z-5.694
N16300 X138.709 Y179.686 Z-5.686
N16305 X138.832 Y179.924 Z-5.679
N16310 X138.967 Y180.142 Z-5.672
N16315 X139.114 Y180.343 Z-5.666
N16320 X139.287 Y180.548 Z-5.659
N16325 X139.461 Y180.724 Z-5.652
N16330 X139.663 Y180.9 Z-5.647
N16335 X139.879 Y181.059 Z-5.644
N16340 X140.106 Y181.202 Z-5.643
N16345 X140.344 Y181.326
N16350 X140.585 Y181.429 Z-5.646
N16355 X140.839 Y181.515 Z-5.65
N16360 X141.099 Y181.581 Z-5.653
N16365 X141.401 Y181.631 Z-5.652
N16370 X141.482 Y181.639 Z-5.582
N16375 X141.595 Y181.648 Z-5.494
N16380 X141.789 Y181.655 Z-5.366
N16385 X142.103 Y181.657 Z-5.199
N16390 X142.371 Y181.658 Z-5.085
N16395 X142.739 Y181.66 Z-4.96
N16400 X143.12 Y181.663 Z-4.866
N16405 X143.507 Y181.665 Z-4.802
N16410 X143.898 Y181.667 Z-4.766
N16415 X144.298 Y181.669 Z-4.759
N16420 X144.801 Y181.672 Z-4.787
N16425 X146.32 Y181.681 Z-4.911
N16430 X148.308 Y181.693 Z-5.09
N16435 X150.06 Y181.703 Z-5.265
N16440 X151.313 Y181.71 Z-5.4
N16445 X158.192 Y181.75 Z-5.403
N16450 X159.155 Y181.755 Z-5.429
N16455 X159.474 Y181.757 Z-5.458
N16460 X159.707 Y181.759 Z-5.503
N16465 X159.937 Y181.76 Z-5.565
N16470 X160.162 Y181.761 Z-5.646
N16475 X160.38 Y181.762 Z-5.745
N16480 X160.591 Y181.764 Z-5.862
N16485 X160.792 Y181.765 Z-5.997
N16490 X160.983 Y181.766 Z-6.148
N16495 X161.162 Y181.767 Z-6.315
N16500 X161.327 Y181.768 Z-6.497
N16505 X161.478 Y181.769 Z-6.694
N16510 X161.645 Y181.77 Z-6.961
N16515 X161.675 Z-7.014
N16520 X163.211 Y181.779 Z-6.793
N16525 X164.721 Y181.787 Z-6.583
N16530 X166.258 Y181.796 Z-6.383
N16535 X167.041 Y181.801 Z-6.286
N16540 X167.825 Y181.805 Z-6.193
N16545 X168.58 Y181.81 Z-6.098
N16550 X169.496 Y181.815 Z-6.016
N16555 X170.152 Y181.819 Z-5.978
N16560 X171.087 Y181.824 Z-5.957
N16565 X171.82 Y181.829 Z-5.952
N16570 X172.893 Y181.835 Z-5.932
N16575 X173.506 Y181.838 Z-5.897
N16580 X173.69 Y181.839 Z-5.711
N16585 X173.957 Y181.841 Z-5.486
N16590 X174.166 Y181.842 Z-5.338
N16595 X174.386 Y181.843 Z-5.205
N16600 X174.615 Y181.845 Z-5.087
N16605 X174.853 Y181.846 Z-4.984
N16610 X175.098 Y181.847 Z-4.897
N16615 X175.348 Y181.849 Z-4.827
N16620 X175.603 Y181.85 Z-4.773
N16625 X175.928 Y181.852 Z-4.73
N16630 X176.521 Y181.856 Z-4.704
N16635 X178.485 Y181.867 Z-4.648
N16640 X178.753 Y181.856 Z-4.641
N16645 X179.019 Y181.825 Z-4.636
N16650 X179.282 Y181.773 Z-4.633
N16655 X179.541 Y181.7 Z-4.632
N16660 X179.792 Y181.607 Z-4.633
N16665 X180.036 Y181.495 Z-4.636
N16670 X180.27 Y181.364 Z-4.64
N16675 X180.493 Y181.216 Z-4.646
N16680 X180.721 Y181.035 Z-4.654
N16685 X180.882 Y180.887 Z-4.668
N16690 X181.044 Y180.717 Z-4.699
N16695 X181.192 Y180.537 Z-4.744
N16700 X181.327 Y180.35 Z-4.801
N16705 X181.448 Y180.157 Z-4.868
N16710 X181.554 Y179.959 Z-4.944
N16715 X181.646 Y179.756 Z-5.025
N16720 X181.723 Y179.549 Z-5.111
N16725 X181.787 Y179.34 Z-5.2
N16730 X181.838 Y179.127 Z-5.289
N16735 X181.882 Y178.856 Z-5.4
N16740 X181.903 Y178.589
N16745 X181.913 Y177.258
N16750 X181.929 Y174.441 Z-5.401
N16755 X181.931 Y174.126 Z-5.425
N16760 X181.933 Y173.83 Z-5.478
N16765 X181.962 Y168.77 Z-5.556
N16770 X181.967 Y167.882 Z-5.604
N16775 X181.969 Y167.53 Z-5.655
N16780 X181.971 Y167.184 Z-5.743
N16785 X181.972 Y166.959 Z-5.822
