%
(1001)
(T1  D=6. CR=0. - ZMIN=-11.197 - FLAT END MILL)
N10 G90 G94 G17 G91.1
N15 G21
N20 G53 G0 Z0.
(ADAPTIVE5)
N25 T1 M6
N30 S5000 M3
N40 M8
N45 G0 X-0.605 Y-6.828
N50 G43 Z60. H1
N55 G0 Z30.
N60 Z-2.8
N65 G1 Z-3.4 F1000.
N70 X-0.603 Y-6.821 Z-3.494
N75 X-0.598 Y-6.8 Z-3.585
N80 X-0.589 Y-6.765 Z-3.672
N85 X-0.577 Y-6.717 Z-3.753
N90 X-0.562 Y-6.658 Z-3.824
N95 X-0.544 Y-6.589 Z-3.885
N100 X-0.524 Y-6.511 Z-3.935
N105 X-0.502 Y-6.427 Z-3.971
N110 X-0.48 Y-6.338 Z-3.993
N115 X-0.456 Y-6.247 Z-4.
N120 G3 X0.013 Y-2.981 I-14.839 J3.801
N125 G1 Y-2.831
N130 X-0.178 Y-1.892
N135 X-0.309 Y-0.944
N140 X-0.399 Y0.01
N145 X-0.46 Y0.965
N150 X-0.501 Y1.922
N155 X-0.529 Y2.88
N160 X-0.547 Y3.837
N165 X-0.56 Y4.795
N170 X-0.569 Y5.752
N175 X-0.574 Y6.71
N180 X-0.578 Y7.668
N185 X-0.583 Y9.583
N190 X-0.585 Y12.456
N195 X-0.586 Y22.991
N200 X-0.585 Y47.891
N205 X-0.584 Y98.649
N210 X-0.582 Y149.407
N215 X-0.58 Y200.165
N220 X-0.579 Y250.923
N225 X-0.577 Y301.681
N230 Y317.243
N235 X-0.536 Y317.479
N240 X-0.375 Y317.93
N245 X0.18 Y318.71
N250 X0.95 Y319.28
N255 X1.818 Y319.684
N260 X2.734 Y319.966
N265 X3.671 Y320.161
N270 X4.62 Y320.294
N275 X5.573 Y320.386
N280 X6.529 Y320.447
N285 X7.486 Y320.489
N290 X8.443 Y320.518
N295 X9.4 Y320.537
N300 X10.358 Y320.55
N305 X11.316 Y320.558
N310 X12.273 Y320.564
N315 X13.231 Y320.568
N320 X15.146 Y320.573
N325 X18.019 Y320.575
N330 X28.554 Y320.577
N335 X33.343
N340 X84.1
N345 X134.858
N350 X185.616
N355 X236.374
N360 X287.132
N365 X317.3
N370 X317.762 Y320.45
N375 X318.584 Y319.959
N380 X319.189 Y319.217
N385 X319.62 Y318.362
N390 X319.922 Y317.453
N395 X320.13 Y316.518
N400 X320.274 Y315.571
N405 X320.371 Y314.618
N410 X320.438 Y313.663
N415 X320.483 Y312.706
N420 X320.513 Y311.749
N425 X320.534 Y310.792
N430 X320.548 Y309.834
N435 X320.557 Y308.876
N440 X320.563 Y307.919
N445 X320.568 Y306.961
N450 X320.573 Y305.046
N455 X320.575 Y302.173
N460 X320.576 Y301.215
N465 X320.577 Y283.019
N470 Y250.457
N475 Y199.699
N480 Y148.941
N485 Y98.183
N490 Y47.425
N495 Y2.892
N500 X320.554 Y2.654
N505 X320.428 Y2.192
N510 X319.918 Y1.381
N515 X319.168 Y0.786
N520 X318.309 Y0.362
N525 X317.398 Y0.066
N530 X316.463 Y-0.139
N535 X315.515 Y-0.279
N540 X314.562 Y-0.375
N545 X313.607 Y-0.44
N550 X312.65 Y-0.485
N555 X311.693 Y-0.514
N560 X310.735 Y-0.535
N565 X309.778 Y-0.548
N570 X308.82 Y-0.557
N575 X307.863 Y-0.564
N580 X306.905 Y-0.568
N585 X304.989 Y-0.573
N590 X302.116 Y-0.575
N595 X292.539 Y-0.577
N600 X265.724
N605 X214.966
N610 X164.208
N615 X113.45
N620 X62.692
N625 X11.934
N630 X5.23
N635 X4.769 Y-0.449
N640 X3.938 Y0.028
N645 X3.315 Y0.755
N650 X2.863 Y1.599
N655 X2.542 Y2.502
N660 X2.317 Y3.432
N665 X2.16 Y4.377
N670 X2.051 Y5.329
N675 X1.977 Y6.284
N680 X1.925 Y7.24
N685 X1.89 Y8.197
N690 X1.866 Y9.154
N695 X1.849 Y10.112
N700 X1.838 Y11.07
N705 X1.83 Y12.027
N710 X1.825 Y12.985
N715 X1.822 Y13.943
N720 X1.817 Y15.858
N725 X1.815 Y18.731
N730 X1.814 Y29.266
N735 X1.815 Y41.716
N740 X1.816 Y92.474
N745 X1.818 Y143.232
N750 X1.819 Y193.99
N755 X1.821 Y244.747
N760 X1.823 Y295.505
N765 Y313.702
N770 X1.824 Y314.18
N775 X1.927 Y314.648
N780 X2.313 Y315.524
N785 X2.961 Y316.229
N790 X3.753 Y316.768
N795 X4.623 Y317.168
N800 X5.536 Y317.46
N805 X6.47 Y317.67
N810 X7.416 Y317.82
N815 X8.368 Y317.926
N820 X9.322 Y318.001
N825 X10.279 Y318.054
N830 X11.236 Y318.091
N835 X12.193 Y318.117
N840 X13.15 Y318.135
N845 X14.108 Y318.148
N850 X15.066 Y318.157
N855 X16.023 Y318.163
N860 X16.981 Y318.167
N865 X18.896 Y318.172
N870 X21.77 Y318.175
N875 X29.431 Y318.176
N880 X32.304 Y318.177
N885 X83.062
N890 X133.82
N895 X184.578
N900 X235.336
N905 X286.094
N910 X313.867
N915 X314.345 Y318.143
N920 X314.804 Y318.009
N925 X315.656 Y317.57
N930 X316.333 Y316.893
N935 X316.846 Y316.084
N940 X317.225 Y315.205
N945 X317.501 Y314.288
N950 X317.699 Y313.351
N955 X317.841 Y312.404
N960 X317.941 Y311.451
N965 X318.012 Y310.496
N970 X318.061 Y309.54
N975 X318.096 Y308.583
N980 X318.121 Y307.625
N985 X318.138 Y306.668
N990 X318.15 Y305.71
N995 X318.158 Y304.753
N1000 X318.164 Y303.795
N1005 X318.168 Y302.837
N1010 X318.172 Y300.922
N1015 X318.175 Y298.049
N1020 X318.176 Y297.091
N1025 X318.177 Y283.683
N1030 Y246.333
N1035 Y195.575
N1040 Y144.817
N1045 Y94.059
N1050 Y43.301
N1055 Y5.951
N1060 X318.104 Y5.478
N1065 X317.765 Y4.582
N1070 X317.143 Y3.854
N1075 X316.366 Y3.295
N1080 X315.504 Y2.878
N1085 X314.596 Y2.574
N1090 X313.663 Y2.354
N1095 X312.719 Y2.197
N1100 X311.767 Y2.086
N1105 X310.813 Y2.007
N1110 X309.857 Y1.952
N1115 X308.9 Y1.913
N1120 X307.943 Y1.886
N1125 X306.985 Y1.867
N1130 X306.028 Y1.854
N1135 X305.07 Y1.844
N1140 X304.112 Y1.838
N1145 X303.155 Y1.833
N1150 X301.239 Y1.828
N1155 X298.366 Y1.825
N1160 X291.662 Y1.824
N1165 X256.227 Y1.823
N1170 X205.469
N1175 X154.712
N1180 X103.954
N1185 X53.196
N1190 X8.184
N1195 X7.721 Y1.945
N1200 X6.856 Y2.358
N1205 X6.16 Y3.015
N1210 X5.627 Y3.811
N1215 X5.231 Y4.683
N1220 X4.941 Y5.595
N1225 X4.73 Y6.53
N1230 X4.58 Y7.475
N1235 X4.472 Y8.427
N1240 X4.395 Y9.382
N1245 X4.341 Y10.338
N1250 X4.303 Y11.295
N1255 X4.277 Y12.252
N1260 X4.258 Y13.21
N1265 X4.244 Y14.167
N1270 X4.235 Y15.125
N1275 X4.229 Y16.082
N1280 X4.224 Y17.04
N1285 X4.219 Y18.956
N1290 X4.216 Y21.829
N1295 X4.214 Y28.533
N1300 X4.215 Y56.306
N1305 X4.217 Y107.064
N1310 X4.218 Y157.822
N1315 X4.22 Y208.579
N1320 X4.222 Y259.337
N1325 X4.223 Y310.095
N1330 Y311.053
N1335 X4.246 Y311.531
N1340 X4.459 Y312.465
N1345 X4.977 Y313.271
N1350 X5.685 Y313.915
N1355 X6.505 Y314.411
N1360 X7.387 Y314.783
N1365 X8.304 Y315.059
N1370 X9.24 Y315.261
N1375 X10.187 Y315.407
N1380 X11.139 Y315.513
N1385 X12.093 Y315.589
N1390 X13.05 Y315.643
N1395 X14.006 Y315.682
N1400 X14.964 Y315.71
N1405 X15.921 Y315.729
N1410 X16.879 Y315.743
N1415 X17.837 Y315.753
N1420 X18.794 Y315.76
N1425 X19.752 Y315.765
N1430 X20.71 Y315.768
N1435 X22.625 Y315.772
N1440 X25.498 Y315.775
N1445 X34.117 Y315.777
N1450 X51.356
N1455 X102.114
N1460 X152.872
N1465 X203.63
N1470 X254.388
N1475 X305.145
N1480 X310.892
N1485 X311.849 Y315.765
N1490 X312.748 Y315.433
N1495 X313.498 Y314.838
N1500 X314.09 Y314.085
N1505 X314.543 Y313.241
N1510 X314.881 Y312.345
N1515 X315.13 Y311.42
N1520 X315.312 Y310.48
N1525 X315.444 Y309.531
N1530 X315.539 Y308.578
N1535 X315.607 Y307.623
N1540 X315.656 Y306.667
N1545 X315.691 Y305.71
N1550 X315.716 Y304.752
N1555 X315.734 Y303.795
N1560 X315.746 Y302.837
N1565 X315.755 Y301.879
N1570 X315.762 Y300.922
N1575 X315.766 Y299.964
N1580 X315.771 Y298.049
N1585 X315.775 Y295.176
N1590 X315.776 Y288.472
N1595 X315.777 Y273.149
N1600 Y222.391
N1605 Y171.633
N1610 Y120.875
N1615 Y70.117
N1620 Y19.359
N1625 Y8.824
N1630 X315.734 Y8.347
N1635 X315.483 Y7.423
N1640 X314.936 Y6.637
N1645 X314.21 Y6.012
N1650 X313.381 Y5.533
N1655 X312.493 Y5.175
N1660 X311.572 Y4.911
N1665 X310.634 Y4.717
N1670 X309.687 Y4.577
N1675 X308.735 Y4.476
N1680 X307.78 Y4.403
N1685 X306.823 Y4.351
N1690 X305.866 Y4.314
N1695 X304.909 Y4.288
N1700 X303.952 Y4.269
N1705 X302.994 Y4.256
N1710 X302.036 Y4.246
N1715 X301.079 Y4.239
N1720 X300.121 Y4.235
N1725 X298.206 Y4.229
N1730 X295.332 Y4.225
N1735 X289.586 Y4.224
N1740 X278.094 Y4.223
N1745 X227.336
N1750 X176.578
N1755 X125.82
N1760 X75.062
N1765 X24.304
N1770 X10.897
N1775 X9.964 Y4.439
N1780 X9.156 Y4.954
N1785 X8.508 Y5.659
N1790 X8.008 Y6.476
N1795 X7.631 Y7.356
N1800 X7.351 Y8.272
N1805 X7.146 Y9.208
N1810 X6.996 Y10.154
N1815 X6.888 Y11.105
N1820 X6.81 Y12.06
N1825 X6.753 Y13.016
N1830 X6.713 Y13.973
N1835 X6.685 Y14.93
N1840 X6.664 Y15.887
N1845 X6.65 Y16.845
N1850 X6.639 Y17.803
N1855 X6.632 Y18.76
N1860 X6.627 Y19.718
N1865 X6.623 Y20.676
N1870 X6.619 Y22.591
N1875 X6.616 Y25.464
N1880 X6.615 Y33.126
N1885 Y39.83
N1890 X6.616 Y90.587
N1895 X6.618 Y141.345
N1900 X6.619 Y192.103
N1905 X6.621 Y242.861
N1910 X6.623 Y293.619
N1915 Y308.942
N1920 X6.82 Y309.88
N1925 X7.313 Y310.7
N1930 X8. Y311.368
N1935 X8.805 Y311.887
N1940 X9.678 Y312.281
N1945 X10.589 Y312.576
N1950 X11.521 Y312.795
N1955 X12.465 Y312.955
N1960 X13.416 Y313.072
N1965 X14.37 Y313.157
N1970 X15.325 Y313.219
N1975 X16.282 Y313.263
N1980 X17.239 Y313.295
N1985 X18.197 Y313.319
N1990 X19.154 Y313.335
N1995 X20.112 Y313.347
N2000 X21.069 Y313.355
N2005 X22.027 Y313.362
N2010 X22.985 Y313.366
N2015 X24.9 Y313.371
N2020 X27.773 Y313.375
N2025 X34.477 Y313.376
N2030 X40.223 Y313.377
N2035 X90.981
N2040 X141.739
N2045 X192.497
N2050 X243.255
N2055 X294.013
N2060 X308.378
N2065 X309.336 Y313.366
N2070 X310.234 Y313.034
N2075 X310.994 Y312.45
N2080 X311.597 Y311.706
N2085 X312.061 Y310.869
N2090 X312.412 Y309.978
N2095 X312.673 Y309.056
N2100 X312.866 Y308.118
N2105 X313.007 Y307.171
N2110 X313.11 Y306.219
N2115 X313.184 Y305.264
N2120 X313.238 Y304.308
N2125 X313.277 Y303.351
N2130 X313.306 Y302.394
N2135 X313.326 Y301.436
N2140 X313.34 Y300.478
N2145 X313.351 Y299.521
N2150 X313.358 Y298.563
N2155 X313.363 Y297.605
N2160 X313.367 Y296.648
N2165 X313.372 Y294.732
N2170 X313.375 Y291.859
N2175 X313.376 Y284.198
N2180 X313.377 Y279.409
N2185 Y228.651
N2190 Y177.893
N2195 Y127.135
N2200 Y76.378
N2205 Y25.62
N2210 Y11.254
N2215 X313.247 Y10.305
N2220 X312.807 Y9.455
N2225 X312.151 Y8.757
N2230 X311.366 Y8.209
N2235 X310.504 Y7.79
N2240 X309.6 Y7.476
N2245 X308.671 Y7.244
N2250 X307.728 Y7.073
N2255 X306.779 Y6.948
N2260 X305.825 Y6.857
N2265 X304.87 Y6.792
N2270 X303.913 Y6.744
N2275 X302.956 Y6.71
N2280 X301.999 Y6.685
N2285 X301.041 Y6.668
N2290 X300.084 Y6.655
N2295 X299.126 Y6.646
N2300 X298.168 Y6.64
N2305 X297.211 Y6.635
N2310 X295.295 Y6.629
N2315 X292.422 Y6.626
N2320 X286.676 Y6.624
N2325 X279.014 Y6.623
N2330 X228.257
N2335 X177.499
N2340 X126.741
N2345 X75.983
N2350 X25.225
N2355 X13.732
N2360 X12.78 Y6.727
N2365 X11.92 Y7.147
N2370 X11.209 Y7.789
N2375 X10.648 Y8.565
N2380 X10.219 Y9.421
N2385 X9.897 Y10.323
N2390 X9.658 Y11.251
N2395 X9.481 Y12.192
N2400 X9.352 Y13.141
N2405 X9.258 Y14.094
N2410 X9.19 Y15.049
N2415 X9.141 Y16.006
N2420 X9.105 Y16.963
N2425 X9.079 Y17.92
N2430 X9.061 Y18.878
N2435 X9.048 Y19.835
N2440 X9.038 Y20.793
N2445 X9.031 Y21.75
N2450 X9.026 Y22.708
N2455 X9.023 Y23.666
N2460 X9.019 Y25.581
N2465 X9.016 Y28.454
N2470 X9.015 Y36.116
N2475 Y43.777
N2480 X9.016 Y94.535
N2485 X9.018 Y145.293
N2490 X9.02 Y196.051
N2495 X9.021 Y246.809
N2500 X9.023 Y297.567
N2505 Y306.186
N2510 X9.125 Y307.139
N2515 X9.537 Y308.003
N2520 X10.171 Y308.721
N2525 X10.941 Y309.29
N2530 X11.794 Y309.727
N2535 X12.693 Y310.057
N2540 X13.618 Y310.303
N2545 X14.559 Y310.485
N2550 X15.507 Y310.619
N2555 X16.459 Y310.717
N2560 X17.414 Y310.789
N2565 X18.371 Y310.841
N2570 X19.328 Y310.878
N2575 X20.285 Y310.906
N2580 X21.243 Y310.926
N2585 X22.2 Y310.94
N2590 X23.158 Y310.95
N2595 X24.115 Y310.958
N2600 X25.073 Y310.963
N2605 X26.031 Y310.967
N2610 X27.946 Y310.972
N2615 X30.819 Y310.975
N2620 X37.523 Y310.976
N2625 X49.016 Y310.977
N2630 X99.773
N2635 X150.531
N2640 X201.289
N2645 X252.047
N2650 X302.805
N2655 X305.678
N2660 X306.636 Y310.976
N2665 X307.561 Y310.726
N2670 X308.36 Y310.198
N2675 X309.007 Y309.492
N2680 X309.511 Y308.678
N2685 X309.894 Y307.8
N2690 X310.182 Y306.887
N2695 X310.396 Y305.953
N2700 X310.553 Y305.009
N2705 X310.669 Y304.058
N2710 X310.754 Y303.104
N2715 X310.815 Y302.148
N2720 X310.86 Y301.192
N2725 X310.892 Y300.235
N2730 X310.916 Y299.277
N2735 X310.933 Y298.32
N2740 X310.945 Y297.362
N2745 X310.954 Y296.404
N2750 X310.96 Y295.447
N2755 X310.965 Y294.489
N2760 X310.971 Y292.574
N2765 X310.974 Y289.701
N2770 X310.976 Y283.954
N2775 X310.977 Y265.758
N2780 Y215.
N2785 Y164.242
N2790 Y113.484
N2795 Y62.726
N2800 Y13.884
N2805 X310.896 Y12.93
N2810 X310.504 Y12.056
N2815 X309.884 Y11.326
N2820 X309.121 Y10.747
N2825 X308.273 Y10.301
N2830 X307.377 Y9.965
N2835 X306.452 Y9.713
N2840 X305.513 Y9.527
N2845 X304.565 Y9.39
N2850 X303.613 Y9.289
N2855 X302.658 Y9.216
N2860 X301.702 Y9.163
N2865 X300.745 Y9.124
N2870 X299.788 Y9.096
N2875 X298.83 Y9.076
N2880 X297.872 Y9.061
N2885 X296.915 Y9.05
N2890 X295.957 Y9.043
N2895 X294.999 Y9.037
N2900 X294.042 Y9.033
N2905 X292.126 Y9.029
N2910 X289.253 Y9.025
N2915 X282.549 Y9.024
N2920 X260.522 Y9.023
N2925 X209.764
N2930 X159.007
N2935 X108.249
N2940 X57.491
N2945 X16.31
N2950 X15.355 Y9.096
N2955 X14.478 Y9.481
N2960 X13.743 Y10.095
N2965 X13.159 Y10.854
N2970 X12.71 Y11.7
N2975 X12.369 Y12.595
N2980 X12.115 Y13.518
N2985 X11.926 Y14.457
N2990 X11.787 Y15.405
N2995 X11.685 Y16.357
N3000 X11.611 Y17.312
N3005 X11.556 Y18.268
N3010 X11.517 Y19.225
N3015 X11.488 Y20.182
N3020 X11.468 Y21.139
N3025 X11.453 Y22.097
N3030 X11.442 Y23.055
N3035 X11.434 Y24.012
N3040 X11.429 Y24.97
N3045 X11.425 Y25.928
N3050 X11.42 Y27.843
N3055 X11.416 Y30.716
N3060 X11.415 Y37.42
N3065 Y67.109
N3070 X11.417 Y117.867
N3075 X11.419 Y168.624
N3080 X11.42 Y219.382
N3085 X11.422 Y270.14
N3090 X11.423 Y303.66
N3095 X11.503 Y304.614
N3100 X11.889 Y305.49
N3105 X12.503 Y306.225
N3110 X13.261 Y306.81
N3115 X14.106 Y307.262
N3120 X15. Y307.605
N3125 X15.923 Y307.862
N3130 X16.861 Y308.053
N3135 X17.808 Y308.194
N3140 X18.76 Y308.298
N3145 X19.715 Y308.374
N3150 X20.671 Y308.429
N3155 X21.628 Y308.47
N3160 X22.585 Y308.499
N3165 X23.543 Y308.52
N3170 X24.5 Y308.536
N3175 X25.458 Y308.547
N3180 X26.416 Y308.555
N3185 X27.373 Y308.561
N3190 X28.331 Y308.565
N3195 X30.246 Y308.571
N3200 X33.119 Y308.574
N3205 X38.866 Y308.576
N3210 X77.173 Y308.577
N3215 X127.931
N3220 X178.689
N3225 X229.447
N3230 X280.205
N3235 X304.148 Y308.576
N3240 X305.076 Y308.342
N3245 X305.884 Y307.828
N3250 X306.542 Y307.132
N3255 X307.056 Y306.324
N3260 X307.449 Y305.45
N3265 X307.746 Y304.54
N3270 X307.967 Y303.608
N3275 X308.13 Y302.664
N3280 X308.251 Y301.714
N3285 X308.339 Y300.761
N3290 X308.404 Y299.805
N3295 X308.451 Y298.849
N3300 X308.486 Y297.892
N3305 X308.511 Y296.934
N3310 X308.529 Y295.977
N3315 X308.542 Y295.019
N3320 X308.552 Y294.061
N3325 X308.559 Y293.104
N3330 X308.564 Y292.146
N3335 X308.567 Y291.188
N3340 X308.572 Y289.273
N3345 X308.575 Y286.4
N3350 X308.576 Y283.527
N3355 X308.577 Y242.346
N3360 Y232.769
N3365 Y182.011
N3370 Y131.253
N3375 Y80.495
N3380 Y29.737
N3385 Y16.329
N3390 X308.493 Y15.375
N3395 X308.104 Y14.5
N3400 X307.489 Y13.766
N3405 X306.729 Y13.184
N3410 X305.884 Y12.733
N3415 X304.989 Y12.392
N3420 X304.066 Y12.136
N3425 X303.128 Y11.945
N3430 X302.18 Y11.805
N3435 X301.228 Y11.701
N3440 X300.273 Y11.626
N3445 X299.317 Y11.57
N3450 X298.36 Y11.53
N3455 X297.403 Y11.501
N3460 X296.446 Y11.479
N3465 X295.488 Y11.464
N3470 X294.531 Y11.453
N3475 X293.573 Y11.445
N3480 X292.615 Y11.439
N3485 X291.658 Y11.434
N3490 X289.742 Y11.429
N3495 X286.869 Y11.426
N3500 X281.123 Y11.424
N3505 X273.461 Y11.423
N3510 X222.703
N3515 X171.945
N3520 X121.188
N3525 X70.43
N3530 X19.672
N3535 X18.714
N3540 X17.76 Y11.51
N3545 X16.887 Y11.903
N3550 X16.155 Y12.52
N3555 X15.573 Y13.281
N3560 X15.123 Y14.127
N3565 X14.782 Y15.022
N3570 X14.527 Y15.945
N3575 X14.336 Y16.883
N3580 X14.196 Y17.83
N3585 X14.093 Y18.783
N3590 X14.017 Y19.737
N3595 X13.962 Y20.693
N3600 X13.921 Y21.65
N3605 X13.892 Y22.607
N3610 X13.871 Y23.565
N3615 X13.855 Y24.523
N3620 X13.844 Y25.48
N3625 X13.836 Y26.438
N3630 X13.83 Y27.395
N3635 X13.825 Y28.353
N3640 X13.82 Y30.269
N3645 X13.817 Y33.142
N3650 X13.815 Y38.888
N3655 Y58.999
N3660 X13.817 Y109.757
N3665 X13.818 Y160.515
N3670 X13.82 Y211.273
N3675 X13.822 Y262.031
N3680 X13.823 Y301.297
N3685 X13.925 Y302.249
N3690 X14.328 Y303.118
N3695 X14.951 Y303.845
N3700 X15.715 Y304.422
N3705 X16.562 Y304.869
N3710 X17.458 Y305.208
N3715 X18.381 Y305.463
N3720 X19.32 Y305.652
N3725 X20.267 Y305.793
N3730 X21.219 Y305.896
N3735 X22.174 Y305.972
N3740 X23.13 Y306.027
N3745 X24.087 Y306.068
N3750 X25.044 Y306.098
N3755 X26.002 Y306.119
N3760 X26.959 Y306.135
N3765 X27.917 Y306.146
N3770 X28.875 Y306.155
N3775 X29.832 Y306.161
N3780 X30.79 Y306.165
N3785 X32.705 Y306.171
N3790 X35.578 Y306.174
N3795 X41.325 Y306.176
N3800 X73.886 Y306.177
N3805 X124.644
N3810 X175.402
N3815 X226.16
N3820 X276.918
N3825 X300.86
N3830 X301.818 Y306.175
N3835 X302.737 Y305.903
N3840 X303.532 Y305.369
N3845 X304.176 Y304.66
N3850 X304.679 Y303.846
N3855 X305.064 Y302.969
N3860 X305.355 Y302.056
N3865 X305.572 Y301.124
N3870 X305.733 Y300.18
N3875 X305.852 Y299.229
N3880 X305.94 Y298.276
N3885 X306.004 Y297.32
N3890 X306.051 Y296.364
N3895 X306.085 Y295.407
N3900 X306.11 Y294.449
N3905 X306.128 Y293.492
N3910 X306.141 Y292.534
N3915 X306.151 Y291.576
N3920 X306.158 Y290.619
N3925 X306.163 Y289.661
N3930 X306.167 Y288.703
N3935 X306.172 Y286.788
N3940 X306.175 Y283.915
N3945 X306.176 Y282.
N3950 X306.177 Y266.676
N3955 Y231.242
N3960 Y180.484
N3965 Y129.726
N3970 Y78.968
N3975 Y28.21
N3980 Y18.633
N3985 X306.054 Y17.683
N3990 X305.632 Y16.823
N3995 X304.995 Y16.108
N4000 X304.223 Y15.541
N4005 X303.371 Y15.103
N4010 X302.473 Y14.771
N4015 X301.549 Y14.521
N4020 X300.609 Y14.336
N4025 X299.661 Y14.199
N4030 X298.709 Y14.098
N4035 X297.754 Y14.023
N4040 X296.798 Y13.969
N4045 X295.841 Y13.93
N4050 X294.884 Y13.901
N4055 X293.926 Y13.879
N4060 X292.969 Y13.864
N4065 X292.011 Y13.853
N4070 X291.053 Y13.845
N4075 X290.096 Y13.839
N4080 X289.138 Y13.835
N4085 X287.223 Y13.829
N4090 X284.35 Y13.826
N4095 X278.603 Y13.824
N4100 X267.111 Y13.823
N4105 X216.353
N4110 X165.595
N4115 X114.837
N4120 X64.079
N4125 X20.983
N4130 X20.035 Y13.96
N4135 X19.181 Y14.394
N4140 X18.473 Y15.039
N4145 X17.912 Y15.815
N4150 X17.479 Y16.669
N4155 X17.15 Y17.569
N4160 X16.904 Y18.494
N4165 X16.721 Y19.434
N4170 X16.585 Y20.382
N4175 X16.485 Y21.335
N4180 X16.412 Y22.289
N4185 X16.359 Y23.246
N4190 X16.319 Y24.203
N4195 X16.291 Y25.16
N4200 X16.27 Y26.117
N4205 X16.255 Y27.075
N4210 X16.244 Y28.033
N4215 X16.236 Y28.99
N4220 X16.23 Y29.948
N4225 X16.226 Y30.906
N4230 X16.22 Y32.821
N4235 X16.217 Y35.694
N4240 X16.215 Y41.44
N4245 X16.216 Y70.171
N4250 X16.217 Y120.929
N4255 X16.219 Y171.687
N4260 X16.22 Y222.445
N4265 X16.222 Y273.203
N4270 X16.223 Y299.061
N4275 X16.381 Y300.005
N4280 X16.832 Y300.85
N4285 X17.487 Y301.549
N4290 X18.269 Y302.101
N4295 X19.127 Y302.528
N4300 X20.028 Y302.851
N4305 X20.955 Y303.094
N4310 X21.895 Y303.275
N4315 X22.843 Y303.409
N4320 X23.796 Y303.507
N4325 X24.751 Y303.58
N4330 X25.707 Y303.633
N4335 X26.664 Y303.672
N4340 X27.621 Y303.7
N4345 X28.579 Y303.721
N4350 X29.536 Y303.736
N4355 X30.494 Y303.747
N4360 X31.452 Y303.755
N4365 X32.409 Y303.761
N4370 X33.367 Y303.765
N4375 X35.282 Y303.771
N4380 X38.155 Y303.774
N4385 X39.113 Y303.775
N4390 X46.775 Y303.776
N4395 X89.871 Y303.777
N4400 X140.629
N4405 X191.387
N4410 X242.145
N4415 X292.903
N4420 X298.649
N4425 X299.606 Y303.743
N4430 X300.503 Y303.406
N4435 X301.267 Y302.829
N4440 X301.88 Y302.093
N4445 X302.358 Y301.263
N4450 X302.723 Y300.378
N4455 X302.998 Y299.46
N4460 X303.203 Y298.525
N4465 X303.356 Y297.579
N4470 X303.468 Y296.628
N4475 X303.551 Y295.674
N4480 X303.612 Y294.719
N4485 X303.656 Y293.762
N4490 X303.689 Y292.805
N4495 X303.713 Y291.847
N4500 X303.73 Y290.89
N4505 X303.743 Y289.932
N4510 X303.752 Y288.975
N4515 X303.759 Y288.017
N4520 X303.764 Y287.059
N4525 X303.77 Y285.144
N4530 X303.774 Y282.271
N4535 X303.776 Y277.482
N4540 X303.777 Y261.201
N4545 Y210.443
N4550 Y159.686
N4555 Y108.928
N4560 Y58.17
N4565 Y20.82
N4570 X303.578 Y19.883
N4575 X303.097 Y19.054
N4580 X302.422 Y18.375
N4585 X301.628 Y17.839
N4590 X300.764 Y17.427
N4595 X299.859 Y17.115
N4600 X298.93 Y16.88
N4605 X297.988 Y16.706
N4610 X297.039 Y16.577
N4615 X296.086 Y16.482
N4620 X295.131 Y16.413
N4625 X294.175 Y16.362
N4630 X293.218 Y16.324
N4635 X292.261 Y16.297
N4640 X291.303 Y16.277
N4645 X290.345 Y16.262
N4650 X289.388 Y16.252
N4655 X288.43 Y16.244
N4660 X287.473 Y16.238
N4665 X286.515 Y16.234
N4670 X284.599 Y16.229
N4675 X281.726 Y16.226
N4680 X275.98 Y16.224
N4685 X241.503 Y16.223
N4690 X190.745
N4695 X139.987
N4700 X89.229
N4705 X38.471
N4710 X24.106
N4715 X23.148 Y16.225
N4720 X22.216 Y16.446
N4725 X21.397 Y16.942
N4730 X20.728 Y17.627
N4735 X20.201 Y18.427
N4740 X19.796 Y19.294
N4745 X19.489 Y20.202
N4750 X19.259 Y21.131
N4755 X19.088 Y22.074
N4760 X18.962 Y23.023
N4765 X18.869 Y23.976
N4770 X18.8 Y24.931
N4775 X18.75 Y25.888
N4780 X18.713 Y26.845
N4785 X18.686 Y27.802
N4790 X18.667 Y28.76
N4795 X18.653 Y29.717
N4800 X18.642 Y30.675
N4805 X18.635 Y31.632
N4810 X18.629 Y32.59
N4815 X18.625 Y33.548
N4820 X18.62 Y35.463
N4825 X18.617 Y38.336
N4830 X18.615 Y44.082
N4835 Y49.829
N4840 X18.617 Y100.587
N4845 X18.618 Y151.344
N4850 X18.62 Y202.102
N4855 X18.621 Y252.86
N4860 X18.623 Y295.957
N4865 X18.627 Y296.914
N4870 X18.876 Y297.839
N4875 X19.391 Y298.647
N4880 X20.087 Y299.304
N4885 X20.894 Y299.821
N4890 X21.765 Y300.218
N4895 X22.675 Y300.518
N4900 X23.605 Y300.744
N4905 X24.548 Y300.911
N4910 X25.498 Y301.035
N4915 X26.451 Y301.126
N4920 X27.407 Y301.193
N4925 X28.363 Y301.243
N4930 X29.32 Y301.279
N4935 X30.277 Y301.305
N4940 X31.235 Y301.325
N4945 X32.193 Y301.339
N4950 X33.15 Y301.349
N4955 X34.108 Y301.356
N4960 X35.066 Y301.362
N4965 X36.023 Y301.366
N4970 X37.939 Y301.371
N4975 X40.812 Y301.374
N4980 X46.558 Y301.376
N4985 X74.331 Y301.377
N4990 X125.089
N4995 X175.847
N5000 X226.605
N5005 X277.363
N5010 X296.517
N5015 X297.467 Y301.261
N5020 X298.331 Y300.848
N5025 X299.052 Y300.217
N5030 X299.625 Y299.449
N5035 X300.068 Y298.601
N5040 X300.406 Y297.705
N5045 X300.66 Y296.781
N5050 X300.849 Y295.842
N5055 X300.989 Y294.895
N5060 X301.093 Y293.943
N5065 X301.169 Y292.988
N5070 X301.225 Y292.032
N5075 X301.266 Y291.075
N5080 X301.296 Y290.118
N5085 X301.318 Y289.161
N5090 X301.334 Y288.203
N5095 X301.345 Y287.245
N5100 X301.354 Y286.288
N5105 X301.36 Y285.33
N5110 X301.364 Y284.372
N5115 X301.37 Y282.457
N5120 X301.374 Y279.584
N5125 X301.376 Y273.838
N5130 Y271.922
N5135 X301.377 Y221.164
N5140 Y170.406
N5145 Y119.649
N5150 Y68.891
N5155 Y23.879
N5160 X301.361 Y22.921
N5165 X301.059 Y22.013
N5170 X300.506 Y21.231
N5175 X299.786 Y20.599
N5180 X298.966 Y20.104
N5185 X298.087 Y19.725
N5190 X297.173 Y19.439
N5195 X296.239 Y19.224
N5200 X295.295 Y19.065
N5205 X294.345 Y18.947
N5210 X293.391 Y18.861
N5215 X292.435 Y18.797
N5220 X291.479 Y18.75
N5225 X290.522 Y18.716
N5230 X289.564 Y18.691
N5235 X288.607 Y18.673
N5240 X287.649 Y18.659
N5245 X286.691 Y18.65
N5250 X285.734 Y18.642
N5255 X284.776 Y18.637
N5260 X283.818 Y18.634
N5265 X281.903 Y18.629
N5270 X279.03 Y18.625
N5275 X272.326 Y18.624
N5280 X247.426 Y18.623
N5285 X196.668
N5290 X145.91
N5295 X95.152
N5300 X44.394
N5305 X26.198
N5310 X25.241 Y18.652
N5315 X24.34 Y18.976
N5320 X23.569 Y19.545
N5325 X22.948 Y20.274
N5330 X22.463 Y21.1
N5335 X22.092 Y21.982
N5340 X21.811 Y22.898
N5345 X21.602 Y23.833
N5350 X21.446 Y24.778
N5355 X21.331 Y25.728
N5360 X21.246 Y26.682
N5365 X21.184 Y27.638
N5370 X21.138 Y28.595
N5375 X21.105 Y29.552
N5380 X21.08 Y30.509
N5385 X21.063 Y31.467
N5390 X21.05 Y32.424
N5395 X21.04 Y33.382
N5400 X21.033 Y34.34
N5405 X21.028 Y35.297
N5410 X21.024 Y36.255
N5415 X21.02 Y38.17
N5420 X21.017 Y41.043
N5425 X21.015 Y47.747
N5430 Y48.705
N5435 X21.017 Y99.463
N5440 X21.018 Y150.221
N5445 X21.02 Y200.979
N5450 X21.021 Y251.737
N5455 X21.023 Y293.875
N5460 X21.075 Y294.832
N5465 X21.424 Y295.723
N5470 X22.011 Y296.48
N5475 X22.75 Y297.089
N5480 X23.582 Y297.563
N5485 X24.469 Y297.925
N5490 X25.387 Y298.199
N5495 X26.322 Y298.403
N5500 X27.268 Y298.555
N5505 X28.219 Y298.667
N5510 X29.173 Y298.75
N5515 X30.129 Y298.811
N5520 X31.085 Y298.855
N5525 X32.043 Y298.888
N5530 X33. Y298.912
N5535 X33.958 Y298.929
N5540 X34.915 Y298.942
N5545 X35.873 Y298.951
N5550 X36.83 Y298.958
N5555 X37.788 Y298.963
N5560 X39.704 Y298.969
N5565 X42.577 Y298.974
N5570 X47.365 Y298.976
N5575 X78.011 Y298.977
N5580 X128.769
N5585 X179.527
N5590 X230.285
N5595 X281.043
N5600 X293.493
N5605 X294.451 Y298.973
N5610 X295.381 Y298.743
N5615 X296.197 Y298.243
N5620 X296.864 Y297.556
N5625 X297.389 Y296.755
N5630 X297.794 Y295.887
N5635 X298.1 Y294.979
N5640 X298.33 Y294.05
N5645 X298.501 Y293.107
N5650 X298.627 Y292.158
N5655 X298.721 Y291.205
N5660 X298.789 Y290.25
N5665 X298.839 Y289.293
N5670 X298.876 Y288.336
N5675 X298.903 Y287.379
N5680 X298.923 Y286.421
N5685 X298.938 Y285.464
N5690 X298.948 Y284.506
N5695 X298.956 Y283.548
N5700 X298.961 Y282.591
N5705 X298.966 Y281.633
N5710 X298.971 Y279.718
N5715 X298.974 Y276.845
N5720 X298.976 Y271.098
N5725 X298.977 Y263.437
N5730 Y212.679
N5735 Y161.921
N5740 Y111.163
N5745 Y60.405
N5750 Y25.928
N5755 X298.871 Y24.976
N5760 X298.468 Y24.107
N5765 X297.844 Y23.381
N5770 X297.081 Y22.802
N5775 X296.235 Y22.353
N5780 X295.341 Y22.01
N5785 X294.419 Y21.753
N5790 X293.48 Y21.561
N5795 X292.533 Y21.418
N5800 X291.581 Y21.313
N5805 X290.627 Y21.235
N5810 X289.671 Y21.179
N5815 X288.714 Y21.137
N5820 X287.757 Y21.106
N5825 X286.799 Y21.084
N5830 X285.842 Y21.068
N5835 X284.884 Y21.056
N5840 X283.927 Y21.047
N5845 X282.969 Y21.041
N5850 X282.011 Y21.036
N5855 X280.096 Y21.03
N5860 X277.223 Y21.026
N5865 X271.477 Y21.024
N5870 X234.126 Y21.023
N5875 X183.369
N5880 X132.611
N5885 X81.853
N5890 X31.095
N5895 X28.222
N5900 X27.273 Y21.158
N5905 X26.417 Y21.587
N5910 X25.707 Y22.229
N5915 X25.142 Y23.002
N5920 X24.704 Y23.854
N5925 X24.372 Y24.752
N5930 X24.122 Y25.677
N5935 X23.935 Y26.616
N5940 X23.797 Y27.564
N5945 X23.695 Y28.516
N5950 X23.62 Y29.471
N5955 X23.565 Y30.427
N5960 X23.524 Y31.384
N5965 X23.495 Y32.341
N5970 X23.473 Y33.298
N5975 X23.457 Y34.256
N5980 X23.446 Y35.214
N5985 X23.437 Y36.171
N5990 X23.431 Y37.129
N5995 X23.427 Y38.087
N6000 X23.421 Y40.002
N6005 X23.417 Y42.875
N6010 X23.415 Y48.621
N6015 Y66.817
N6020 X23.417 Y117.575
N6025 X23.419 Y168.333
N6030 X23.42 Y219.091
N6035 X23.422 Y269.849
N6040 X23.423 Y290.919
N6045 X23.424 Y291.876
N6050 X23.597 Y292.818
N6055 X24.055 Y293.659
N6060 X24.715 Y294.353
N6065 X25.5 Y294.902
N6070 X26.358 Y295.327
N6075 X27.26 Y295.65
N6080 X28.186 Y295.892
N6085 X29.127 Y296.072
N6090 X30.075 Y296.206
N6095 X31.028 Y296.305
N6100 X31.983 Y296.378
N6105 X32.939 Y296.431
N6110 X33.896 Y296.47
N6115 X34.853 Y296.499
N6120 X35.811 Y296.52
N6125 X36.768 Y296.535
N6130 X37.726 Y296.546
N6135 X38.683 Y296.554
N6140 X39.641 Y296.56
N6145 X40.599 Y296.565
N6150 X42.514 Y296.57
N6155 X45.387 Y296.574
N6160 X50.176 Y296.576
N6165 X100.934 Y296.577
N6170 X151.692
N6175 X202.449
N6180 X253.207
N6185 X291.515
N6190 X292.471 Y296.512
N6195 X293.358 Y296.151
N6200 X294.108 Y295.556
N6205 X294.711 Y294.811
N6210 X295.18 Y293.976
N6215 X295.538 Y293.088
N6220 X295.809 Y292.17
N6225 X296.01 Y291.233
N6230 X296.16 Y290.288
N6235 X296.271 Y289.336
N6240 X296.353 Y288.382
N6245 X296.413 Y287.426
N6250 X296.457 Y286.47
N6255 X296.489 Y285.512
N6260 X296.513 Y284.555
N6265 X296.53 Y283.597
N6270 X296.542 Y282.64
N6275 X296.552 Y281.682
N6280 X296.558 Y280.725
N6285 X296.563 Y279.767
N6290 X296.57 Y277.851
N6295 X296.574 Y274.978
N6300 X296.576 Y270.19
N6305 X296.577 Y235.713
N6310 Y184.955
N6315 Y134.197
N6320 Y83.439
N6325 Y32.681
N6330 Y28.85
N6335 X296.57 Y27.893
N6340 X296.32 Y26.968
N6345 X295.804 Y26.161
N6350 X295.108 Y25.503
N6355 X294.303 Y24.985
N6360 X293.432 Y24.587
N6365 X292.523 Y24.286
N6370 X291.592 Y24.06
N6375 X290.649 Y23.892
N6380 X289.7 Y23.767
N6385 X288.746 Y23.675
N6390 X287.791 Y23.608
N6395 X286.835 Y23.559
N6400 X285.878 Y23.522
N6405 X284.92 Y23.496
N6410 X283.963 Y23.476
N6415 X283.005 Y23.462
N6420 X282.048 Y23.452
N6425 X281.09 Y23.444
N6430 X280.132 Y23.438
N6435 X279.174 Y23.434
N6440 X277.259 Y23.429
N6445 X274.386 Y23.426
N6450 X268.64 Y23.424
N6455 X252.359 Y23.423
N6460 X201.601
N6465 X150.843
N6470 X100.085
N6475 X49.327
N6480 X31.131
N6485 X30.173 Y23.434
N6490 X29.259 Y23.72
N6495 X28.47 Y24.262
N6500 X27.829 Y24.974
N6505 X27.326 Y25.789
N6510 X26.94 Y26.665
N6515 X26.648 Y27.577
N6520 X26.429 Y28.51
N6525 X26.267 Y29.453
N6530 X26.147 Y30.403
N6535 X26.058 Y31.357
N6540 X25.993 Y32.313
N6545 X25.945 Y33.269
N6550 X25.91 Y34.226
N6555 X25.884 Y35.183
N6560 X25.866 Y36.141
N6565 X25.852 Y37.099
N6570 X25.842 Y38.056
N6575 X25.834 Y39.014
N6580 X25.829 Y39.972
N6585 X25.825 Y40.929
N6590 X25.82 Y42.845
N6595 X25.817 Y45.718
N6600 X25.815 Y51.464
N6605 Y53.379
N6610 X25.817 Y104.137
N6615 X25.818 Y154.895
N6620 X25.82 Y205.653
N6625 X25.821 Y256.411
N6630 X25.822 Y288.973
N6635 X25.853 Y289.93
N6640 X26.174 Y290.832
N6645 X26.741 Y291.604
N6650 X27.468 Y292.228
N6655 X28.292 Y292.715
N6660 X29.174 Y293.089
N6665 X30.089 Y293.371
N6670 X31.023 Y293.583
N6675 X31.968 Y293.74
N6680 X32.918 Y293.856
N6685 X33.872 Y293.941
N6690 X34.828 Y294.004
N6695 X35.784 Y294.05
N6700 X36.741 Y294.084
N6705 X37.699 Y294.109
N6710 X38.656 Y294.127
N6715 X39.614 Y294.141
N6720 X40.571 Y294.15
N6725 X41.529 Y294.157
N6730 X42.487 Y294.163
N6735 X43.445 Y294.166
N6740 X45.36 Y294.171
N6745 X48.233 Y294.174
N6750 X54.937 Y294.176
N6755 X92.287 Y294.177
N6760 X143.045
N6765 X193.803
N6770 X244.561
N6775 X288.615
N6780 X289.573 Y294.173
N6785 X290.508 Y293.967
N6790 X291.334 Y293.483
N6795 X292.013 Y292.808
N6800 X292.55 Y292.015
N6805 X292.963 Y291.151
N6810 X293.277 Y290.246
N6815 X293.512 Y289.318
N6820 X293.688 Y288.376
N6825 X293.817 Y287.427
N6830 X293.913 Y286.474
N6835 X293.983 Y285.519
N6840 X294.035 Y284.563
N6845 X294.073 Y283.606
N6850 X294.101 Y282.649
N6855 X294.121 Y281.691
N6860 X294.136 Y280.734
N6865 X294.147 Y279.776
N6870 X294.155 Y278.818
N6875 X294.161 Y277.861
N6880 X294.165 Y276.903
N6885 X294.17 Y274.988
N6890 X294.174 Y272.114
N6895 X294.176 Y266.368
N6900 X294.177 Y239.553
N6905 Y188.795
N6910 Y138.037
N6915 Y87.279
N6920 Y36.521
N6925 X294.176 Y30.775
N6930 X294.081 Y29.822
N6935 X293.69 Y28.948
N6940 X293.073 Y28.215
N6945 X292.316 Y27.629
N6950 X291.473 Y27.174
N6955 X290.581 Y26.827
N6960 X289.659 Y26.565
N6965 X288.722 Y26.37
N6970 X287.775 Y26.225
N6975 X286.823 Y26.119
N6980 X285.869 Y26.04
N6985 X284.913 Y25.982
N6990 X283.956 Y25.939
N6995 X282.999 Y25.908
N7000 X282.042 Y25.885
N7005 X281.084 Y25.869
N7010 X280.126 Y25.857
N7015 X279.169 Y25.848
N7020 X278.211 Y25.841
N7025 X277.253 Y25.836
N7030 X275.338 Y25.83
N7035 X272.465 Y25.826
N7040 X266.719 Y25.824
N7045 X251.396 Y25.823
N7050 X200.638
N7055 X149.88
N7060 X99.122
N7065 X48.364
N7070 X33.041 Y25.824
N7075 X32.092 Y25.956
N7080 X31.234 Y26.382
N7085 X30.521 Y27.021
N7090 X29.953 Y27.792
N7095 X29.513 Y28.642
N7100 X29.178 Y29.54
N7105 X28.927 Y30.464
N7110 X28.739 Y31.403
N7115 X28.6 Y32.35
N7120 X28.498 Y33.303
N7125 X28.422 Y34.257
N7130 X28.367 Y35.213
N7135 X28.326 Y36.17
N7140 X28.296 Y37.127
N7145 X28.274 Y38.085
N7150 X28.258 Y39.043
N7155 X28.246 Y40.
N7160 X28.238 Y40.958
N7165 X28.232 Y41.915
N7170 X28.227 Y42.873
N7175 X28.221 Y44.789
N7180 X28.217 Y47.662
N7185 X28.215 Y53.408
N7190 Y59.154
N7195 X28.217 Y109.912
N7200 X28.218 Y160.67
N7205 X28.22 Y211.428
N7210 X28.222 Y262.186
N7215 Y286.128
N7220 X28.224 Y287.086
N7225 X28.402 Y288.027
N7230 X28.864 Y288.866
N7235 X29.526 Y289.558
N7240 X30.311 Y290.107
N7245 X31.17 Y290.53
N7250 X32.072 Y290.852
N7255 X32.999 Y291.093
N7260 X33.939 Y291.273
N7265 X34.888 Y291.407
N7270 X35.84 Y291.505
N7275 X36.795 Y291.577
N7280 X37.751 Y291.631
N7285 X38.708 Y291.67
N7290 X39.666 Y291.698
N7295 X40.623 Y291.719
N7300 X41.581 Y291.735
N7305 X42.538 Y291.746
N7310 X43.496 Y291.754
N7315 X44.454 Y291.76
N7320 X45.411 Y291.765
N7325 X47.327 Y291.77
N7330 X50.2 Y291.774
N7335 X52.115 Y291.775
N7340 X62.65 Y291.777
N7345 X102.873
N7350 X153.631
N7355 X204.389
N7360 X255.147
N7365 X286.751 Y291.776
N7370 X287.705 Y291.7
N7375 X288.589 Y291.329
N7380 X289.333 Y290.727
N7385 X289.93 Y289.978
N7390 X290.395 Y289.14
N7395 X290.749 Y288.251
N7400 X291.016 Y287.331
N7405 X291.216 Y286.395
N7410 X291.364 Y285.448
N7415 X291.474 Y284.497
N7420 X291.554 Y283.543
N7425 X291.614 Y282.587
N7430 X291.657 Y281.63
N7435 X291.689 Y280.673
N7440 X291.713 Y279.716
N7445 X291.73 Y278.758
N7450 X291.742 Y277.8
N7455 X291.752 Y276.843
N7460 X291.758 Y275.885
N7465 X291.763 Y274.927
N7470 X291.769 Y273.012
N7475 X291.774 Y270.139
N7480 X291.776 Y265.35
N7485 X291.777 Y224.169
N7490 Y173.412
N7495 Y122.654
N7500 Y71.896
N7505 Y33.588
N7510 X291.768 Y32.63
N7515 X291.496 Y31.712
N7520 X290.964 Y30.915
N7525 X290.26 Y30.267
N7530 X289.449 Y29.757
N7535 X288.575 Y29.366
N7540 X287.664 Y29.07
N7545 X286.732 Y28.849
N7550 X285.789 Y28.684
N7555 X284.839 Y28.562
N7560 X283.885 Y28.472
N7565 X282.93 Y28.405
N7570 X281.974 Y28.357
N7575 X281.017 Y28.321
N7580 X280.059 Y28.295
N7585 X279.102 Y28.276
N7590 X278.144 Y28.262
N7595 X277.186 Y28.251
N7600 X276.229 Y28.244
N7605 X275.271 Y28.238
N7610 X274.313 Y28.234
N7615 X272.398 Y28.229
N7620 X269.525 Y28.226
N7625 X263.779 Y28.224
N7630 X231.217 Y28.223
N7635 X180.459
N7640 X129.701
N7645 X78.943
N7650 X35.847
N7655 X34.89 Y28.247
N7660 X33.984 Y28.559
N7665 X33.208 Y29.12
N7670 X32.58 Y29.843
N7675 X32.088 Y30.665
N7680 X31.711 Y31.546
N7685 X31.427 Y32.46
N7690 X31.214 Y33.394
N7695 X31.056 Y34.338
N7700 X30.939 Y35.289
N7705 X30.853 Y36.243
N7710 X30.789 Y37.198
N7715 X30.742 Y38.155
N7720 X30.708 Y39.112
N7725 X30.683 Y40.069
N7730 X30.665 Y41.027
N7735 X30.651 Y41.984
N7740 X30.641 Y42.942
N7745 X30.634 Y43.9
N7750 X30.629 Y44.857
N7755 X30.625 Y45.815
N7760 X30.62 Y47.73
N7765 X30.617 Y50.604
N7770 X30.615 Y57.307
N7775 X30.616 Y84.123
N7780 X30.618 Y134.881
N7785 X30.619 Y185.639
N7790 X30.621 Y236.397
N7795 X30.622 Y284.281
N7800 X30.681 Y285.237
N7805 X31.033 Y286.128
N7810 X31.622 Y286.883
N7815 X32.363 Y287.49
N7820 X33.195 Y287.964
N7825 X34.082 Y288.326
N7830 X35. Y288.599
N7835 X35.935 Y288.803
N7840 X36.881 Y288.954
N7845 X37.832 Y289.066
N7850 X38.786 Y289.149
N7855 X39.742 Y289.21
N7860 X40.699 Y289.254
N7865 X41.656 Y289.287
N7870 X42.613 Y289.311
N7875 X43.571 Y289.329
N7880 X44.528 Y289.342
N7885 X45.486 Y289.351
N7890 X46.444 Y289.358
N7895 X47.401 Y289.363
N7900 X49.317 Y289.369
N7905 X52.19 Y289.374
N7910 X56.978 Y289.376
N7915 X81.878 Y289.377
N7920 X132.636
N7925 X183.394
N7930 X234.152
N7935 X283.952
N7940 X284.91 Y289.37
N7945 X285.834 Y289.117
N7950 X286.639 Y288.6
N7955 X287.297 Y287.903
N7960 X287.815 Y287.098
N7965 X288.213 Y286.227
N7970 X288.514 Y285.317
N7975 X288.739 Y284.387
N7980 X288.907 Y283.444
N7985 X289.031 Y282.494
N7990 X289.123 Y281.541
N7995 X289.191 Y280.586
N8000 X289.241 Y279.629
N8005 X289.277 Y278.672
N8010 X289.304 Y277.715
N8015 X289.323 Y276.757
N8020 X289.338 Y275.8
N8025 X289.348 Y274.842
N8030 X289.356 Y273.884
N8035 X289.361 Y272.927
N8040 X289.365 Y271.969
N8045 X289.371 Y270.054
N8050 X289.374 Y267.181
N8055 X289.376 Y261.434
N8060 X289.377 Y240.365
N8065 Y189.607
N8070 Y138.849
N8075 Y88.091
N8080 Y37.333
N8085 X289.376 Y35.418
N8090 X289.231 Y34.471
N8095 X288.796 Y33.618
N8100 X288.152 Y32.91
N8105 X287.377 Y32.346
N8110 X286.525 Y31.91
N8115 X285.626 Y31.579
N8120 X284.701 Y31.33
N8125 X283.762 Y31.144
N8130 X282.814 Y31.006
N8135 X281.862 Y30.905
N8140 X280.907 Y30.83
N8145 X279.951 Y30.775
N8150 X278.994 Y30.734
N8155 X278.037 Y30.704
N8160 X277.08 Y30.683
N8165 X276.122 Y30.667
N8170 X275.164 Y30.655
N8175 X274.207 Y30.647
N8180 X273.249 Y30.64
N8185 X272.291 Y30.636
N8190 X270.376 Y30.63
N8195 X267.503 Y30.626
N8200 X261.757 Y30.624
N8205 X242.603 Y30.623
N8210 X191.845
N8215 X141.087
N8220 X90.329
N8225 X39.571
N8230 X38.613
N8235 X37.656 Y30.625
N8240 X36.718 Y30.82
N8245 X35.886 Y31.295
N8250 X35.201 Y31.964
N8255 X34.659 Y32.754
N8260 X34.242 Y33.615
N8265 X33.925 Y34.519
N8270 X33.688 Y35.447
N8275 X33.51 Y36.388
N8280 X33.379 Y37.337
N8285 X33.282 Y38.29
N8290 X33.211 Y39.245
N8295 X33.159 Y40.201
N8300 X33.12 Y41.158
N8305 X33.092 Y42.115
N8310 X33.071 Y43.073
N8315 X33.056 Y44.03
N8320 X33.045 Y44.988
N8325 X33.037 Y45.945
N8330 X33.031 Y46.903
N8335 X33.027 Y47.861
N8340 X33.021 Y49.776
N8345 X33.017 Y52.649
N8350 X33.016 Y58.395
N8355 Y77.549
N8360 X33.017 Y128.307
N8365 X33.019 Y179.065
N8370 X33.021 Y229.823
N8375 X33.022 Y280.581
N8380 Y281.539
N8385 X33.028 Y282.496
N8390 X33.276 Y283.422
N8395 X33.791 Y284.229
N8400 X34.485 Y284.889
N8405 X35.289 Y285.408
N8410 X36.16 Y285.808
N8415 X37.069 Y286.11
N8420 X37.999 Y286.336
N8425 X38.942 Y286.505
N8430 X39.892 Y286.63
N8435 X40.845 Y286.722
N8440 X41.8 Y286.79
N8445 X42.757 Y286.84
N8450 X43.714 Y286.876
N8455 X44.671 Y286.903
N8460 X45.628 Y286.923
N8465 X46.586 Y286.937
N8470 X47.544 Y286.948
N8475 X48.501 Y286.956
N8480 X49.459 Y286.961
N8485 X50.417 Y286.965
N8490 X52.332 Y286.971
N8495 X55.205 Y286.974
N8500 X60.951 Y286.976
N8505 X80.105 Y286.977
N8510 X130.863
N8515 X181.621
N8520 X232.379
N8525 X282.179 Y286.976
N8530 X283.126 Y286.831
N8535 X283.979 Y286.396
N8540 X284.688 Y285.752
N8545 X285.252 Y284.978
N8550 X285.688 Y284.126
N8555 X286.02 Y283.227
N8560 X286.269 Y282.302
N8565 X286.455 Y281.363
N8570 X286.593 Y280.415
N8575 X286.695 Y279.463
N8580 X286.77 Y278.508
N8585 X286.825 Y277.552
N8590 X286.866 Y276.595
N8595 X286.895 Y275.638
N8600 X286.917 Y274.681
N8605 X286.933 Y273.723
N8610 X286.945 Y272.765
N8615 X286.953 Y271.808
N8620 X286.96 Y270.85
N8625 X286.964 Y269.892
N8630 X286.97 Y267.977
N8635 X286.974 Y265.104
N8640 X286.976 Y259.358
N8645 X286.977 Y237.331
N8650 Y186.573
N8655 Y135.815
N8660 Y85.057
N8665 Y38.13
N8670 X286.921 Y37.174
N8675 X286.573 Y36.281
N8680 X285.986 Y35.525
N8685 X285.247 Y34.916
N8690 X284.415 Y34.441
N8695 X283.529 Y34.078
N8700 X282.611 Y33.805
N8705 X281.675 Y33.6
N8710 X280.73 Y33.448
N8715 X279.779 Y33.335
N8720 X278.825 Y33.252
N8725 X277.869 Y33.191
N8730 X276.912 Y33.146
N8735 X275.955 Y33.114
N8740 X274.998 Y33.089
N8745 X274.04 Y33.072
N8750 X273.083 Y33.059
N8755 X272.125 Y33.049
N8760 X271.167 Y33.042
N8765 X270.21 Y33.037
N8770 X268.294 Y33.031
N8775 X265.421 Y33.026
N8780 X260.633 Y33.024
N8785 X234.775 Y33.023
N8790 X184.017
N8795 X133.259
N8800 X82.501
N8805 X40.362 Y33.024
N8810 X39.41 Y33.121
N8815 X38.537 Y33.515
N8820 X37.805 Y34.132
N8825 X37.219 Y34.89
N8830 X36.764 Y35.733
N8835 X36.418 Y36.626
N8840 X36.157 Y37.547
N8845 X35.962 Y38.485
N8850 X35.818 Y39.432
N8855 X35.711 Y40.383
N8860 X35.632 Y41.338
N8865 X35.574 Y42.294
N8870 X35.532 Y43.25
N8875 X35.5 Y44.208
N8880 X35.477 Y45.165
N8885 X35.461 Y46.123
N8890 X35.448 Y47.08
N8895 X35.439 Y48.038
N8900 X35.433 Y48.996
N8905 X35.428 Y49.953
N8910 X35.422 Y51.869
N8915 X35.418 Y54.742
N8920 X35.416 Y59.53
N8925 Y90.177
N8930 X35.418 Y140.934
N8935 X35.419 Y191.692
N8940 X35.421 Y242.45
N8945 X35.423 Y279.8
N8950 X35.575 Y280.746
N8955 X36.016 Y281.596
N8960 X36.663 Y282.302
N8965 X37.439 Y282.863
N8970 X38.293 Y283.296
N8975 X39.193 Y283.626
N8980 X40.118 Y283.873
N8985 X41.057 Y284.058
N8990 X42.005 Y284.195
N8995 X42.958 Y284.296
N9000 X43.912 Y284.371
N9005 X44.868 Y284.426
N9010 X45.825 Y284.466
N9015 X46.783 Y284.496
N9020 X47.74 Y284.517
N9025 X48.698 Y284.533
N9030 X49.655 Y284.545
N9035 X50.613 Y284.553
N9040 X51.571 Y284.56
N9045 X52.528 Y284.564
N9050 X54.444 Y284.57
N9055 X57.317 Y284.574
N9060 X63.063 Y284.576
N9065 X97.54 Y284.577
N9070 X148.298
N9075 X199.056
N9080 X249.814
N9085 X279.502
N9090 X280.458 Y284.513
N9095 X281.346 Y284.154
N9100 X282.098 Y283.561
N9105 X282.702 Y282.818
N9110 X283.173 Y281.984
N9115 X283.532 Y281.096
N9120 X283.803 Y280.177
N9125 X284.005 Y279.241
N9130 X284.156 Y278.296
N9135 X284.267 Y277.344
N9140 X284.35 Y276.39
N9145 X284.41 Y275.434
N9150 X284.455 Y274.478
N9155 X284.487 Y273.521
N9160 X284.511 Y272.563
N9165 X284.529 Y271.606
N9170 X284.542 Y270.648
N9175 X284.551 Y269.69
N9180 X284.558 Y268.733
N9185 X284.563 Y267.775
N9190 X284.569 Y265.86
N9195 X284.574 Y262.987
N9200 X284.576 Y258.198
N9205 X284.577 Y215.102
N9210 Y164.344
N9215 Y113.586
N9220 Y62.828
N9225 Y40.801
N9230 X284.57 Y39.843
N9235 X284.303 Y38.924
N9240 X283.774 Y38.126
N9245 X283.071 Y37.475
N9250 X282.261 Y36.964
N9255 X281.387 Y36.572
N9260 X280.477 Y36.275
N9265 X279.545 Y36.053
N9270 X278.602 Y35.887
N9275 X277.652 Y35.765
N9280 X276.699 Y35.674
N9285 X275.743 Y35.607
N9290 X274.787 Y35.558
N9295 X273.83 Y35.522
N9300 X272.872 Y35.496
N9305 X271.915 Y35.476
N9310 X270.957 Y35.462
N9315 X270. Y35.452
N9320 X269.042 Y35.444
N9325 X268.084 Y35.439
N9330 X267.127 Y35.435
N9335 X265.211 Y35.429
N9340 X262.338 Y35.426
N9345 X258.507 Y35.424
N9350 X212.538 Y35.423
N9355 X207.749
N9360 X156.992
N9365 X106.234
N9370 X55.476
N9375 X43.026
N9380 X42.068 Y35.454
N9385 X41.165 Y35.771
N9390 X40.392 Y36.337
N9395 X39.767 Y37.062
N9400 X39.279 Y37.886
N9405 X38.905 Y38.768
N9410 X38.623 Y39.683
N9415 X38.412 Y40.617
N9420 X38.255 Y41.562
N9425 X38.138 Y42.513
N9430 X38.052 Y43.466
N9435 X37.989 Y44.422
N9440 X37.943 Y45.379
N9445 X37.908 Y46.336
N9450 X37.883 Y47.293
N9455 X37.865 Y48.251
N9460 X37.852 Y49.208
N9465 X37.842 Y50.166
N9470 X37.835 Y51.123
N9475 X37.829 Y52.081
N9480 X37.826 Y53.039
N9485 X37.821 Y54.954
N9490 X37.817 Y57.827
N9495 X37.816 Y63.574
N9500 Y71.235
N9505 X37.817 Y121.993
N9510 X37.819 Y172.751
N9515 X37.82 Y223.509
N9520 X37.822 Y274.267
N9525 Y277.14
N9530 X37.895 Y278.095
N9535 X38.265 Y278.978
N9540 X38.866 Y279.724
N9545 X39.613 Y280.323
N9550 X40.45 Y280.789
N9555 X41.34 Y281.144
N9560 X42.259 Y281.412
N9565 X43.196 Y281.612
N9570 X44.142 Y281.761
N9575 X45.093 Y281.871
N9580 X46.047 Y281.952
N9585 X47.003 Y282.012
N9590 X47.96 Y282.056
N9595 X48.917 Y282.088
N9600 X49.874 Y282.112
N9605 X50.832 Y282.129
N9610 X51.789 Y282.142
N9615 X52.747 Y282.151
N9620 X53.705 Y282.158
N9625 X54.663 Y282.163
N9630 X56.578 Y282.169
N9635 X59.451 Y282.174
N9640 X64.239 Y282.176
N9645 X83.393 Y282.177
N9650 X134.151
N9655 X184.909
N9660 X235.667
N9665 X276.848
N9670 X277.806 Y282.168
N9675 X278.721 Y281.885
N9680 X279.511 Y281.344
N9685 X280.154 Y280.634
N9690 X280.658 Y279.82
N9695 X281.045 Y278.944
N9700 X281.337 Y278.032
N9705 X281.556 Y277.1
N9710 X281.719 Y276.156
N9715 X281.84 Y275.206
N9720 X281.93 Y274.253
N9725 X281.995 Y273.297
N9730 X282.044 Y272.341
N9735 X282.079 Y271.384
N9740 X282.105 Y270.426
N9745 X282.124 Y269.469
N9750 X282.138 Y268.511
N9755 X282.149 Y267.553
N9760 X282.156 Y266.596
N9765 X282.162 Y265.638
N9770 X282.166 Y264.68
N9775 X282.171 Y262.765
N9780 X282.174 Y259.892
N9785 X282.176 Y254.146
N9790 X282.177 Y224.457
N9795 Y173.699
N9800 Y122.941
N9805 Y72.183
N9810 Y43.453
N9815 X282.176 Y42.495
N9820 X281.991 Y41.555
N9825 X281.522 Y40.72
N9830 X280.858 Y40.03
N9835 X280.071 Y39.484
N9840 X279.211 Y39.063
N9845 X278.308 Y38.744
N9850 X277.38 Y38.504
N9855 X276.44 Y38.326
N9860 X275.491 Y38.193
N9865 X274.539 Y38.095
N9870 X273.584 Y38.023
N9875 X272.627 Y37.97
N9880 X271.67 Y37.93
N9885 X270.713 Y37.902
N9890 X269.756 Y37.881
N9895 X268.798 Y37.865
N9900 X267.84 Y37.854
N9905 X266.883 Y37.846
N9910 X265.925 Y37.84
N9915 X264.967 Y37.835
N9920 X263.052 Y37.83
N9925 X260.179 Y37.826
N9930 X254.433 Y37.824
N9935 X212.294 Y37.823
N9940 X161.536
N9945 X110.778
N9950 X60.02
N9955 X45.655
N9960 X44.697 Y37.827
N9965 X43.772 Y38.073
N9970 X42.964 Y38.588
N9975 X42.304 Y39.281
N9980 X41.784 Y40.086
N9985 X41.386 Y40.957
N9990 X41.083 Y41.866
N9995 X40.857 Y42.796
N10000 X40.688 Y43.739
N10005 X40.563 Y44.688
N10010 X40.471 Y45.641
N10015 X40.403 Y46.597
N10020 X40.353 Y47.553
N10025 X40.316 Y48.51
N10030 X40.289 Y49.467
N10035 X40.269 Y50.425
N10040 X40.255 Y51.383
N10045 X40.244 Y52.34
N10050 X40.236 Y53.298
N10055 X40.231 Y54.256
N10060 X40.226 Y55.213
N10065 X40.221 Y57.129
N10070 X40.218 Y60.002
N10075 X40.216 Y65.748
N10080 Y71.494
N10085 X40.217 Y122.252
N10090 X40.219 Y173.01
N10095 X40.22 Y223.768
N10100 X40.222 Y274.526
N10105 X40.243 Y275.483
N10110 X40.549 Y276.391
N10115 X41.107 Y277.169
N10120 X41.827 Y277.8
N10125 X42.648 Y278.294
N10130 X43.528 Y278.671
N10135 X44.442 Y278.957
N10140 X45.376 Y279.171
N10145 X46.32 Y279.33
N10150 X47.271 Y279.448
N10155 X48.224 Y279.535
N10160 X49.18 Y279.6
N10165 X50.136 Y279.647
N10170 X51.094 Y279.681
N10175 X52.051 Y279.707
N10180 X53.008 Y279.726
N10185 X53.966 Y279.739
N10190 X54.924 Y279.749
N10195 X55.881 Y279.757
N10200 X56.839 Y279.762
N10205 X57.797 Y279.766
N10210 X59.712 Y279.771
N10215 X62.585 Y279.774
N10220 X68.331 Y279.776
N10225 X88.443 Y279.777
N10230 X139.201
N10235 X189.959
N10240 X240.717
N10245 X274.236
N10250 X275.194 Y279.776
N10255 X276.127 Y279.562
N10260 X276.95 Y279.071
N10265 X277.626 Y278.393
N10270 X278.159 Y277.597
N10275 X278.569 Y276.732
N10280 X278.88 Y275.826
N10285 X279.114 Y274.897
N10290 X279.288 Y273.956
N10295 X279.417 Y273.007
N10300 X279.512 Y272.054
N10305 X279.583 Y271.099
N10310 X279.634 Y270.142
N10315 X279.672 Y269.185
N10320 X279.7 Y268.228
N10325 X279.721 Y267.271
N10330 X279.736 Y266.313
N10335 X279.747 Y265.355
N10340 X279.755 Y264.398
N10345 X279.761 Y263.44
N10350 X279.765 Y262.482
N10355 X279.77 Y260.567
N10360 X279.774 Y257.694
N10365 X279.776 Y251.948
N10370 X279.777 Y214.598
N10375 Y163.84
N10380 Y113.082
N10385 Y62.324
N10390 X279.776 Y45.085
N10395 X279.651 Y44.136
N10400 X279.231 Y43.275
N10405 X278.599 Y42.556
N10410 X277.832 Y41.982
N10415 X276.983 Y41.539
N10420 X276.087 Y41.201
N10425 X275.163 Y40.947
N10430 X274.225 Y40.758
N10435 X273.277 Y40.617
N10440 X272.325 Y40.512
N10445 X271.371 Y40.436
N10450 X270.415 Y40.379
N10455 X269.458 Y40.338
N10460 X268.501 Y40.307
N10465 X267.543 Y40.285
N10470 X266.586 Y40.268
N10475 X265.628 Y40.256
N10480 X264.67 Y40.247
N10485 X263.713 Y40.241
N10490 X262.755 Y40.236
N10495 X260.84 Y40.23
N10500 X257.967 Y40.226
N10505 X252.22 Y40.224
N10510 X248.39
N10515 X197.632 Y40.223
N10520 X146.874
N10525 X96.116
N10530 X47.273 Y40.224
N10535 X46.335 Y40.413
N10540 X45.501 Y40.885
N10545 X44.813 Y41.552
N10550 X44.27 Y42.34
N10555 X43.851 Y43.201
N10560 X43.533 Y44.104
N10565 X43.294 Y45.032
N10570 X43.116 Y45.973
N10575 X42.983 Y46.921
N10580 X42.886 Y47.874
N10585 X42.814 Y48.829
N10590 X42.761 Y49.785
N10595 X42.722 Y50.742
N10600 X42.693 Y51.7
N10605 X42.672 Y52.657
N10610 X42.657 Y53.615
N10615 X42.646 Y54.572
N10620 X42.638 Y55.53
N10625 X42.632 Y56.488
N10630 X42.627 Y57.445
N10635 X42.622 Y59.361
N10640 X42.618 Y62.234
N10645 X42.616 Y67.98
N10650 Y90.965
N10655 X42.618 Y141.723
N10660 X42.619 Y192.48
N10665 X42.621 Y243.238
N10670 X42.622 Y271.969
N10675 X42.625 Y272.927
N10680 X42.881 Y273.85
N10685 X43.404 Y274.652
N10690 X44.102 Y275.308
N10695 X44.91 Y275.822
N10700 X45.782 Y276.217
N10705 X46.692 Y276.516
N10710 X47.623 Y276.74
N10715 X48.566 Y276.907
N10720 X49.516 Y277.031
N10725 X50.469 Y277.123
N10730 X51.425 Y277.19
N10735 X52.381 Y277.24
N10740 X53.338 Y277.276
N10745 X54.295 Y277.303
N10750 X55.253 Y277.323
N10755 X56.21 Y277.337
N10760 X57.168 Y277.348
N10765 X58.126 Y277.355
N10770 X59.083 Y277.361
N10775 X60.041 Y277.365
N10780 X61.956 Y277.371
N10785 X64.83 Y277.374
N10790 X70.576 Y277.376
N10795 X112.714 Y277.377
N10800 X163.472
N10805 X214.23
N10810 X264.988
N10815 X272.65 Y277.376
N10820 X273.593 Y277.208
N10825 X274.435 Y276.753
N10830 X275.134 Y276.098
N10835 X275.687 Y275.317
N10840 X276.114 Y274.459
N10845 X276.439 Y273.558
N10850 X276.683 Y272.632
N10855 X276.865 Y271.692
N10860 X277. Y270.744
N10865 X277.1 Y269.791
N10870 X277.173 Y268.836
N10875 X277.227 Y267.88
N10880 X277.267 Y266.923
N10885 X277.296 Y265.966
N10890 X277.318 Y265.009
N10895 X277.334 Y264.051
N10900 X277.345 Y263.094
N10905 X277.354 Y262.136
N10910 X277.36 Y261.178
N10915 X277.364 Y260.221
N10920 X277.37 Y258.305
N10925 X277.374 Y255.432
N10930 X277.376 Y249.686
N10935 X277.377 Y236.278
N10940 Y185.52
N10945 Y134.762
N10950 Y84.004
N10955 Y47.612
N10960 X277.289 Y46.658
N10965 X276.904 Y45.781
N10970 X276.295 Y45.043
N10975 X275.541 Y44.451
N10980 X274.701 Y43.992
N10985 X273.809 Y43.642
N10990 X272.889 Y43.378
N10995 X271.952 Y43.18
N11000 X271.005 Y43.034
N11005 X270.054 Y42.925
N11010 X269.099 Y42.845
N11015 X268.144 Y42.786
N11020 X267.187 Y42.743
N11025 X266.23 Y42.711
N11030 X265.272 Y42.687
N11035 X264.315 Y42.67
N11040 X263.357 Y42.658
N11045 X262.399 Y42.649
N11050 X261.442 Y42.642
N11055 X260.484 Y42.637
N11060 X258.569 Y42.631
N11065 X255.696 Y42.626
N11070 X250.907 Y42.624
N11075 X214.515 Y42.623
N11080 X163.757
N11085 X112.999
N11090 X62.241
N11095 X49.791
N11100 X48.846 Y42.777
N11105 X47.996 Y43.219
N11110 X47.29 Y43.866
N11115 X46.729 Y44.643
N11120 X46.297 Y45.497
N11125 X45.967 Y46.396
N11130 X45.72 Y47.321
N11135 X45.535 Y48.261
N11140 X45.398 Y49.209
N11145 X45.296 Y50.161
N11150 X45.222 Y51.116
N11155 X45.167 Y52.072
N11160 X45.126 Y53.029
N11165 X45.097 Y53.986
N11170 X45.075 Y54.944
N11175 X45.059 Y55.901
N11180 X45.047 Y56.859
N11185 X45.039 Y57.816
N11190 X45.032 Y58.774
N11195 X45.028 Y59.732
N11200 X45.022 Y61.647
N11205 X45.018 Y64.52
N11210 X45.016 Y70.266
N11215 Y78.886
N11220 X45.017 Y129.644
N11225 X45.019 Y180.401
N11230 X45.021 Y231.159
N11235 X45.022 Y270.425
N11240 X45.245 Y271.356
N11245 X45.744 Y272.174
N11250 X46.427 Y272.845
N11255 X47.226 Y273.374
N11260 X48.093 Y273.78
N11265 X49. Y274.088
N11270 X49.929 Y274.319
N11275 X50.871 Y274.492
N11280 X51.82 Y274.62
N11285 X52.773 Y274.714
N11290 X53.728 Y274.784
N11295 X54.685 Y274.835
N11300 X55.642 Y274.873
N11305 X56.599 Y274.901
N11310 X57.556 Y274.921
N11315 X58.514 Y274.936
N11320 X59.472 Y274.947
N11325 X60.429 Y274.955
N11330 X61.387 Y274.961
N11335 X62.345 Y274.965
N11340 X64.26 Y274.97
N11345 X67.133 Y274.974
N11350 X72.879 Y274.976
N11355 X105.441 Y274.977
N11360 X156.199
N11365 X206.957
N11370 X257.715
N11375 X270.165
N11380 X271.112 Y274.834
N11385 X271.966 Y274.401
N11390 X272.678 Y273.76
N11395 X273.243 Y272.987
N11400 X273.68 Y272.135
N11405 X274.013 Y271.237
N11410 X274.263 Y270.313
N11415 X274.45 Y269.373
N11420 X274.589 Y268.426
N11425 X274.692 Y267.474
N11430 X274.767 Y266.519
N11435 X274.823 Y265.563
N11440 X274.864 Y264.606
N11445 X274.894 Y263.649
N11450 X274.916 Y262.691
N11455 X274.932 Y261.734
N11460 X274.944 Y260.776
N11465 X274.953 Y259.819
N11470 X274.959 Y258.861
N11475 X274.964 Y257.903
N11480 X274.97 Y255.988
N11485 X274.974 Y253.115
N11490 X274.976 Y247.369
N11495 X274.977 Y238.749
N11500 Y187.991
N11505 Y137.233
N11510 Y86.475
N11515 Y50.083
N11520 X274.91 Y49.128
N11525 X274.545 Y48.242
N11530 X273.949 Y47.493
N11535 X273.204 Y46.891
N11540 X272.368 Y46.423
N11545 X271.48 Y46.065
N11550 X270.561 Y45.796
N11555 X269.625 Y45.594
N11560 X268.679 Y45.444
N11565 X267.728 Y45.333
N11570 X266.774 Y45.25
N11575 X265.818 Y45.19
N11580 X264.861 Y45.146
N11585 X263.904 Y45.113
N11590 X262.947 Y45.089
N11595 X261.989 Y45.071
N11600 X261.031 Y45.059
N11605 X260.074 Y45.049
N11610 X259.116 Y45.042
N11615 X258.159 Y45.037
N11620 X256.243 Y45.031
N11625 X253.37 Y45.026
N11630 X248.582 Y45.024
N11635 X212.189 Y45.023
N11640 X161.431
N11645 X110.673
N11650 X59.915
N11655 X52.254
N11660 X51.306 Y45.158
N11665 X50.448 Y45.584
N11670 X49.732 Y46.22
N11675 X49.163 Y46.99
N11680 X48.722 Y47.841
N11685 X48.387 Y48.738
N11690 X48.135 Y49.661
N11695 X47.946 Y50.6
N11700 X47.806 Y51.548
N11705 X47.703 Y52.5
N11710 X47.626 Y53.455
N11715 X47.57 Y54.411
N11720 X47.529 Y55.367
N11725 X47.498 Y56.325
N11730 X47.476 Y57.282
N11735 X47.46 Y58.24
N11740 X47.448 Y59.197
N11745 X47.439 Y60.155
N11750 X47.433 Y61.113
N11755 X47.428 Y62.07
N11760 X47.422 Y63.986
N11765 X47.418 Y66.859
N11770 X47.416 Y72.605
N11775 Y86.013
N11780 X47.418 Y136.771
N11785 X47.419 Y187.529
N11790 X47.421 Y238.286
N11795 X47.422 Y267.975
N11800 X47.629 Y268.91
N11805 X48.116 Y269.735
N11810 X48.791 Y270.414
N11815 X49.586 Y270.949
N11820 X50.45 Y271.361
N11825 X51.355 Y271.674
N11830 X52.284 Y271.909
N11835 X53.225 Y272.084
N11840 X54.174 Y272.214
N11845 X55.127 Y272.31
N11850 X56.082 Y272.381
N11855 X57.038 Y272.433
N11860 X57.995 Y272.471
N11865 X58.952 Y272.499
N11870 X59.91 Y272.52
N11875 X60.867 Y272.535
N11880 X61.825 Y272.546
N11885 X62.783 Y272.554
N11890 X63.74 Y272.56
N11895 X64.698 Y272.565
N11900 X66.614 Y272.57
N11905 X69.487 Y272.574
N11910 X75.233 Y272.576
N11915 X117.371 Y272.577
N11920 X168.129
N11925 X218.887
N11930 X267.73
N11935 X268.678 Y272.444
N11940 X269.537 Y272.02
N11945 X270.254 Y271.386
N11950 X270.824 Y270.616
N11955 X271.266 Y269.766
N11960 X271.602 Y268.869
N11965 X271.855 Y267.946
N11970 X272.044 Y267.007
N11975 X272.184 Y266.06
N11980 X272.288 Y265.108
N11985 X272.365 Y264.153
N11990 X272.421 Y263.197
N11995 X272.463 Y262.24
N12000 X272.493 Y261.283
N12005 X272.515 Y260.325
N12010 X272.532 Y259.368
N12015 X272.544 Y258.41
N12020 X272.553 Y257.453
N12025 X272.559 Y256.495
N12030 X272.564 Y255.537
N12035 X272.57 Y253.622
N12040 X272.574 Y250.749
N12045 X272.576 Y245.003
N12050 X272.577 Y222.018
N12055 Y171.26
N12060 Y120.502
N12065 Y69.744
N12070 Y52.506
N12075 X272.517 Y51.55
N12080 X272.158 Y50.662
N12085 X271.567 Y49.908
N12090 X270.824 Y49.304
N12095 X269.99 Y48.833
N12100 X269.103 Y48.473
N12105 X268.184 Y48.201
N12110 X267.249 Y47.998
N12115 X266.303 Y47.847
N12120 X265.352 Y47.735
N12125 X264.398 Y47.652
N12130 X263.442 Y47.591
N12135 X262.485 Y47.547
N12140 X261.528 Y47.514
N12145 X260.571 Y47.49
N12150 X259.613 Y47.472
N12155 X258.656 Y47.459
N12160 X257.698 Y47.449
N12165 X256.74 Y47.442
N12170 X255.783 Y47.437
N12175 X254.825 Y47.434
N12180 X252.909 Y47.429
N12185 X250.036 Y47.426
N12190 X243.332 Y47.424
N12195 X241.417
N12200 X190.659 Y47.423
N12205 X139.901
N12210 X89.143
N12215 X54.666
N12220 X53.718 Y47.554
N12225 X52.858 Y47.977
N12230 X52.14 Y48.611
N12235 X51.57 Y49.38
N12240 X51.128 Y50.23
N12245 X50.791 Y51.127
N12250 X50.538 Y52.05
N12255 X50.349 Y52.989
N12260 X50.208 Y53.936
N12265 X50.104 Y54.888
N12270 X50.027 Y55.843
N12275 X49.971 Y56.799
N12280 X49.929 Y57.756
N12285 X49.899 Y58.713
N12290 X49.877 Y59.67
N12295 X49.86 Y60.628
N12300 X49.848 Y61.586
N12305 X49.839 Y62.543
N12310 X49.833 Y63.501
N12315 X49.828 Y64.459
N12320 X49.822 Y66.374
N12325 X49.818 Y69.247
N12330 X49.816 Y74.036
N12335 X49.817 Y112.343
N12340 X49.819 Y163.101
N12345 X49.82 Y213.859
N12350 X49.822 Y264.617
N12355 Y265.575
N12360 X50.029 Y266.51
N12365 X50.516 Y267.335
N12370 X51.192 Y268.013
N12375 X51.986 Y268.548
N12380 X52.851 Y268.96
N12385 X53.756 Y269.273
N12390 X54.684 Y269.508
N12395 X55.626 Y269.684
N12400 X56.575 Y269.814
N12405 X57.527 Y269.91
N12410 X58.483 Y269.981
N12415 X59.439 Y270.033
N12420 X60.396 Y270.071
N12425 X61.353 Y270.099
N12430 X62.31 Y270.12
N12435 X63.268 Y270.135
N12440 X64.226 Y270.146
N12445 X65.183 Y270.154
N12450 X66.141 Y270.16
N12455 X67.099 Y270.165
N12460 X69.014 Y270.17
N12465 X71.887 Y270.174
N12470 X77.633 Y270.176
N12475 X97.745 Y270.177
N12480 X148.503
N12485 X199.261
N12490 X250.019
N12495 X265.342
N12500 X266.29 Y270.04
N12505 X267.147 Y269.613
N12510 X267.862 Y268.976
N12515 X268.43 Y268.205
N12520 X268.87 Y267.354
N12525 X269.205 Y266.457
N12530 X269.457 Y265.533
N12535 X269.646 Y264.594
N12540 X269.786 Y263.647
N12545 X269.889 Y262.695
N12550 X269.965 Y261.74
N12555 X270.022 Y260.784
N12560 X270.063 Y259.827
N12565 X270.093 Y258.87
N12570 X270.116 Y257.913
N12575 X270.132 Y256.955
N12580 X270.144 Y255.997
N12585 X270.153 Y255.04
N12590 X270.159 Y254.082
N12595 X270.164 Y253.124
N12600 X270.17 Y251.209
N12605 X270.174 Y248.336
N12610 X270.176 Y242.59
N12615 X270.177 Y236.843
N12620 Y186.086
N12625 Y135.328
N12630 Y84.57
N12635 Y54.881
N12640 X270.11 Y53.926
N12645 X269.744 Y53.041
N12650 X269.148 Y52.291
N12655 X268.403 Y51.69
N12660 X267.567 Y51.222
N12665 X266.678 Y50.865
N12670 X265.759 Y50.595
N12675 X264.823 Y50.394
N12680 X263.877 Y50.244
N12685 X262.926 Y50.133
N12690 X261.972 Y50.05
N12695 X261.016 Y49.99
N12700 X260.059 Y49.946
N12705 X259.102 Y49.913
N12710 X258.145 Y49.889
N12715 X257.187 Y49.872
N12720 X256.23 Y49.859
N12725 X255.272 Y49.849
N12730 X254.314 Y49.842
N12735 X253.357 Y49.837
N12740 X251.441 Y49.831
N12745 X248.568 Y49.826
N12750 X243.78 Y49.824
N12755 X200.683 Y49.823
N12760 X149.926
N12765 X99.168
N12770 X57.029
N12775 X56.082 Y49.966
N12780 X55.228 Y50.399
N12785 X54.516 Y51.04
N12790 X53.951 Y51.813
N12795 X53.514 Y52.665
N12800 X53.181 Y53.563
N12805 X52.93 Y54.487
N12810 X52.743 Y55.427
N12815 X52.604 Y56.374
N12820 X52.501 Y57.326
N12825 X52.425 Y58.281
N12830 X52.369 Y59.237
N12835 X52.328 Y60.194
N12840 X52.298 Y61.151
N12845 X52.276 Y62.109
N12850 X52.26 Y63.066
N12855 X52.248 Y64.024
N12860 X52.239 Y64.981
N12865 X52.233 Y65.939
N12870 X52.228 Y66.897
N12875 X52.222 Y68.812
N12880 X52.218 Y71.685
N12885 X52.216 Y77.431
N12890 X52.217 Y107.12
N12895 X52.218 Y157.878
N12900 X52.22 Y208.636
N12905 X52.222 Y259.394
N12910 Y263.225
N12915 X52.445 Y264.156
N12920 X52.944 Y264.973
N12925 X53.628 Y265.643
N12930 X54.427 Y266.171
N12935 X55.295 Y266.578
N12940 X56.201 Y266.886
N12945 X57.13 Y267.118
N12950 X58.072 Y267.291
N12955 X59.022 Y267.419
N12960 X59.975 Y267.514
N12965 X60.93 Y267.584
N12970 X61.886 Y267.635
N12975 X62.843 Y267.673
N12980 X63.8 Y267.701
N12985 X64.758 Y267.721
N12990 X65.715 Y267.736
N12995 X66.673 Y267.747
N13000 X67.631 Y267.755
N13005 X68.588 Y267.761
N13010 X69.546 Y267.765
N13015 X71.461 Y267.77
N13020 X74.334 Y267.774
N13025 X80.081 Y267.776
N13030 X97.319 Y267.777
N13035 X148.077
N13040 X198.835
N13045 X249.593
N13050 X263.001
N13055 X263.946 Y267.622
N13060 X264.795 Y267.179
N13065 X265.5 Y266.531
N13070 X266.06 Y265.754
N13075 X266.493 Y264.9
N13080 X266.822 Y264.001
N13085 X267.07 Y263.076
N13090 X267.255 Y262.136
N13095 X267.393 Y261.188
N13100 X267.494 Y260.236
N13105 X267.569 Y259.281
N13110 X267.624 Y258.325
N13115 X267.665 Y257.368
N13120 X267.695 Y256.411
N13125 X267.717 Y255.454
N13130 X267.733 Y254.496
N13135 X267.744 Y253.538
N13140 X267.753 Y252.581
N13145 X267.759 Y251.623
N13150 X267.764 Y250.665
N13155 X267.77 Y248.75
N13160 X267.774 Y245.877
N13165 X267.776 Y240.131
N13170 X267.777 Y232.469
N13175 Y181.711
N13180 Y130.953
N13185 Y80.195
N13190 Y57.211
N13195 X267.689 Y56.257
N13200 X267.303 Y55.38
N13205 X266.694 Y54.641
N13210 X265.94 Y54.051
N13215 X265.099 Y53.592
N13220 X264.207 Y53.242
N13225 X263.287 Y52.978
N13230 X262.35 Y52.781
N13235 X261.403 Y52.634
N13240 X260.452 Y52.525
N13245 X259.498 Y52.445
N13250 X258.542 Y52.386
N13255 X257.585 Y52.343
N13260 X256.628 Y52.311
N13265 X255.67 Y52.288
N13270 X254.713 Y52.27
N13275 X253.755 Y52.258
N13280 X252.798 Y52.249
N13285 X251.84 Y52.242
N13290 X250.882 Y52.237
N13295 X248.967 Y52.231
N13300 X246.094 Y52.226
N13305 X242.263 Y52.224
N13310 X218.321 Y52.223
N13315 X191.505
N13320 X140.747
N13325 X89.989
N13330 X59.343
N13335 X58.4 Y52.393
N13340 X57.558 Y52.848
N13345 X56.86 Y53.504
N13350 X56.307 Y54.286
N13355 X55.88 Y55.143
N13360 X55.556 Y56.044
N13365 X55.311 Y56.97
N13370 X55.129 Y57.911
N13375 X54.993 Y58.859
N13380 X54.893 Y59.811
N13385 X54.819 Y60.766
N13390 X54.765 Y61.722
N13395 X54.725 Y62.679
N13400 X54.696 Y63.636
N13405 X54.674 Y64.594
N13410 X54.659 Y65.551
N13415 X54.647 Y66.509
N13420 X54.639 Y67.467
N13425 X54.633 Y68.424
N13430 X54.628 Y69.382
N13435 X54.625 Y70.34
N13440 X54.621 Y72.255
N13445 X54.618 Y75.128
N13450 X54.616 Y81.832
N13455 X54.617 Y121.098
N13460 X54.619 Y171.855
N13465 X54.62 Y222.613
N13470 X54.622 Y259.964
N13475 X54.624 Y260.921
N13480 X54.881 Y261.844
N13485 X55.402 Y262.647
N13490 X56.101 Y263.302
N13495 X56.909 Y263.817
N13500 X57.781 Y264.213
N13505 X58.69 Y264.512
N13510 X59.621 Y264.738
N13515 X60.564 Y264.905
N13520 X61.514 Y265.03
N13525 X62.467 Y265.122
N13530 X63.422 Y265.189
N13535 X64.379 Y265.239
N13540 X65.336 Y265.276
N13545 X66.293 Y265.303
N13550 X67.251 Y265.323
N13555 X68.208 Y265.337
N13560 X69.166 Y265.348
N13565 X70.123 Y265.355
N13570 X71.081 Y265.361
N13575 X72.039 Y265.365
N13580 X73.954 Y265.37
N13585 X76.827 Y265.374
N13590 X82.573 Y265.376
N13595 X116.093 Y265.377
N13600 X166.851
N13605 X217.609
N13610 X260.705
N13615 X261.644 Y265.19
N13620 X262.479 Y264.72
N13625 X263.168 Y264.055
N13630 X263.712 Y263.267
N13635 X264.133 Y262.406
N13640 X264.452 Y261.504
N13645 X264.693 Y260.577
N13650 X264.872 Y259.636
N13655 X265.005 Y258.687
N13660 X265.103 Y257.735
N13665 X265.176 Y256.78
N13670 X265.229 Y255.824
N13675 X265.269 Y254.867
N13680 X265.297 Y253.91
N13685 X265.319 Y252.952
N13690 X265.334 Y251.995
N13695 X265.345 Y251.037
N13700 X265.354 Y250.079
N13705 X265.36 Y249.122
N13710 X265.364 Y248.164
N13715 X265.37 Y246.248
N13720 X265.374 Y243.375
N13725 X265.376 Y237.629
N13730 X265.377 Y208.898
N13735 Y158.14
N13740 Y107.382
N13745 Y59.498
N13750 X265.254 Y58.548
N13755 X264.837 Y57.685
N13760 X264.207 Y56.965
N13765 X263.44 Y56.391
N13770 X262.592 Y55.946
N13775 X261.696 Y55.607
N13780 X260.773 Y55.352
N13785 X259.835 Y55.161
N13790 X258.887 Y55.019
N13795 X257.935 Y54.915
N13800 X256.981 Y54.837
N13805 X256.025 Y54.78
N13810 X255.068 Y54.738
N13815 X254.111 Y54.708
N13820 X253.153 Y54.685
N13825 X252.196 Y54.669
N13830 X251.238 Y54.657
N13835 X250.281 Y54.648
N13840 X249.323 Y54.641
N13845 X248.365 Y54.636
N13850 X246.45 Y54.63
N13855 X243.577 Y54.626
N13860 X238.788 Y54.624
N13865 X213.888 Y54.623
N13870 X163.13
N13875 X112.372
N13880 X61.614
N13885 X60.68 Y54.834
N13890 X59.856 Y55.321
N13895 X59.179 Y55.998
N13900 X58.644 Y56.793
N13905 X58.232 Y57.658
N13910 X57.919 Y58.563
N13915 X57.684 Y59.491
N13920 X57.509 Y60.433
N13925 X57.379 Y61.381
N13930 X57.282 Y62.334
N13935 X57.211 Y63.289
N13940 X57.159 Y64.246
N13945 X57.121 Y65.202
N13950 X57.093 Y66.16
N13955 X57.072 Y67.117
N13960 X57.057 Y68.075
N13965 X57.046 Y69.032
N13970 X57.038 Y69.99
N13975 X57.032 Y70.948
N13980 X57.028 Y71.905
N13985 X57.022 Y73.821
N13990 X57.018 Y76.694
N13995 X57.016 Y82.44
N14000 X57.017 Y103.509
N14005 X57.018 Y154.267
N14010 X57.02 Y205.025
N14015 X57.021 Y255.783
N14020 Y257.699
N14025 X57.037 Y258.656
N14030 X57.338 Y259.565
N14035 X57.888 Y260.349
N14040 X58.606 Y260.983
N14045 X59.425 Y261.479
N14050 X60.304 Y261.86
N14055 X61.217 Y262.148
N14060 X62.15 Y262.364
N14065 X63.094 Y262.525
N14070 X64.045 Y262.644
N14075 X64.998 Y262.732
N14080 X65.954 Y262.797
N14085 X66.91 Y262.845
N14090 X67.867 Y262.88
N14095 X68.825 Y262.906
N14100 X69.782 Y262.925
N14105 X70.74 Y262.939
N14110 X71.697 Y262.949
N14115 X72.655 Y262.956
N14120 X73.613 Y262.962
N14125 X74.57 Y262.966
N14130 X76.486 Y262.971
N14135 X79.359 Y262.974
N14140 X85.105 Y262.976
N14145 X103.301 Y262.977
N14150 X154.059
N14155 X204.817
N14160 X255.575
N14165 X257.49
N14170 X258.448 Y262.975
N14175 X259.377 Y262.741
N14180 X260.191 Y262.237
N14185 X260.857 Y261.549
N14190 X261.382 Y260.748
N14195 X261.786 Y259.879
N14200 X262.092 Y258.972
N14205 X262.322 Y258.042
N14210 X262.494 Y257.1
N14215 X262.621 Y256.151
N14220 X262.715 Y255.198
N14225 X262.785 Y254.243
N14230 X262.836 Y253.286
N14235 X262.873 Y252.329
N14240 X262.901 Y251.372
N14245 X262.921 Y250.415
N14250 X262.936 Y249.457
N14255 X262.947 Y248.499
N14260 X262.955 Y247.542
N14265 X262.961 Y246.584
N14270 X262.965 Y245.626
N14275 X262.97 Y243.711
N14280 X262.974 Y240.838
N14285 X262.976 Y235.092
N14290 X262.977 Y216.896
N14295 Y166.138
N14300 Y115.38
N14305 Y64.622
N14310 Y61.749
N14315 X262.808 Y60.806
N14320 X262.352 Y59.964
N14325 X261.695 Y59.267
N14330 X260.913 Y58.714
N14335 X260.055 Y58.288
N14340 X259.154 Y57.963
N14345 X258.228 Y57.719
N14350 X257.288 Y57.536
N14355 X256.34 Y57.401
N14360 X255.388 Y57.301
N14365 X254.433 Y57.227
N14370 X253.477 Y57.173
N14375 X252.52 Y57.133
N14380 X251.563 Y57.104
N14385 X250.605 Y57.082
N14390 X249.647 Y57.067
N14395 X248.69 Y57.055
N14400 X247.732 Y57.047
N14405 X246.775 Y57.04
N14410 X245.817 Y57.036
N14415 X243.901 Y57.03
N14420 X241.028 Y57.026
N14425 X235.282 Y57.024
N14430 X217.086 Y57.023
N14435 X166.328
N14440 X115.57
N14445 X64.812
N14450 X63.855 Y57.029
N14455 X62.934 Y57.293
N14460 X62.132 Y57.817
N14465 X61.48 Y58.518
N14470 X60.968 Y59.327
N14475 X60.574 Y60.2
N14480 X60.275 Y61.11
N14485 X60.051 Y62.041
N14490 X59.884 Y62.984
N14495 X59.761 Y63.934
N14500 X59.669 Y64.887
N14505 X59.602 Y65.843
N14510 X59.552 Y66.799
N14515 X59.516 Y67.756
N14520 X59.489 Y68.713
N14525 X59.469 Y69.671
N14530 X59.455 Y70.629
N14535 X59.445 Y71.586
N14540 X59.437 Y72.544
N14545 X59.431 Y73.502
N14550 X59.427 Y74.459
N14555 X59.422 Y76.375
N14560 X59.418 Y79.248
N14565 X59.416 Y84.994
N14570 X59.417 Y105.105
N14575 X59.418 Y155.863
N14580 X59.42 Y206.621
N14585 X59.421 Y255.464
N14590 X59.472 Y256.42
N14595 X59.822 Y257.312
N14600 X60.407 Y258.07
N14605 X61.146 Y258.679
N14610 X61.978 Y259.153
N14615 X62.864 Y259.517
N14620 X63.782 Y259.791
N14625 X64.717 Y259.996
N14630 X65.663 Y260.149
N14635 X66.614 Y260.262
N14640 X67.568 Y260.345
N14645 X68.523 Y260.407
N14650 X69.48 Y260.452
N14655 X70.437 Y260.485
N14660 X71.395 Y260.51
N14665 X72.352 Y260.528
N14670 X73.31 Y260.541
N14675 X74.267 Y260.55
N14680 X75.225 Y260.557
N14685 X76.183 Y260.563
N14690 X77.14 Y260.566
N14695 X79.056 Y260.571
N14700 X81.929 Y260.574
N14705 X88.633 Y260.576
N14710 X109.702 Y260.577
N14715 X160.46
N14720 X211.218
N14725 X255.272
N14730 X256.23 Y260.564
N14735 X257.141 Y260.271
N14740 X257.929 Y259.725
N14745 X258.566 Y259.011
N14750 X259.066 Y258.194
N14755 X259.45 Y257.317
N14760 X259.741 Y256.404
N14765 X259.959 Y255.472
N14770 X260.121 Y254.528
N14775 X260.241 Y253.578
N14780 X260.33 Y252.624
N14785 X260.396 Y251.669
N14790 X260.444 Y250.712
N14795 X260.479 Y249.755
N14800 X260.505 Y248.798
N14805 X260.524 Y247.84
N14810 X260.538 Y246.883
N14815 X260.549 Y245.925
N14820 X260.556 Y244.967
N14825 X260.562 Y244.01
N14830 X260.566 Y243.052
N14835 X260.571 Y241.137
N14840 X260.574 Y238.264
N14845 X260.576 Y232.517
N14850 X260.577 Y205.702
N14855 Y154.944
N14860 Y104.186
N14865 Y64.92
N14870 X260.575 Y63.963
N14875 X260.344 Y63.033
N14880 X259.843 Y62.217
N14885 X259.156 Y61.549
N14890 X258.356 Y61.023
N14895 X257.488 Y60.618
N14900 X256.581 Y60.31
N14905 X255.652 Y60.08
N14910 X254.71 Y59.907
N14915 X253.761 Y59.78
N14920 X252.808 Y59.685
N14925 X251.853 Y59.616
N14930 X250.896 Y59.564
N14935 X249.939 Y59.527
N14940 X248.982 Y59.499
N14945 X248.024 Y59.479
N14950 X247.067 Y59.464
N14955 X246.109 Y59.453
N14960 X245.152 Y59.445
N14965 X244.194 Y59.439
N14970 X243.236 Y59.435
N14975 X241.321 Y59.43
N14980 X238.448 Y59.426
N14985 X232.702 Y59.424
N14990 X201.098 Y59.423
N14995 X150.34
N15000 X99.582
N15005 X67.02
N15010 X66.063 Y59.453
N15015 X65.161 Y59.777
N15020 X64.389 Y60.344
N15025 X63.767 Y61.071
N15030 X63.28 Y61.896
N15035 X62.907 Y62.778
N15040 X62.625 Y63.693
N15045 X62.414 Y64.627
N15050 X62.256 Y65.572
N15055 X62.14 Y66.523
N15060 X62.054 Y67.477
N15065 X61.991 Y68.432
N15070 X61.944 Y69.389
N15075 X61.91 Y70.346
N15080 X61.885 Y71.303
N15085 X61.866 Y72.261
N15090 X61.853 Y73.218
N15095 X61.843 Y74.176
N15100 X61.836 Y75.134
N15105 X61.83 Y76.091
N15110 X61.826 Y77.049
N15115 X61.822 Y78.964
N15120 X61.818 Y81.837
N15125 X61.816 Y87.584
N15130 X61.817 Y125.891
N15135 X61.819 Y176.649
N15140 X61.821 Y227.407
N15145 Y253.265
N15150 X61.931 Y254.216
N15155 X62.337 Y255.084
N15160 X62.961 Y255.81
N15165 X63.723 Y256.39
N15170 X64.569 Y256.839
N15175 X65.463 Y257.182
N15180 X66.386 Y257.44
N15185 X67.324 Y257.633
N15190 X68.271 Y257.776
N15195 X69.222 Y257.882
N15200 X70.177 Y257.96
N15205 X71.133 Y258.018
N15210 X72.09 Y258.06
N15215 X73.047 Y258.091
N15220 X74.004 Y258.114
N15225 X74.962 Y258.131
N15230 X75.919 Y258.143
N15235 X76.877 Y258.152
N15240 X77.835 Y258.159
N15245 X78.793 Y258.163
N15250 X80.708 Y258.17
N15255 X83.581 Y258.174
N15260 X84.539 Y258.175
N15265 X91.243 Y258.176
N15270 X135.297 Y258.177
N15275 X186.055
N15280 X236.812
N15285 X253.093
N15290 X254.049 Y258.116
N15295 X254.937 Y257.758
N15300 X255.69 Y257.167
N15305 X256.295 Y256.424
N15310 X256.766 Y255.59
N15315 X257.126 Y254.703
N15320 X257.398 Y253.784
N15325 X257.602 Y252.848
N15330 X257.753 Y251.903
N15335 X257.865 Y250.952
N15340 X257.948 Y249.998
N15345 X258.009 Y249.042
N15350 X258.053 Y248.085
N15355 X258.086 Y247.128
N15360 X258.11 Y246.171
N15365 X258.128 Y245.213
N15370 X258.141 Y244.255
N15375 X258.151 Y243.298
N15380 X258.158 Y242.34
N15385 X258.163 Y241.382
N15390 X258.169 Y239.467
N15395 X258.174 Y236.594
N15400 X258.176 Y231.805
N15405 Y226.059
N15410 X258.177 Y175.301
N15415 Y124.543
N15420 Y73.786
N15425 Y67.082
N15430 X258.156 Y66.124
N15435 X257.848 Y65.217
N15440 X257.292 Y64.437
N15445 X256.572 Y63.806
N15450 X255.751 Y63.312
N15455 X254.872 Y62.934
N15460 X253.958 Y62.647
N15465 X253.025 Y62.432
N15470 X252.08 Y62.272
N15475 X251.13 Y62.153
N15480 X250.176 Y62.066
N15485 X249.221 Y62.001
N15490 X248.264 Y61.954
N15495 X247.307 Y61.919
N15500 X246.35 Y61.894
N15505 X245.392 Y61.875
N15510 X244.435 Y61.861
N15515 X243.477 Y61.851
N15520 X242.519 Y61.844
N15525 X241.562 Y61.838
N15530 X240.604 Y61.834
N15535 X238.689 Y61.829
N15540 X235.816 Y61.826
N15545 X230.069 Y61.824
N15550 X216.662 Y61.823
N15555 X165.904
N15560 X115.146
N15565 X69.176
N15570 X68.223 Y61.918
N15575 X67.35 Y62.311
N15580 X66.616 Y62.926
N15585 X66.029 Y63.683
N15590 X65.574 Y64.525
N15595 X65.226 Y65.418
N15600 X64.964 Y66.339
N15605 X64.768 Y67.276
N15610 X64.622 Y68.223
N15615 X64.515 Y69.174
N15620 X64.435 Y70.129
N15625 X64.377 Y71.085
N15630 X64.334 Y72.042
N15635 X64.302 Y72.999
N15640 X64.279 Y73.956
N15645 X64.262 Y74.914
N15650 X64.25 Y75.871
N15655 X64.241 Y76.829
N15660 X64.234 Y77.787
N15665 X64.229 Y78.744
N15670 X64.223 Y80.66
N15675 X64.219 Y83.533
N15680 X64.217 Y88.321
N15685 Y115.137
N15690 X64.219 Y165.895
N15695 X64.22 Y216.653
N15700 X64.221 Y250.172
N15705 X64.222 Y251.13
N15710 X64.416 Y252.067
N15715 X64.89 Y252.9
N15720 X65.56 Y253.584
N15725 X66.35 Y254.125
N15730 X67.212 Y254.543
N15735 X68.115 Y254.86
N15740 X69.043 Y255.099
N15745 X69.984 Y255.277
N15750 X70.933 Y255.409
N15755 X71.885 Y255.506
N15760 X72.84 Y255.578
N15765 X73.797 Y255.631
N15770 X74.753 Y255.67
N15775 X75.711 Y255.698
N15780 X76.668 Y255.719
N15785 X77.626 Y255.735
N15790 X78.583 Y255.746
N15795 X79.541 Y255.754
N15800 X80.499 Y255.76
N15805 X81.456 Y255.765
N15810 X83.372 Y255.77
N15815 X86.245 Y255.774
N15820 X91.991 Y255.776
N15825 X129.341 Y255.777
N15830 X180.099
N15835 X230.857
N15840 X250.969
N15845 X251.916 Y255.636
N15850 X252.77 Y255.203
N15855 X253.48 Y254.56
N15860 X254.044 Y253.786
N15865 X254.481 Y252.934
N15870 X254.813 Y252.035
N15875 X255.064 Y251.111
N15880 X255.251 Y250.172
N15885 X255.389 Y249.224
N15890 X255.492 Y248.272
N15895 X255.568 Y247.317
N15900 X255.623 Y246.361
N15905 X255.664 Y245.404
N15910 X255.694 Y244.447
N15915 X255.716 Y243.49
N15920 X255.732 Y242.532
N15925 X255.744 Y241.575
N15930 X255.753 Y240.617
N15935 X255.759 Y239.659
N15940 X255.764 Y238.702
N15945 X255.77 Y236.786
N15950 X255.774 Y233.913
N15955 X255.776 Y228.167
N15960 Y227.209
N15965 X255.777 Y176.451
N15970 Y125.693
N15975 Y74.935
N15980 Y69.189
N15985 X255.683 Y68.236
N15990 X255.292 Y67.362
N15995 X254.678 Y66.627
N16000 X253.921 Y66.04
N16005 X253.079 Y65.584
N16010 X252.187 Y65.235
N16015 X251.266 Y64.973
N16020 X250.329 Y64.777
N16025 X249.382 Y64.631
N16030 X248.43 Y64.523
N16035 X247.476 Y64.443
N16040 X246.52 Y64.385
N16045 X245.563 Y64.342
N16050 X244.606 Y64.31
N16055 X243.649 Y64.287
N16060 X242.691 Y64.27
N16065 X241.734 Y64.257
N16070 X240.776 Y64.248
N16075 X239.818 Y64.242
N16080 X238.861 Y64.237
N16085 X236.945 Y64.231
N16090 X234.072 Y64.226
N16095 X229.284 Y64.224
N16100 X213.003 Y64.223
N16105 X162.245
N16110 X111.487
N16115 X72.221
N16120 X71.264 Y64.225
N16125 X70.326 Y64.419
N16130 X69.493 Y64.892
N16135 X68.809 Y65.562
N16140 X68.267 Y66.352
N16145 X67.849 Y67.214
N16150 X67.532 Y68.117
N16155 X67.293 Y69.045
N16160 X67.115 Y69.986
N16165 X66.983 Y70.934
N16170 X66.886 Y71.887
N16175 X66.814 Y72.842
N16180 X66.761 Y73.798
N16185 X66.722 Y74.755
N16190 X66.694 Y75.712
N16195 X66.673 Y76.67
N16200 X66.658 Y77.627
N16205 X66.647 Y78.585
N16210 X66.638 Y79.543
N16215 X66.632 Y80.5
N16220 X66.628 Y81.458
N16225 X66.622 Y83.373
N16230 X66.619 Y86.247
N16235 X66.617 Y91.993
N16240 Y123.597
N16245 X66.619 Y174.355
N16250 X66.62 Y225.113
N16255 X66.621 Y248.097
N16260 X66.639 Y249.055
N16265 X66.94 Y249.964
N16270 X67.492 Y250.747
N16275 X68.209 Y251.381
N16280 X69.028 Y251.878
N16285 X69.906 Y252.26
N16290 X70.819 Y252.548
N16295 X71.752 Y252.765
N16300 X72.696 Y252.926
N16305 X73.647 Y253.045
N16310 X74.6 Y253.133
N16315 X75.556 Y253.198
N16320 X76.512 Y253.246
N16325 X77.469 Y253.281
N16330 X78.427 Y253.306
N16335 X79.384 Y253.325
N16340 X80.342 Y253.339
N16345 X81.299 Y253.349
N16350 X82.257 Y253.356
N16355 X83.215 Y253.362
N16360 X84.172 Y253.366
N16365 X86.088 Y253.371
N16370 X88.961 Y253.374
N16375 X91.834 Y253.376
N16380 X111.946 Y253.377
N16385 X142.592
N16390 X193.35
N16395 X244.108
N16400 X247.939
N16405 X248.896 Y253.37
N16410 X249.821 Y253.12
N16415 X250.628 Y252.605
N16420 X251.287 Y251.91
N16425 X251.805 Y251.105
N16430 X252.204 Y250.234
N16435 X252.507 Y249.325
N16440 X252.734 Y248.395
N16445 X252.903 Y247.452
N16450 X253.028 Y246.503
N16455 X253.12 Y245.55
N16460 X253.189 Y244.594
N16465 X253.239 Y243.638
N16470 X253.276 Y242.681
N16475 X253.303 Y241.724
N16480 X253.322 Y240.766
N16485 X253.337 Y239.809
N16490 X253.348 Y238.851
N16495 X253.355 Y237.893
N16500 X253.361 Y236.936
N16505 X253.365 Y235.978
N16510 X253.37 Y234.063
N16515 X253.374 Y231.189
N16520 X253.376 Y225.443
N16525 X253.377 Y209.162
N16530 Y158.405
N16535 Y107.647
N16540 Y72.212
N16545 X253.375 Y71.254
N16550 X253.174 Y70.318
N16555 X252.696 Y69.488
N16560 X252.024 Y68.806
N16565 X251.232 Y68.267
N16570 X250.37 Y67.851
N16575 X249.466 Y67.535
N16580 X248.538 Y67.297
N16585 X247.597 Y67.12
N16590 X246.648 Y66.989
N16595 X245.695 Y66.892
N16600 X244.74 Y66.82
N16605 X243.784 Y66.768
N16610 X242.827 Y66.729
N16615 X241.87 Y66.701
N16620 X240.912 Y66.68
N16625 X239.955 Y66.665
N16630 X238.997 Y66.654
N16635 X238.04 Y66.646
N16640 X237.082 Y66.64
N16645 X236.124 Y66.635
N16650 X234.209 Y66.63
N16655 X231.336 Y66.626
N16660 X225.59 Y66.624
N16665 X190.155 Y66.623
N16670 X139.397
N16675 X88.639
N16680 X74.273
N16685 X73.316 Y66.645
N16690 X72.409 Y66.953
N16695 X71.629 Y67.509
N16700 X70.998 Y68.229
N16705 X70.504 Y69.049
N16710 X70.125 Y69.929
N16715 X69.838 Y70.843
N16720 X69.623 Y71.776
N16725 X69.463 Y72.72
N16730 X69.345 Y73.67
N16735 X69.257 Y74.624
N16740 X69.193 Y75.58
N16745 X69.146 Y76.536
N16750 X69.111 Y77.493
N16755 X69.086 Y78.451
N16760 X69.067 Y79.408
N16765 X69.053 Y80.366
N16770 X69.043 Y81.323
N16775 X69.036 Y82.281
N16780 X69.031 Y83.239
N16785 X69.027 Y84.196
N16790 X69.022 Y86.112
N16795 X69.018 Y88.985
N16800 X69.017 Y94.731
N16805 Y100.477
N16810 X69.018 Y151.235
N16815 X69.02 Y201.993
N16820 X69.021 Y246.047
N16825 X69.125 Y246.999
N16830 X69.525 Y247.869
N16835 X70.146 Y248.598
N16840 X70.907 Y249.18
N16845 X71.751 Y249.632
N16850 X72.645 Y249.977
N16855 X73.567 Y250.237
N16860 X74.504 Y250.431
N16865 X75.451 Y250.575
N16870 X76.403 Y250.681
N16875 X77.357 Y250.76
N16880 X78.313 Y250.818
N16885 X79.27 Y250.86
N16890 X80.227 Y250.891
N16895 X81.185 Y250.914
N16900 X82.142 Y250.931
N16905 X83.1 Y250.943
N16910 X84.058 Y250.952
N16915 X85.015 Y250.959
N16920 X85.973 Y250.963
N16925 X87.888 Y250.97
N16930 X90.761 Y250.974
N16935 X95.55 Y250.976
N16940 X124.281 Y250.977
N16945 X175.039
N16950 X225.797
N16955 X245.908
N16960 X246.864 Y250.91
N16965 X247.75 Y250.548
N16970 X248.501 Y249.953
N16975 X249.103 Y249.209
N16980 X249.573 Y248.374
N16985 X249.932 Y247.486
N16990 X250.203 Y246.568
N16995 X250.406 Y245.632
N17000 X250.556 Y244.686
N17005 X250.668 Y243.735
N17010 X250.75 Y242.78
N17015 X250.81 Y241.825
N17020 X250.855 Y240.868
N17025 X250.887 Y239.911
N17030 X250.911 Y238.953
N17035 X250.929 Y237.996
N17040 X250.942 Y237.038
N17045 X250.951 Y236.081
N17050 X250.958 Y235.123
N17055 X250.963 Y234.165
N17060 X250.969 Y232.25
N17065 X250.974 Y229.377
N17070 X250.976 Y224.588
N17075 Y222.673
N17080 X250.977 Y171.915
N17085 Y121.157
N17090 Y74.23
N17095 X250.946 Y73.273
N17100 X250.622 Y72.371
N17105 X250.055 Y71.6
N17110 X249.328 Y70.976
N17115 X248.504 Y70.489
N17120 X247.622 Y70.115
N17125 X246.707 Y69.832
N17130 X245.773 Y69.621
N17135 X244.828 Y69.463
N17140 X243.878 Y69.347
N17145 X242.924 Y69.261
N17150 X241.968 Y69.198
N17155 X241.012 Y69.151
N17160 X240.055 Y69.117
N17165 X239.097 Y69.092
N17170 X238.14 Y69.074
N17175 X237.182 Y69.06
N17180 X236.225 Y69.05
N17185 X235.267 Y69.043
N17190 X234.309 Y69.038
N17195 X233.352 Y69.034
N17200 X231.436 Y69.029
N17205 X228.563 Y69.026
N17210 X222.817 Y69.024
N17215 X198.874 Y69.023
N17220 X148.117
N17225 X97.359
N17230 X76.289
N17235 X75.339 Y69.143
N17240 X74.476 Y69.558
N17245 X73.756 Y70.189
N17250 X73.182 Y70.956
N17255 X72.737 Y71.804
N17260 X72.398 Y72.7
N17265 X72.142 Y73.623
N17270 X71.952 Y74.561
N17275 X71.81 Y75.508
N17280 X71.706 Y76.46
N17285 X71.628 Y77.415
N17290 X71.572 Y78.371
N17295 X71.53 Y79.328
N17300 X71.5 Y80.285
N17305 X71.477 Y81.242
N17310 X71.461 Y82.2
N17315 X71.449 Y83.158
N17320 X71.44 Y84.115
N17325 X71.434 Y85.073
N17330 X71.429 Y86.031
N17335 X71.423 Y87.946
N17340 X71.419 Y90.819
N17345 X71.417 Y96.565
N17350 X71.418 Y147.323
N17355 X71.42 Y198.081
N17360 X71.421 Y243.093
N17365 X71.426 Y244.05
N17370 X71.661 Y244.979
N17375 X72.165 Y245.793
N17380 X72.853 Y246.459
N17385 X73.654 Y246.984
N17390 X74.523 Y247.389
N17395 X75.43 Y247.695
N17400 X76.359 Y247.925
N17405 X77.302 Y248.097
N17410 X78.251 Y248.224
N17415 X79.204 Y248.318
N17420 X80.159 Y248.387
N17425 X81.116 Y248.437
N17430 X82.073 Y248.475
N17435 X83.03 Y248.502
N17440 X83.987 Y248.522
N17445 X84.945 Y248.537
N17450 X85.903 Y248.547
N17455 X86.86 Y248.555
N17460 X87.818 Y248.561
N17465 X88.776 Y248.565
N17470 X90.691 Y248.57
N17475 X93.564 Y248.574
N17480 X99.31 Y248.576
N17485 X125.168 Y248.577
N17490 X175.926
N17495 X226.684
N17500 X242.965
N17505 X243.922 Y248.574
N17510 X244.861 Y248.382
N17515 X245.694 Y247.909
N17520 X246.38 Y247.241
N17525 X246.922 Y246.452
N17530 X247.341 Y245.591
N17535 X247.66 Y244.688
N17540 X247.899 Y243.76
N17545 X248.077 Y242.819
N17550 X248.209 Y241.871
N17555 X248.307 Y240.918
N17560 X248.379 Y239.963
N17565 X248.432 Y239.007
N17570 X248.47 Y238.05
N17575 X248.499 Y237.093
N17580 X248.52 Y236.135
N17585 X248.535 Y235.178
N17590 X248.546 Y234.22
N17595 X248.554 Y233.262
N17600 X248.56 Y232.305
N17605 X248.565 Y231.347
N17610 X248.57 Y229.431
N17615 X248.574 Y226.558
N17620 X248.576 Y220.812
N17625 Y216.981
N17630 X248.577 Y166.224
N17635 Y115.466
N17640 Y77.158
N17645 X248.576 Y76.2
N17650 X248.425 Y75.254
N17655 X247.984 Y74.404
N17660 X247.336 Y73.699
N17665 X246.559 Y73.139
N17670 X245.705 Y72.706
N17675 X244.806 Y72.376
N17680 X243.881 Y72.128
N17685 X242.941 Y71.943
N17690 X241.994 Y71.805
N17695 X241.041 Y71.704
N17700 X240.086 Y71.629
N17705 X239.13 Y71.574
N17710 X238.174 Y71.534
N17715 X237.216 Y71.504
N17720 X236.259 Y71.483
N17725 X235.301 Y71.467
N17730 X234.344 Y71.455
N17735 X233.386 Y71.447
N17740 X232.428 Y71.44
N17745 X231.471 Y71.436
N17750 X229.555 Y71.43
N17755 X226.682 Y71.426
N17760 X220.936 Y71.424
N17765 X188.374 Y71.423
N17770 X137.616
N17775 X86.858
N17780 X79.197
N17785 X78.239 Y71.432
N17790 X77.32 Y71.701
N17795 X76.521 Y72.229
N17800 X75.871 Y72.932
N17805 X75.36 Y73.742
N17810 X74.967 Y74.615
N17815 X74.669 Y75.526
N17820 X74.446 Y76.457
N17825 X74.28 Y77.4
N17830 X74.157 Y78.35
N17835 X74.066 Y79.303
N17840 X74. Y80.259
N17845 X73.951 Y81.215
N17850 X73.915 Y82.172
N17855 X73.888 Y83.13
N17860 X73.869 Y84.087
N17865 X73.855 Y85.045
N17870 X73.844 Y86.002
N17875 X73.837 Y86.96
N17880 X73.831 Y87.918
N17885 X73.827 Y88.875
N17890 X73.822 Y90.791
N17895 X73.819 Y93.664
N17900 X73.817 Y99.41
N17905 Y111.86
N17910 X73.818 Y162.618
N17915 X73.82 Y213.376
N17920 X73.821 Y241.149
N17925 X73.899 Y242.104
N17930 X74.271 Y242.986
N17935 X74.874 Y243.73
N17940 X75.623 Y244.327
N17945 X76.461 Y244.791
N17950 X77.35 Y245.146
N17955 X78.27 Y245.414
N17960 X79.206 Y245.614
N17965 X80.152 Y245.762
N17970 X81.104 Y245.872
N17975 X82.058 Y245.953
N17980 X83.014 Y246.013
N17985 X83.97 Y246.057
N17990 X84.928 Y246.089
N17995 X85.885 Y246.112
N18000 X86.843 Y246.13
N18005 X87.8 Y246.142
N18010 X88.758 Y246.151
N18015 X89.715 Y246.158
N18020 X90.673 Y246.163
N18025 X92.589 Y246.169
N18030 X94.504 Y246.173
N18035 X98.335 Y246.175
N18040 X111.742 Y246.177
N18045 X145.262
N18050 X196.02
N18055 X241.032
N18060 X241.988 Y246.129
N18065 X242.883 Y245.789
N18070 X243.646 Y245.21
N18075 X244.26 Y244.475
N18080 X244.74 Y243.646
N18085 X245.107 Y242.762
N18090 X245.385 Y241.845
N18095 X245.592 Y240.91
N18100 X245.746 Y239.965
N18105 X245.86 Y239.014
N18110 X245.944 Y238.06
N18115 X246.006 Y237.104
N18120 X246.052 Y236.148
N18125 X246.085 Y235.191
N18130 X246.11 Y234.233
N18135 X246.128 Y233.276
N18140 X246.141 Y232.318
N18145 X246.15 Y231.36
N18150 X246.157 Y230.403
N18155 X246.163 Y229.445
N18160 X246.166 Y228.487
N18165 X246.171 Y226.572
N18170 X246.174 Y223.699
N18175 X246.176 Y216.995
N18180 X246.177 Y192.095
N18185 Y141.337
N18190 Y90.579
N18195 Y79.087
N18200 X246.157 Y78.129
N18205 X245.851 Y77.222
N18210 X245.296 Y76.441
N18215 X244.577 Y75.809
N18220 X243.757 Y75.313
N18225 X242.878 Y74.933
N18230 X241.965 Y74.646
N18235 X241.032 Y74.431
N18240 X240.087 Y74.271
N18245 X239.137 Y74.152
N18250 X238.183 Y74.065
N18255 X237.228 Y74.
N18260 X236.271 Y73.953
N18265 X235.314 Y73.918
N18270 X234.357 Y73.893
N18275 X233.399 Y73.874
N18280 X232.442 Y73.861
N18285 X231.484 Y73.851
N18290 X230.526 Y73.843
N18295 X229.569 Y73.838
N18300 X228.611 Y73.834
N18305 X226.696 Y73.829
N18310 X223.822 Y73.826
N18315 X218.076 Y73.824
N18320 X209.457 Y73.823
N18325 X158.699
N18330 X107.941
N18335 X81.126 Y73.824
N18340 X80.174 Y73.932
N18345 X79.306 Y74.336
N18350 X78.58 Y74.962
N18355 X78.001 Y75.724
N18360 X77.551 Y76.569
N18365 X77.208 Y77.464
N18370 X76.95 Y78.386
N18375 X76.757 Y79.324
N18380 X76.614 Y80.271
N18385 X76.509 Y81.223
N18390 X76.431 Y82.177
N18395 X76.373 Y83.133
N18400 X76.331 Y84.09
N18405 X76.301 Y85.047
N18410 X76.278 Y86.005
N18415 X76.261 Y86.962
N18420 X76.249 Y87.92
N18425 X76.24 Y88.878
N18430 X76.234 Y89.835
N18435 X76.229 Y90.793
N18440 X76.223 Y92.708
N18445 X76.219 Y95.581
N18450 X76.217 Y100.37
N18455 X76.218 Y146.339
N18460 X76.22 Y197.097
N18465 X76.221 Y238.278
N18470 X76.226 Y239.236
N18475 X76.456 Y240.166
N18480 X76.957 Y240.982
N18485 X77.642 Y241.651
N18490 X78.441 Y242.178
N18495 X79.309 Y242.584
N18500 X80.216 Y242.892
N18505 X81.145 Y243.123
N18510 X82.087 Y243.295
N18515 X83.036 Y243.423
N18520 X83.989 Y243.517
N18525 X84.945 Y243.586
N18530 X85.901 Y243.637
N18535 X86.858 Y243.674
N18540 X87.815 Y243.702
N18545 X88.773 Y243.722
N18550 X89.73 Y243.736
N18555 X90.688 Y243.747
N18560 X91.646 Y243.755
N18565 X92.603 Y243.761
N18570 X93.561 Y243.765
N18575 X95.476 Y243.77
N18580 X98.349 Y243.774
N18585 X104.096 Y243.776
N18590 X133.784 Y243.777
N18595 X184.542
N18600 X235.3
N18605 X238.173
N18610 X239.131 Y243.774
N18615 X240.068 Y243.579
N18620 X240.9 Y243.104
N18625 X241.585 Y242.435
N18630 X242.127 Y241.645
N18635 X242.546 Y240.784
N18640 X242.863 Y239.881
N18645 X243.102 Y238.953
N18650 X243.279 Y238.012
N18655 X243.411 Y237.063
N18660 X243.508 Y236.11
N18665 X243.579 Y235.155
N18670 X243.632 Y234.199
N18675 X243.671 Y233.242
N18680 X243.699 Y232.285
N18685 X243.72 Y231.328
N18690 X243.735 Y230.37
N18695 X243.746 Y229.412
N18700 X243.754 Y228.455
N18705 X243.76 Y227.497
N18710 X243.765 Y226.539
N18715 X243.77 Y224.624
N18720 X243.774 Y221.751
N18725 X243.776 Y216.005
N18730 X243.777 Y198.766
N18735 Y148.008
N18740 Y97.25
N18745 Y81.927
N18750 X243.776 Y80.969
N18755 X243.614 Y80.025
N18760 X243.166 Y79.179
N18765 X242.513 Y78.479
N18770 X241.733 Y77.922
N18775 X240.878 Y77.492
N18780 X239.977 Y77.165
N18785 X239.052 Y76.92
N18790 X238.112 Y76.737
N18795 X237.164 Y76.601
N18800 X236.211 Y76.501
N18805 X235.256 Y76.427
N18810 X234.3 Y76.373
N18815 X233.343 Y76.333
N18820 X232.386 Y76.303
N18825 X231.429 Y76.282
N18830 X230.471 Y76.266
N18835 X229.513 Y76.255
N18840 X228.556 Y76.246
N18845 X227.598 Y76.24
N18850 X226.64 Y76.236
N18855 X224.725 Y76.23
N18860 X221.852 Y76.226
N18865 X216.106 Y76.224
N18870 X211.317
N18875 X160.559 Y76.223
N18880 X109.801
N18885 X83.944
N18890 X82.986 Y76.234
N18895 X82.072 Y76.519
N18900 X81.281 Y77.06
N18905 X80.639 Y77.77
N18910 X80.134 Y78.584
N18915 X79.747 Y79.46
N18920 X79.455 Y80.372
N18925 X79.235 Y81.304
N18930 X79.072 Y82.248
N18935 X78.951 Y83.198
N18940 X78.862 Y84.152
N18945 X78.797 Y85.107
N18950 X78.749 Y86.063
N18955 X78.713 Y87.021
N18960 X78.687 Y87.978
N18965 X78.668 Y88.935
N18970 X78.654 Y89.893
N18975 X78.644 Y90.851
N18980 X78.637 Y91.808
N18985 X78.631 Y92.766
N18990 X78.627 Y93.724
N18995 X78.622 Y95.639
N19000 X78.619 Y98.512
N19005 X78.617 Y104.258
N19010 X78.618 Y149.27
N19015 X78.62 Y200.028
N19020 X78.621 Y236.42
N19025 X78.717 Y237.373
N19030 X79.109 Y238.247
N19035 X79.726 Y238.98
N19040 X80.483 Y239.567
N19045 X81.325 Y240.022
N19050 X82.217 Y240.37
N19055 X83.139 Y240.632
N19060 X84.076 Y240.827
N19065 X85.023 Y240.972
N19070 X85.974 Y241.079
N19075 X86.929 Y241.158
N19080 X87.885 Y241.217
N19085 X88.841 Y241.259
N19090 X89.799 Y241.291
N19095 X90.756 Y241.314
N19100 X91.714 Y241.331
N19105 X92.671 Y241.343
N19110 X93.629 Y241.352
N19115 X94.587 Y241.359
N19120 X95.544 Y241.363
N19125 X97.46 Y241.37
N19130 X100.333 Y241.374
N19135 X105.121 Y241.376
N19140 X141.514 Y241.377
N19145 X192.272
N19150 X236.326 Y241.376
N19155 X237.281 Y241.305
N19160 X238.166 Y240.941
N19165 X238.914 Y240.342
N19170 X239.514 Y239.596
N19175 X239.982 Y238.76
N19180 X240.34 Y237.872
N19185 X240.609 Y236.953
N19190 X240.81 Y236.016
N19195 X240.959 Y235.07
N19200 X241.07 Y234.119
N19205 X241.152 Y233.165
N19210 X241.212 Y232.209
N19215 X241.256 Y231.252
N19220 X241.288 Y230.295
N19225 X241.312 Y229.338
N19230 X241.329 Y228.38
N19235 X241.342 Y227.423
N19240 X241.351 Y226.465
N19245 X241.358 Y225.507
N19250 X241.363 Y224.55
N19255 X241.369 Y222.634
N19260 X241.374 Y219.761
N19265 X241.376 Y214.973
N19270 X241.377 Y186.242
N19275 Y135.484
N19280 Y84.726
N19285 Y83.768
N19290 X241.329 Y82.812
N19295 X240.991 Y81.916
N19300 X240.412 Y81.153
N19305 X239.677 Y80.539
N19310 X238.849 Y80.059
N19315 X237.964 Y79.692
N19320 X237.047 Y79.415
N19325 X236.112 Y79.208
N19330 X235.167 Y79.054
N19335 X234.216 Y78.94
N19340 X233.262 Y78.856
N19345 X232.306 Y78.794
N19350 X231.35 Y78.748
N19355 X230.393 Y78.715
N19360 X229.435 Y78.69
N19365 X228.478 Y78.672
N19370 X227.52 Y78.659
N19375 X226.562 Y78.65
N19380 X225.605 Y78.643
N19385 X224.647 Y78.637
N19390 X223.689 Y78.634
N19395 X221.774 Y78.629
N19400 X218.901 Y78.626
N19405 X212.197 Y78.624
N19410 X194.001 Y78.623
N19415 X143.243
N19420 X92.485
N19425 X86.739
N19430 X85.781 Y78.624
N19435 X84.836 Y78.779
N19440 X83.987 Y79.222
N19445 X83.284 Y79.872
N19450 X82.724 Y80.65
N19455 X82.292 Y81.504
N19460 X81.963 Y82.404
N19465 X81.717 Y83.329
N19470 X81.533 Y84.269
N19475 X81.396 Y85.217
N19480 X81.295 Y86.169
N19485 X81.221 Y87.124
N19490 X81.166 Y88.08
N19495 X81.126 Y89.037
N19500 X81.097 Y89.994
N19505 X81.075 Y90.952
N19510 X81.059 Y91.909
N19515 X81.048 Y92.867
N19520 X81.039 Y93.825
N19525 X81.033 Y94.782
N19530 X81.029 Y95.74
N19535 X81.023 Y97.655
N19540 X81.019 Y100.528
N19545 X81.017 Y106.275
N19550 Y120.64
N19555 X81.019 Y171.398
N19560 X81.02 Y222.156
N19565 X81.021 Y233.648
N19570 X81.031 Y234.606
N19575 X81.315 Y235.52
N19580 X81.856 Y236.311
N19585 X82.566 Y236.953
N19590 X83.38 Y237.458
N19595 X84.256 Y237.845
N19600 X85.168 Y238.138
N19605 X86.1 Y238.357
N19610 X87.044 Y238.52
N19615 X87.994 Y238.641
N19620 X88.948 Y238.73
N19625 X89.903 Y238.796
N19630 X90.86 Y238.844
N19635 X91.817 Y238.879
N19640 X92.774 Y238.905
N19645 X93.732 Y238.924
N19650 X94.689 Y238.938
N19655 X95.647 Y238.949
N19660 X96.604 Y238.956
N19665 X97.562 Y238.962
N19670 X98.52 Y238.966
N19675 X100.435 Y238.971
N19680 X103.308 Y238.974
N19685 X109.054 Y238.976
N19690 X117.674 Y238.977
N19695 X153.351
N19700 X153.581 Y238.996
N19705 X153.805 Y239.052
N19710 X154.016 Y239.145
N19715 X154.071 Y239.174
N19720 X154.683 Y239.366
N19725 X155.282 Y239.427
N19730 X155.295
N19735 X155.893 Y239.37
N19740 X155.907 Y239.366
N19745 X156.053 Y239.33
N19750 X157.003 Y239.214
N19755 X157.958 Y239.136
N19760 X158.914 Y239.084
N19765 X159.871 Y239.049
N19770 X160.829 Y239.025
N19775 X161.786 Y239.009
N19780 X162.744 Y238.999
N19785 X163.701 Y238.991
N19790 X164.659 Y238.987
N19795 X165.617 Y238.983
N19800 X167.532 Y238.98
N19805 X171.363 Y238.977
N19810 X206.798
N19815 X233.613
N19820 X234.571 Y238.968
N19825 X235.489 Y238.696
N19830 X236.285 Y238.163
N19835 X236.933 Y237.458
N19840 X237.442 Y236.647
N19845 X237.833 Y235.772
N19850 X238.128 Y234.861
N19855 X238.35 Y233.93
N19860 X238.515 Y232.986
N19865 X238.637 Y232.036
N19870 X238.727 Y231.083
N19875 X238.793 Y230.128
N19880 X238.842 Y229.171
N19885 X238.878 Y228.214
N19890 X238.905 Y227.257
N19895 X238.924 Y226.299
N19900 X238.938 Y225.342
N19905 X238.948 Y224.384
N19910 X238.956 Y223.426
N19915 X238.961 Y222.469
N19920 X238.965 Y221.511
N19925 X238.971 Y219.596
N19930 X238.973 Y217.68
N19935 X238.976 Y212.892
N19940 X238.977 Y166.922
N19945 Y116.164
N19950 Y86.476
N19955 X238.972 Y85.518
N19960 X238.728 Y84.592
N19965 X238.216 Y83.783
N19970 X237.524 Y83.12
N19975 X236.721 Y82.599
N19980 X235.851 Y82.198
N19985 X234.943 Y81.895
N19990 X234.012 Y81.668
N19995 X233.07 Y81.498
N20000 X232.12 Y81.373
N20005 X231.167 Y81.28
N20010 X230.212 Y81.212
N20015 X229.256 Y81.161
N20020 X228.299 Y81.125
N20025 X227.341 Y81.097
N20030 X226.384 Y81.078
N20035 X225.426 Y81.063
N20040 X224.469 Y81.052
N20045 X223.511 Y81.045
N20050 X222.553 Y81.039
N20055 X221.595 Y81.035
N20060 X220.638 Y81.032
N20065 X218.722 Y81.028
N20070 X214.892 Y81.025
N20075 X203.399 Y81.023
N20080 X169.88
N20085 X119.122
N20090 X88.476
N20095 X87.52 Y81.091
N20100 X86.634 Y81.454
N20105 X85.885 Y82.05
N20110 X85.282 Y82.795
N20115 X84.814 Y83.63
N20120 X84.456 Y84.518
N20125 X84.186 Y85.437
N20130 X83.985 Y86.374
N20135 X83.835 Y87.319
N20140 X83.724 Y88.271
N20145 X83.642 Y89.225
N20150 X83.582 Y90.181
N20155 X83.538 Y91.137
N20160 X83.505 Y92.095
N20165 X83.481 Y93.052
N20170 X83.464 Y94.009
N20175 X83.451 Y94.967
N20180 X83.442 Y95.925
N20185 X83.435 Y96.882
N20190 X83.43 Y97.84
N20195 X83.427 Y98.798
N20200 X83.422 Y100.713
N20205 X83.419 Y103.586
N20210 X83.417 Y110.29
N20215 X83.418 Y149.556
N20220 X83.419 Y176.96
N20225 X83.401 Y177.184
N20230 X83.347 Y177.402
N20235 X83.26 Y177.609
N20240 X83.195 Y177.731
N20245 X83.077 Y177.976
N20250 X83.071 Y177.99
N20255 X82.899 Y178.602
N20260 X82.857 Y179.2
N20265 Y179.214
N20270 X82.934 Y179.812
N20275 X82.939 Y179.825
N20280 X82.981 Y179.97
N20285 X83.126 Y180.916
N20290 X83.222 Y181.869
N20295 X83.287 Y182.825
N20300 X83.33 Y183.781
N20305 X83.359 Y184.739
N20310 X83.379 Y185.696
N20315 X83.392 Y186.654
N20320 X83.401 Y187.611
N20325 X83.407 Y188.569
N20330 X83.411 Y189.527
N20335 X83.416 Y191.442
N20340 X83.418 Y194.315
N20345 X83.42 Y203.892
N20350 X83.421 Y230.708
N20355 Y231.665
N20360 X83.528 Y232.617
N20365 X83.931 Y233.486
N20370 X84.556 Y234.212
N20375 X85.318 Y234.791
N20380 X86.164 Y235.241
N20385 X87.058 Y235.584
N20390 X87.98 Y235.842
N20395 X88.918 Y236.035
N20400 X89.865 Y236.178
N20405 X90.817 Y236.284
N20410 X91.772 Y236.362
N20415 X92.728 Y236.419
N20420 X93.684 Y236.461
N20425 X94.642 Y236.492
N20430 X95.599 Y236.515
N20435 X96.557 Y236.531
N20440 X97.514 Y236.543
N20445 X98.472 Y236.552
N20450 X99.43 Y236.559
N20455 X100.387 Y236.564
N20460 X102.303 Y236.57
N20465 X105.176 Y236.574
N20470 X109.964 Y236.576
N20475 X131.034 Y236.577
N20480 X151.145
N20485 X151.177
N20490 X151.454 Y236.611
N20495 X151.719 Y236.699
N20500 X151.961 Y236.838
N20505 X152.171 Y237.022
N20510 X152.34 Y237.244
N20515 X152.462 Y237.495
N20520 X152.482 Y237.562
N20525 X152.494 Y237.631
N20530 X152.498 Y237.701
N20535 Y237.702
N20540 X152.496 Y237.753
N20545 G2 X152.686 Y238.244 I0.598 J0.051
N20550 G1 X154.399 Y239.83
N20555 G2 X155.249 Y239.795 I0.408 J-0.44
N20560 G3 X155.907 Y239.366 I1.166 J1.07
N20565 G1 X156.505 Y239.186
N20570 X156.519 Y239.18
N20575 X156.845 Y239.012
N20580 X157.063 Y238.898
N20585 X157.112 Y238.867
N20590 X157.716 Y238.394
N20595 X157.933 Y238.217
N20600 X158.052 Y238.126
N20605 X158.352 Y237.935
N20610 X158.732 Y237.733
N20615 X159.226 Y237.52
N20620 X159.879 Y237.299
N20625 X160.79 Y237.07
N20630 X161.735 Y236.911
N20635 X162.687 Y236.805
N20640 X163.641 Y236.732
N20645 X164.598 Y236.683
N20650 X165.555 Y236.649
N20655 X166.512 Y236.626
N20660 X167.47 Y236.61
N20665 X168.428 Y236.6
N20670 X169.385 Y236.592
N20675 X170.343 Y236.587
N20680 X171.301 Y236.584
N20685 X173.216 Y236.58
N20690 X177.047 Y236.577
N20695 X201.947
N20700 X207.693
N20705 X231.636
N20710 X232.588 Y236.477
N20715 X233.461 Y236.082
N20720 X234.191 Y235.463
N20725 X234.775 Y234.704
N20730 X235.229 Y233.86
N20735 X235.574 Y232.967
N20740 X235.835 Y232.046
N20745 X236.03 Y231.108
N20750 X236.174 Y230.161
N20755 X236.281 Y229.21
N20760 X236.36 Y228.255
N20765 X236.418 Y227.299
N20770 X236.46 Y226.342
N20775 X236.491 Y225.385
N20780 X236.514 Y224.428
N20785 X236.531 Y223.47
N20790 X236.543 Y222.513
N20795 X236.552 Y221.555
N20800 X236.559 Y220.597
N20805 X236.563 Y219.64
N20810 X236.57 Y217.724
N20815 X236.574 Y214.851
N20820 X236.576 Y211.978
N20825 X236.577 Y197.613
N20830 Y161.22
N20835 Y110.462
N20840 Y88.435
N20845 X236.496 Y87.481
N20850 X236.12 Y86.6
N20855 X235.514 Y85.858
N20860 X234.763 Y85.264
N20865 X233.925 Y84.801
N20870 X233.034 Y84.448
N20875 X232.115 Y84.182
N20880 X231.178 Y83.983
N20885 X230.231 Y83.835
N20890 X229.28 Y83.726
N20895 X228.326 Y83.646
N20900 X227.37 Y83.586
N20905 X226.413 Y83.543
N20910 X225.456 Y83.511
N20915 X224.499 Y83.487
N20920 X223.541 Y83.47
N20925 X222.583 Y83.458
N20930 X221.626 Y83.449
N20935 X220.668 Y83.442
N20940 X219.71 Y83.437
N20945 X217.795 Y83.431
N20950 X214.922 Y83.426
N20955 X210.133 Y83.424
N20960 X159.376 Y83.423
N20965 X108.618
N20970 X91.379
N20975 X90.421 Y83.427
N20980 X89.486 Y83.634
N20985 X88.66 Y84.118
N20990 X87.982 Y84.794
N20995 X87.445 Y85.588
N21000 X87.032 Y86.452
N21005 X86.718 Y87.357
N21010 X86.483 Y88.285
N21015 X86.307 Y89.226
N21020 X86.178 Y90.175
N21025 X86.082 Y91.128
N21030 X86.011 Y92.083
N21035 X85.959 Y93.039
N21040 X85.921 Y93.996
N21045 X85.893 Y94.954
N21050 X85.872 Y95.911
N21055 X85.857 Y96.869
N21060 X85.846 Y97.826
N21065 X85.838 Y98.784
N21070 X85.833 Y99.742
N21075 X85.828 Y100.699
N21080 X85.823 Y102.615
N21085 X85.819 Y105.488
N21090 X85.817 Y111.234
N21095 Y114.107
N21100 X85.819 Y164.865
N21105 Y174.442
N21110 X85.815 Y174.933
N21115 X85.774 Y175.257
N21120 X85.66 Y175.562
N21125 X85.478 Y175.832
N21130 X85.239 Y176.053
N21135 X84.955 Y176.213
N21140 X84.832 Y176.265
N21145 G3 X84.576 Y176.311 I-0.232 J-0.554
N21150 G2 X84.112 Y176.503 I-0.024 J0.6
N21155 G1 X84.108 Y176.506
N21160 X82.433 Y178.32
N21165 G2 X82.485 Y179.185 I0.441 J0.407
N21170 G3 X82.939 Y179.825 I-1.024 J1.207
N21175 G1 X83.117 Y180.342
N21180 X83.213 Y180.56
N21185 X83.309 Y180.726
N21190 X83.49 Y180.995
N21195 X83.527 Y181.044
N21200 X83.88 Y181.43
N21205 X83.904 Y181.452
N21210 X84.011 Y181.557
N21215 X84.188 Y181.777
N21220 X84.376 Y182.055
N21225 X84.578 Y182.41
N21230 X84.789 Y182.865
N21235 X85.01 Y183.46
N21240 X85.239 Y184.273
N21245 X85.424 Y185.213
N21250 X85.55 Y186.162
N21255 X85.635 Y187.116
N21260 X85.693 Y188.072
N21265 X85.733 Y189.029
N21270 X85.76 Y189.986
N21275 X85.779 Y190.944
N21280 X85.792 Y191.901
N21285 X85.8 Y192.859
N21290 X85.806 Y193.817
N21295 X85.811 Y194.774
N21300 X85.815 Y196.69
N21305 X85.818 Y199.563
N21310 X85.82 Y208.182
N21315 X85.821 Y229.251
N21320 X85.927 Y230.203
N21325 X86.329 Y231.072
N21330 X86.949 Y231.803
N21335 X87.71 Y232.384
N21340 X88.554 Y232.835
N21345 X89.448 Y233.179
N21350 X90.37 Y233.438
N21355 X91.308 Y233.632
N21360 X92.255 Y233.775
N21365 X93.207 Y233.882
N21370 X94.161 Y233.96
N21375 X95.117 Y234.018
N21380 X96.074 Y234.06
N21385 X97.031 Y234.091
N21390 X97.989 Y234.114
N21395 X98.946 Y234.131
N21400 X99.904 Y234.143
N21405 X100.861 Y234.152
N21410 X101.819 Y234.159
N21415 X102.777 Y234.163
N21420 X104.692 Y234.17
N21425 X107.565 Y234.174
N21430 X112.354 Y234.176
N21435 X136.296 Y234.177
N21440 X148.746
N21445 X149.704 Y234.19
N21450 X150.315 Y234.246
N21455 X150.825 Y234.334
N21460 X151.247 Y234.442
N21465 X151.309 Y234.464
N21470 X151.581 Y234.592
N21475 X151.82 Y234.775
N21480 X152.014 Y235.004
N21485 X152.154 Y235.27
N21490 X152.235 Y235.559
N21495 X152.251 Y235.86
N21500 X152.242 Y236.038
N21505 X152.238 Y236.158
N21510 G3 X151.752 Y236.704 I-0.598 J-0.044
N21515 G1 X151.66 Y236.721 Z-3.993
N21520 X151.57 Y236.738 Z-3.971
N21525 X151.484 Y236.755 Z-3.935
N21530 X151.405 Y236.77 Z-3.885
N21535 X151.335 Y236.783 Z-3.824
N21540 X151.275 Y236.795 Z-3.753
N21545 X151.227 Y236.804 Z-3.672
N21550 X151.191 Y236.811 Z-3.585
N21555 X151.17 Y236.815 Z-3.494
N21560 X151.163 Y236.816 Z-3.4
N21565 G0 Z30.
N21570 X157.307 Y239.441
N21575 Z-2.8
N21580 G1 Z-3.4 F1000.
N21585 X157.309 Y239.434 Z-3.494
N21590 X157.316 Y239.413 Z-3.585
N21595 X157.328 Y239.379 Z-3.672
N21600 X157.344 Y239.333 Z-3.753
N21605 X157.364 Y239.275 Z-3.824
N21610 X157.387 Y239.207 Z-3.885
N21615 X157.413 Y239.131 Z-3.935
N21620 X157.442 Y239.049 Z-3.971
N21625 X157.471 Y238.962 Z-3.993
N21630 X157.502 Y238.873 Z-4.
N21635 G3 X157.933 Y238.217 I1.497 J0.514
N21640 G1 X158.45 Y237.779
N21645 X158.586 Y237.659
N21650 X159.175 Y237.126
N21655 X159.239 Y237.069
N21660 X160.326 Y236.161
N21665 X160.726 Y235.86
N21670 X161.071 Y235.642
N21675 X161.496 Y235.418
N21680 X162.047 Y235.183
N21685 X162.77 Y234.94
N21690 X163.699 Y234.71
N21695 X164.644 Y234.549
N21700 X165.595 Y234.437
N21705 X166.549 Y234.359
N21710 X167.505 Y234.304
N21715 X168.462 Y234.266
N21720 X169.42 Y234.239
N21725 X170.377 Y234.22
N21730 X171.335 Y234.207
N21735 X172.292 Y234.198
N21740 X173.25 Y234.191
N21745 X174.208 Y234.187
N21750 X176.123 Y234.182
N21755 X178.996 Y234.178
N21760 X185.7 Y234.177
N21765 X210.6
N21770 X228.796
N21775 X229.754 Y234.168
N21780 X230.674 Y233.9
N21785 X231.472 Y233.372
N21790 X232.123 Y232.669
N21795 X232.634 Y231.859
N21800 X233.027 Y230.986
N21805 X233.324 Y230.075
N21810 X233.547 Y229.144
N21815 X233.713 Y228.201
N21820 X233.836 Y227.251
N21825 X233.926 Y226.297
N21830 X233.993 Y225.342
N21835 X234.042 Y224.386
N21840 X234.078 Y223.429
N21845 X234.104 Y222.471
N21850 X234.124 Y221.514
N21855 X234.138 Y220.556
N21860 X234.148 Y219.599
N21865 X234.156 Y218.641
N21870 X234.161 Y217.683
N21875 X234.165 Y216.726
N21880 X234.171 Y214.81
N21885 X234.174 Y211.937
N21890 X234.176 Y206.191
N21895 Y204.275
N21900 X234.177 Y189.154
N21905 X234.181 Y189.041
N21910 X234.195 Y188.928
N21915 X234.218 Y188.817
N21920 X234.279 Y188.569
N21925 X234.281 Y188.555
N21930 X234.309 Y187.957
N21935 X234.306 Y187.937
N21940 X234.219 Y186.983
N21945 X234.205 Y186.026
N21950 X234.196 Y185.068
N21955 X234.189 Y184.11
N21960 X234.185 Y183.153
N21965 X234.181 Y181.237
N21970 X234.178 Y178.364
N21975 X234.177 Y168.787
N21980 Y137.183
N21985 Y91.214
N21990 X234.169 Y90.256
N21995 X233.904 Y89.336
N22000 X233.378 Y88.536
N22005 X232.677 Y87.884
N22010 X231.868 Y87.371
N22015 X230.995 Y86.977
N22020 X230.085 Y86.679
N22025 X229.154 Y86.455
N22030 X228.211 Y86.289
N22035 X227.261 Y86.166
N22040 X226.307 Y86.075
N22045 X225.352 Y86.008
N22050 X224.396 Y85.959
N22055 X223.439 Y85.922
N22060 X222.481 Y85.896
N22065 X221.524 Y85.877
N22070 X220.566 Y85.862
N22075 X219.609 Y85.852
N22080 X218.651 Y85.844
N22085 X217.693 Y85.839
N22090 X216.736 Y85.835
N22095 X214.82 Y85.829
N22100 X211.947 Y85.826
N22105 X206.201 Y85.824
N22110 X181.301 Y85.823
N22115 X130.543
N22120 X93.193 Y85.824
N22125 X92.239 Y85.914
N22130 X91.363 Y86.3
N22135 X90.627 Y86.913
N22140 X90.037 Y87.667
N22145 X89.579 Y88.508
N22150 X89.229 Y89.4
N22155 X88.966 Y90.321
N22160 X88.77 Y91.258
N22165 X88.624 Y92.204
N22170 X88.516 Y93.156
N22175 X88.436 Y94.11
N22180 X88.378 Y95.066
N22185 X88.334 Y96.023
N22190 X88.303 Y96.98
N22195 X88.28 Y97.938
N22200 X88.263 Y98.895
N22205 X88.25 Y99.853
N22210 X88.241 Y100.811
N22215 X88.235 Y101.768
N22220 X88.23 Y102.726
N22225 X88.224 Y104.641
N22230 X88.22 Y107.514
N22235 X88.217 Y112.303
N22240 X88.218 Y147.738
N22245 Y172.638
N22250 X88.199 Y173.552
N22255 X88.136 Y174.167
N22260 X88.073 Y174.511
N22265 X87.985 Y174.806
N22270 X87.834 Y175.074
N22275 X87.629 Y175.303
N22280 X87.378 Y175.481
N22285 X87.095 Y175.6
