%
(FULL)
(T1  D=6. CR=0. - ZMIN=-18. - FLAT END MILL)
(T2  D=1.5 CR=0.75 - ZMIN=-18.15 - BALL END MILL)
(T4  D=6. CR=3. - ZMIN=-18.211 - BALL END MILL)
N10 G90 G94 G17 G91.1
N15 G21
N20 G53 G0 Z0.
(FACE2)
N25 T1 M6
N30 T4
N35 S5000 M3
N40 G54
N45 G0 X2.672 Y-3.9
N50 G43 Z15. H1
N55 G0 Z5.
N60 G1 Z-1.4 F1000.
N65 G19 G3 Y-3.3 Z-2. J0.6 K0.
N70 G1 Y0.
N75 Y320.
N80 G17 G2 X8.286 I2.807 J0.
N85 G1 Y0.
N90 G3 X13.901 I2.807 J0.
N95 G1 Y320.
N100 G2 X19.516 I2.807 J0.
N105 G1 Y0.
N110 G3 X25.13 I2.807 J0.
N115 G1 Y320.
N120 G2 X30.745 I2.807 J0.
N125 G1 Y0.
N130 G3 X36.36 I2.807 J0.
N135 G1 Y320.
N140 G2 X41.974 I2.807 J0.
N145 G1 Y0.
N150 G3 X47.589 I2.807 J0.
N155 G1 Y320.
N160 G2 X53.204 I2.807 J0.
N165 G1 Y0.
N170 G3 X58.818 I2.807 J0.
N175 G1 Y320.
N180 G2 X64.433 I2.807 J0.
N185 G1 Y0.
N190 G3 X70.048 I2.807 J0.
N195 G1 Y320.
N200 G2 X75.662 I2.807 J0.
N205 G1 Y0.
N210 G3 X81.277 I2.807 J0.
N215 G1 Y320.
N220 G2 X86.892 I2.807 J0.
N225 G1 Y0.
N230 G3 X92.506 I2.807 J0.
N235 G1 Y320.
N240 G2 X98.121 I2.807 J0.
N245 G1 Y0.
N250 G3 X103.736 I2.807 J0.
N255 G1 Y320.
N260 G2 X109.35 I2.807 J0.
N265 G1 Y0.
N270 G3 X114.965 I2.807 J0.
N275 G1 Y320.
N280 G2 X120.58 I2.807 J0.
N285 G1 Y0.
N290 G3 X126.194 I2.807 J0.
N295 G1 Y320.
N300 G2 X131.809 I2.807 J0.
N305 G1 Y0.
N310 G3 X137.424 I2.807 J0.
N315 G1 Y320.
N320 G2 X143.038 I2.807 J0.
N325 G1 Y0.
N330 G3 X148.653 I2.807 J0.
N335 G1 Y320.
N340 G2 X154.268 I2.807 J0.
N345 G1 Y0.
N350 G3 X159.882 I2.807 J0.
N355 G1 Y320.
N360 G2 X165.497 I2.807 J0.
N365 G1 Y0.
N370 G3 X171.112 I2.807 J0.
N375 G1 Y320.
N380 G2 X176.726 I2.807 J0.
N385 G1 Y0.
N390 G3 X182.341 I2.807 J0.
N395 G1 Y320.
N400 G2 X187.956 I2.807 J0.
N405 G1 Y0.
N410 G3 X193.57 I2.807 J0.
N415 G1 Y320.
N420 G2 X199.185 I2.807 J0.
N425 G1 Y0.
N430 G3 X204.8 I2.807 J0.
N435 G1 Y320.
N440 G2 X210.414 I2.807 J0.
N445 G1 Y0.
N450 G3 X216.029 I2.807 J0.
N455 G1 Y320.
N460 G2 X221.644 I2.807 J0.
N465 G1 Y0.
N470 G3 X227.258 I2.807 J0.
N475 G1 Y320.
N480 G2 X232.873 I2.807 J0.
N485 G1 Y0.
N490 G3 X238.488 I2.807 J0.
N495 G1 Y320.
N500 G2 X244.102 I2.807 J0.
N505 G1 Y0.
N510 G3 X249.717 I2.807 J0.
N515 G1 Y320.
N520 G2 X255.332 I2.807 J0.
N525 G1 Y0.
N530 G3 X260.946 I2.807 J0.
N535 G1 Y320.
N540 G2 X266.561 I2.807 J0.
N545 G1 Y0.
N550 G3 X272.176 I2.807 J0.
N555 G1 Y320.
N560 G2 X277.79 I2.807 J0.
N565 G1 Y0.
N570 G3 X283.405 I2.807 J0.
N575 G1 Y320.
N580 G2 X289.02 I2.807 J0.
N585 G1 Y0.
N590 G3 X294.634 I2.807 J0.
N595 G1 Y320.
N600 G2 X300.249 I2.807 J0.
N605 G1 Y0.
N610 G3 X305.864 I2.807 J0.
N615 G1 Y320.
N620 G2 X311.478 I2.807 J0.
N625 G1 Y0.
N630 G3 X317.093 I2.807 J0.
N635 G1 Y320.
N640 G19 G3 Y320.6 Z-1.4 J0. K0.6
N645 G0 Z15.
N650 G17
(BORE1)
N655 G0 X159.5 Y160.6
N660 Z15.
N665 Z-6.15
N670 G1 Z-7.55 F1000.
N675 G18 G3 X158.9 Z-8.15 I-0.6 K0.
N680 G1 X158.6
N685 G17 G3 X158. Y160. I0. J-0.6
N690 X162. Z-8.65 I2. J0.
N695 X158. Z-9.15 I-2. J0.
N700 X162. Z-9.65 I2. J0.
N705 X158. Z-10.15 I-2. J0.
N710 X162. Z-10.65 I2. J0.
N715 X158. Z-11.15 I-2. J0.
N720 X162. Z-11.65 I2. J0.
N725 X158. Z-12.15 I-2. J0.
N730 X162. Z-12.65 I2. J0.
N735 X158. Z-13.15 I-2. J0.
N740 X162. Z-13.65 I2. J0.
N745 X158. Z-14.15 I-2. J0.
N750 X162. Z-14.65 I2. J0.
N755 X158. Z-15.15 I-2. J0.
N760 X162. Z-15.65 I2. J0.
N765 X158. Z-16.15 I-2. J0.
N770 X162. Z-16.65 I2. J0.
N775 X158. Z-17.15 I-2. J0.
N780 X162. Z-17.65 I2. J0.
N785 X158.824 Y161.618 Z-18. I-2. J0.
N790 X161.176 Y158.382 I1.176 J-1.618
N795 X158.824 Y161.618 I-1.176 J1.618
N800 X158.692 Y160.78 I0.353 J-0.485
N805 G1 X158.868 Y160.537
N810 X158.923 Y160.461 Z-17.993
N815 X158.977 Y160.387 Z-17.971
N820 X159.028 Y160.317 Z-17.935
N825 X159.075 Y160.252 Z-17.885
N830 X159.117 Y160.194 Z-17.824
N835 X159.153 Y160.145 Z-17.753
N840 X159.182 Y160.105 Z-17.672
N845 X159.203 Y160.076 Z-17.585
N850 X159.216 Y160.058 Z-17.494
N855 X159.221 Y160.052 Z-17.4
N860 G0 Z15.
N865 M5
N870 G53 G0 Z0.
(MORPHED SPIRAL2)
N875 M1
N880 T4 M6
N885 T2
N890 S5000 M3
N895 G54
N900 M8
N905 G0 X161.915 Y159.446
N910 G43 Z15. H4
N915 G0 Z-5.955
N920 G1 Z-18. F1000.
N925 X161.912 Y159.439 Z-18.055
N930 X161.904 Y159.42 Z-18.106
N935 X161.891 Y159.388 Z-18.15
N940 X161.875 Y159.348 Z-18.184
N945 X161.856 Y159.3 Z-18.205
N950 X161.836 Y159.249 Z-18.212
N955 X161.815 Y159.198 Z-18.205
N960 X161.796 Y159.151 Z-18.184
N965 X161.78 Y159.11 Z-18.15
N970 X161.768 Y159.079 Z-18.106
N975 X161.76 Y159.059 Z-18.055
N980 X161.757 Y159.052 Z-18.
N985 Z-11.131
N990 X161.748 Y159.029 Z-11.004
N995 X161.721 Y158.968 Z-10.887
N1000 X161.687 Y158.898 Z-10.818
N1005 X161.64 Y158.811 Z-10.723
N1010 X161.596 Y158.738 Z-10.675
N1015 X161.533 Y158.647 Z-10.605
N1020 X161.493 Y158.593 Z-10.579
N1025 X161.467 Y158.561 Z-10.555
N1030 X161.382 Y158.463 Z-10.508
N1035 X161.316 Y158.397 Z-10.466
N1040 X161.231 Y158.32 Z-10.436
N1045 X161.147 Y158.252 Z-10.402
N1050 X161.092 Y158.213 Z-10.39
N1055 X161.011 Y158.159 Z-10.362
N1060 X160.934 Y158.113 Z-10.35
N1065 X160.864 Y158.076 Z-10.33
N1070 X160.758 Y158.026 Z-10.317
N1075 X160.65 Y157.984 Z-10.3
N1080 X160.582 Y157.961 Z-10.295
N1085 X160.524 Y157.943 Z-10.286
N1090 X160.397 Y157.912 Z-10.28
N1095 X160.281 Y157.892 Z-10.273
N1100 X160.211 Y157.883 Z-10.274
N1105 X160.037 Y157.871 Z-10.269
N1110 X159.842 Y157.86 Z-10.215
N1115 X159.748 Y157.858 Z-10.178
N1120 X159.636 Y157.861 Z-10.144
N1125 X159.495 Y157.873 Z-10.1
N1130 X159.41 Y157.885 Z-10.072
N1135 X159.241 Y157.919 Z-10.025
N1140 X159.095 Y157.961 Z-9.988
N1145 X158.969 Y158.006 Z-9.952
N1150 X158.764 Y158.099 Z-9.903
N1155 X158.665 Y158.154 Z-9.879
N1160 X158.473 Y158.282 Z-9.836
N1165 X158.295 Y158.431 Z-9.799
N1170 X158.212 Y158.513 Z-9.784
N1175 X158.105 Y158.634 Z-9.764
N1180 X158.024 Y158.738 Z-9.746
N1185 X157.95 Y158.848 Z-9.733
N1190 X157.853 Y159.019 Z-9.717
N1195 X157.81 Y159.109 Z-9.707
N1200 X157.724 Y159.328 Z-9.694
N1205 X157.67 Y159.528 Z-9.686
N1210 X157.637 Y159.723 Z-9.681
N1215 X157.617 Y160. Z-9.678
N1220 X157.607 Y160.252 Z-9.635
N1225 X157.618 Y160.482 Z-9.595
N1230 X157.651 Y160.71 Z-9.556
N1235 X157.707 Y160.936 Z-9.52
N1240 X157.785 Y161.155 Z-9.487
N1245 X157.884 Y161.367 Z-9.456
N1250 X158.004 Y161.568 Z-9.428
N1255 X158.143 Y161.757 Z-9.403
N1260 X158.3 Y161.931 Z-9.38
N1265 X158.474 Y162.089 Z-9.361
N1270 X158.663 Y162.23 Z-9.344
N1275 X158.865 Y162.351 Z-9.33
N1280 X159.082 Y162.453 Z-9.318
N1285 X159.29 Y162.528 Z-9.31
N1290 X159.503 Y162.582 Z-9.305
N1295 X159.73 Y162.618 Z-9.302
N1300 X159.874 Y162.63
N1305 X160.063 Y162.639 Z-9.296
N1310 X160.285 Y162.644 Z-9.27
N1315 X160.448 Y162.637 Z-9.248
N1320 X160.63 Y162.617 Z-9.228
N1325 X160.861 Y162.573 Z-9.202
N1330 X161.088 Y162.508 Z-9.179
N1335 X161.308 Y162.423 Z-9.156
N1340 X161.519 Y162.319 Z-9.135
N1345 X161.72 Y162.197 Z-9.116
N1350 X161.91 Y162.057 Z-9.099
N1355 X162.086 Y161.9 Z-9.083
N1360 X162.228 Y161.751 Z-9.072
N1365 X162.358 Y161.591 Z-9.059
N1370 X162.46 Y161.446 Z-9.05
N1375 X162.579 Y161.243 Z-9.04
N1380 X162.696 Y160.991 Z-9.03
N1385 X162.778 Y160.753 Z-9.024
N1390 X162.838 Y160.505 Z-9.02
N1395 X162.873 Y160.257 Z-9.018
N1400 X162.882 Y160.126 Z-9.02
N1405 X162.895 Y159.811 Z-9.002
N1410 X162.89 Y159.572 Z-8.983
N1415 X162.867 Y159.338 Z-8.965
N1420 X162.836 Y159.165 Z-8.95
N1425 X162.779 Y158.937 Z-8.932
N1430 X162.704 Y158.714 Z-8.915
N1435 X162.604 Y158.484 Z-8.898
N1440 X162.48 Y158.255 Z-8.882
N1445 X162.341 Y158.047 Z-8.867
N1450 X162.185 Y157.852 Z-8.855
N1455 X162.016 Y157.674 Z-8.843
N1460 X161.834 Y157.512 Z-8.834
N1465 X161.739 Y157.438 Z-8.827
N1470 X161.542 Y157.303 Z-8.819
N1475 X161.337 Y157.186 Z-8.813
N1480 X161.124 Y157.086 Z-8.808
N1485 X161.014 Y157.043 Z-8.804
N1490 X160.774 Y156.966 Z-8.799
N1495 X160.497 Y156.904 Z-8.796
N1500 X160.241 Y156.872 Z-8.795
N1505 X159.972 Y156.859 Z-8.792
N1510 X159.631 Y156.855 Z-8.772
N1515 X159.38 Y156.875 Z-8.757
N1520 X159.125 Y156.915 Z-8.742
N1525 X158.889 Y156.973 Z-8.729
N1530 X158.664 Y157.046 Z-8.717
N1535 X158.446 Y157.136 Z-8.705
N1540 X158.235 Y157.242 Z-8.693
N1545 X158.033 Y157.363 Z-8.682
N1550 X157.828 Y157.509 Z-8.672
N1555 X157.623 Y157.682 Z-8.662
N1560 X157.434 Y157.872 Z-8.653
N1565 X157.263 Y158.076 Z-8.646
N1570 X157.185 Y158.182 Z-8.64
N1575 X157.046 Y158.396 Z-8.634
N1580 X156.911 Y158.652 Z-8.628
N1585 X156.797 Y158.927 Z-8.623
N1590 X156.709 Y159.212 Z-8.62
N1595 X156.649 Y159.505 Z-8.617
N1600 X156.619 Y159.771
N1605 X156.606 Y160.063 Z-8.613
N1610 X156.602 Y160.319 Z-8.603
N1615 X156.617 Y160.58 Z-8.591
N1620 X156.64 Y160.76 Z-8.581
N1625 X156.683 Y160.992 Z-8.572
N1630 X156.743 Y161.22 Z-8.563
N1635 X156.818 Y161.443 Z-8.553
N1640 X156.922 Y161.69 Z-8.543
N1645 X157.036 Y161.912 Z-8.534
N1650 X157.161 Y162.117 Z-8.526
N1655 X157.319 Y162.337 Z-8.519
N1660 X157.491 Y162.54 Z-8.511
N1665 X157.655 Y162.708 Z-8.504
N1670 X157.857 Y162.885 Z-8.497
N1675 X158.071 Y163.045 Z-8.492
N1680 X158.307 Y163.193 Z-8.487
N1685 X158.522 Y163.306 Z-8.485
N1690 X158.768 Y163.413 Z-8.48
N1695 X159.022 Y163.5 Z-8.477
N1700 X159.333 Y163.577 Z-8.475
N1705 X159.651 Y163.624 Z-8.473
N1710 X160.008 Y163.644 Z-8.472
N1715 X160.468 Y163.658 Z-8.451
N1720 X160.736 Y163.647 Z-8.436
N1725 X160.965 Y163.621 Z-8.422
N1730 X161.197 Y163.579 Z-8.41
N1735 X161.426 Y163.521 Z-8.4
N1740 X161.649 Y163.447 Z-8.39
N1745 X161.897 Y163.344 Z-8.379
N1750 X162.114 Y163.235 Z-8.371
N1755 X162.374 Y163.077 Z-8.363
N1760 X162.61 Y162.903 Z-8.357
N1765 X162.794 Y162.744 Z-8.351
N1770 X162.992 Y162.544 Z-8.346
N1775 X163.174 Y162.328 Z-8.343
N1780 X163.336 Y162.099 Z-8.342
N1785 X163.476 Y161.862 Z-8.341
N1790 X163.602 Y161.603
N1795 X163.699 Y161.353 Z-8.342
N1800 X163.78 Y161.083 Z-8.345
N1805 X163.838 Y160.81 Z-8.349
N1810 X163.867 Y160.596 Z-8.352
N1815 X163.887 Y160.261 Z-8.359
N1820 X163.903 Y159.77 Z-8.354
N1825 X163.917 Y159.288 Z-8.327
N1830 X163.906 Y159.026 Z-8.311
N1835 X163.875 Y158.759 Z-8.298
N1840 X163.832 Y158.532 Z-8.286
N1845 X163.772 Y158.304 Z-8.276
N1850 X163.684 Y158.049 Z-8.267
N1855 X163.592 Y157.833 Z-8.259
N1860 X163.474 Y157.606 Z-8.252
N1865 X163.325 Y157.366 Z-8.247
N1870 X163.145 Y157.124 Z-8.242
N1875 X162.967 Y156.924 Z-8.238
N1880 X162.74 Y156.707 Z-8.236
N1885 X162.493 Y156.512 Z-8.235
N1890 X162.251 Y156.353 Z-8.236
N1895 X162.016 Y156.225 Z-8.237
N1900 X161.771 Y156.115 Z-8.239
N1905 X161.477 Y156.013 Z-8.244
N1910 X161.184 Y155.939 Z-8.25
N1915 X160.886 Y155.892 Z-8.257
N1920 X160.602 Y155.871 Z-8.265
N1925 X159.96 Y155.852 Z-8.272
N1930 X159.348 Y155.833 Z-8.254
N1935 X158.979 Y155.826 Z-8.233
N1940 X158.782 Y155.836 Z-8.223
N1945 X158.548 Y155.862 Z-8.213
N1950 X158.316 Y155.904 Z-8.204
N1955 X158.057 Y155.971 Z-8.196
N1960 X157.793 Y156.063 Z-8.19
N1965 X157.518 Y156.185 Z-8.183
N1970 X157.283 Y156.314 Z-8.179
N1975 X157.058 Y156.461 Z-8.176
N1980 X156.846 Y156.626 Z-8.174
N1985 X156.634 Y156.819 Z-8.172
N1990 X156.437 Y157.033
N1995 X156.269 Y157.247
N2000 X156.119 Y157.474
N2005 X155.987 Y157.713 Z-8.174
N2010 X155.876 Y157.957 Z-8.176
N2015 X155.785 Y158.209 Z-8.179
N2020 X155.714 Y158.467 Z-8.183
N2025 X155.663 Y158.731 Z-8.188
N2030 X155.63 Y159.043 Z-8.196
N2035 X155.607 Y159.79 Z-8.21
N2040 X155.586 Y160.536 Z-8.201
N2045 X155.568 Y161.233 Z-8.177
N2050 X155.579 Y161.468 Z-8.169
N2055 X155.608 Y161.72 Z-8.163
N2060 X155.658 Y161.979 Z-8.158
N2065 X155.729 Y162.238 Z-8.155
N2070 X155.821 Y162.49 Z-8.153
N2075 X155.931 Y162.734 Z-8.151
N2080 X156.096 Y163.026
N2085 X156.289 Y163.3 Z-8.15
N2090 X156.461 Y163.505
N2095 X156.63 Y163.677
N2100 X156.876 Y163.891
N2105 X157.11 Y164.059
N2110 X157.399 Y164.23
N2115 X157.703 Y164.371 Z-8.151
N2120 X158.003 Y164.477 Z-8.152
N2125 X158.28 Y164.547 Z-8.153
N2130 X158.544 Y164.593 Z-8.155
N2135 X158.855 Y164.619 Z-8.16
N2140 X160.112 Y164.654 Z-8.17
N2145 X161.446 Y164.688 Z-8.151
N2150 X161.714 Y164.678 Z-8.15
N2155 X161.98 Y164.647
N2160 X162.169 Y164.611
N2165 X162.428 Y164.544
N2170 X162.682 Y164.457
N2175 X162.928 Y164.351
N2180 X163.165 Y164.225
N2185 X163.392 Y164.082
N2190 X163.606 Y163.921
N2195 X163.807 Y163.743
N2200 X163.994 Y163.551
N2205 X164.165 Y163.344
N2210 X164.32 Y163.125
N2215 X164.456 Y162.894
N2220 X164.575 Y162.654
N2225 X164.674 Y162.404
N2230 X164.753 Y162.148
N2235 X164.812 Y161.887
N2240 X164.85 Y161.621
N2245 X164.868 Y161.353
N2250 X164.943 Y158.399
N2255 X164.942 Y158.177
N2260 X164.921 Y157.909
N2265 X164.879 Y157.644
N2270 X164.817 Y157.383
N2275 X164.734 Y157.128
N2280 X164.632 Y156.88
N2285 X164.51 Y156.641
N2290 X164.371 Y156.412
N2295 X164.214 Y156.195
N2300 X164.04 Y155.991
N2305 X163.851 Y155.801
N2310 X163.647 Y155.626
N2315 X163.431 Y155.468
N2320 X163.203 Y155.327
N2325 X162.964 Y155.204
N2330 X162.717 Y155.1
N2335 X162.462 Y155.017
N2340 X162.201 Y154.953
N2345 X161.937 Y154.91
N2350 X161.702 Y154.889
N2355 X159.188 Y154.826
N2360 X158.063 Y154.8
N2365 X157.795 Y154.81
N2370 X157.529 Y154.842
N2375 X157.266 Y154.894
N2380 X157.007 Y154.966
N2385 X156.756 Y155.059
N2390 X156.512 Y155.171
N2395 X156.278 Y155.301
N2400 X156.055 Y155.45
N2405 X155.844 Y155.616
N2410 X155.646 Y155.797
N2415 X155.464 Y155.994
N2420 X155.297 Y156.204
N2425 X155.147 Y156.426
N2430 X155.015 Y156.66
N2435 X154.902 Y156.903
N2440 X154.808 Y157.154
N2445 X154.734 Y157.412
N2450 X154.681 Y157.675
N2455 X154.648 Y157.941
N2460 X154.634 Y158.281
N2465 X154.545 Y162.107
N2470 X154.547 Y162.32
N2475 X154.568 Y162.588
N2480 X154.61 Y162.853
N2485 X154.672 Y163.113
N2490 X154.755 Y163.369
N2495 X154.857 Y163.617
N2500 X154.979 Y163.856
N2505 X155.118 Y164.085
N2510 X155.276 Y164.302
N2515 X155.449 Y164.506
N2520 X155.639 Y164.696
N2525 X155.842 Y164.871
N2530 X156.059 Y165.029
N2535 X156.287 Y165.17
N2540 X156.525 Y165.292
N2545 X156.773 Y165.396
N2550 X157.028 Y165.48
N2555 X157.288 Y165.543
N2560 X157.553 Y165.586
N2565 X157.79 Y165.607
N2570 X160.039 Y165.658
N2575 X162.435 Y165.711
N2580 X162.703 Y165.7
N2585 X162.969 Y165.669
N2590 X163.233 Y165.617
N2595 X163.491 Y165.544
N2600 X163.742 Y165.452
N2605 X163.986 Y165.34
N2610 X164.22 Y165.209
N2615 X164.444 Y165.06
N2620 X164.654 Y164.894
N2625 X164.852 Y164.713
N2630 X165.034 Y164.516
N2635 X165.201 Y164.306
N2640 X165.35 Y164.083
N2645 X165.482 Y163.85
N2650 X165.595 Y163.607
N2655 X165.689 Y163.355
N2660 X165.762 Y163.097
N2665 X165.816 Y162.835
N2670 X165.848 Y162.568
N2675 X165.862 Y162.225
N2680 X165.966 Y157.319
N2685 X165.955 Y157.051
N2690 X165.924 Y156.784
N2695 X165.871 Y156.521
N2700 X165.799 Y156.263
N2705 X165.706 Y156.011
N2710 X165.594 Y155.768
N2715 X165.464 Y155.533
N2720 X165.315 Y155.31
N2725 X165.15 Y155.099
N2730 X164.968 Y154.902
N2735 X164.772 Y154.719
N2740 X164.562 Y154.552
N2745 X164.339 Y154.403
N2750 X164.106 Y154.271
N2755 X163.862 Y154.158
N2760 X163.611 Y154.064
N2765 X163.353 Y153.99
N2770 X163.091 Y153.936
N2775 X162.824 Y153.904
N2780 X162.474 Y153.89
N2785 X157.072 Y153.78
N2790 X156.804 Y153.79
N2795 X156.537 Y153.822
N2800 X156.274 Y153.874
N2805 X156.016 Y153.947
N2810 X155.764 Y154.039
N2815 X155.52 Y154.151
N2820 X155.286 Y154.282
N2825 X155.063 Y154.43
N2830 X154.852 Y154.595
N2835 X154.654 Y154.777
N2840 X154.472 Y154.973
N2845 X154.305 Y155.183
N2850 X154.155 Y155.406
N2855 X154.023 Y155.639
N2860 X153.91 Y155.882
N2865 X153.816 Y156.134
N2870 X153.742 Y156.391
N2875 X153.688 Y156.654
N2880 X153.655 Y156.92
N2885 X153.641 Y157.276
N2890 X153.526 Y163.181
N2895 X153.536 Y163.449
N2900 X153.568 Y163.716
N2905 X153.62 Y163.979
N2910 X153.692 Y164.237
N2915 X153.785 Y164.489
N2920 X153.897 Y164.732
N2925 X154.028 Y164.966
N2930 X154.176 Y165.19
N2935 X154.342 Y165.401
N2940 X154.524 Y165.598
N2945 X154.72 Y165.78
N2950 X154.93 Y165.947
N2955 X155.153 Y166.096
N2960 X155.387 Y166.228
N2965 X155.63 Y166.341
N2970 X155.881 Y166.435
N2975 X156.139 Y166.509
N2980 X156.402 Y166.562
N2985 X156.668 Y166.594
N2990 X157.02 Y166.608
N2995 X163.426 Y166.728
N3000 X163.694 Y166.718
N3005 X163.961 Y166.686
N3010 X164.224 Y166.634
N3015 X164.482 Y166.562
N3020 X164.734 Y166.469
N3025 X164.977 Y166.357
N3030 X165.212 Y166.227
N3035 X165.435 Y166.078
N3040 X165.646 Y165.913
N3045 X165.843 Y165.731
N3050 X166.026 Y165.535
N3055 X166.193 Y165.325
N3060 X166.343 Y165.103
N3065 X166.475 Y164.869
N3070 X166.588 Y164.626
N3075 X166.682 Y164.375
N3080 X166.756 Y164.117
N3085 X166.81 Y163.855
N3090 X166.843 Y163.588
N3095 X166.857 Y163.227
N3100 X166.982 Y156.388
N3105 X166.98 Y156.192
N3110 X166.959 Y155.924
N3115 X166.917 Y155.659
N3120 X166.854 Y155.398
N3125 X166.772 Y155.143
N3130 X166.67 Y154.895
N3135 X166.548 Y154.656
N3140 X166.409 Y154.427
N3145 X166.252 Y154.21
N3150 X166.078 Y154.005
N3155 X165.889 Y153.815
N3160 X165.686 Y153.64
N3165 X165.47 Y153.481
N3170 X165.242 Y153.34
N3175 X165.003 Y153.217
N3180 X164.756 Y153.114
N3185 X164.501 Y153.029
N3190 X164.241 Y152.965
N3195 X163.976 Y152.922
N3200 X163.728 Y152.9
N3205 X162.003 Y152.868
N3210 X156.135 Y152.765
N3215 X155.941 Y152.767
N3220 X155.674 Y152.788
N3225 X155.409 Y152.829
N3230 X155.148 Y152.892
N3235 X154.893 Y152.974
N3240 X154.645 Y153.077
N3245 X154.406 Y153.198
N3250 X154.177 Y153.338
N3255 X153.959 Y153.495
N3260 X153.755 Y153.668
N3265 X153.565 Y153.857
N3270 X153.39 Y154.061
N3275 X153.231 Y154.277
N3280 X153.09 Y154.505
N3285 X152.967 Y154.744
N3290 X152.864 Y154.991
N3295 X152.779 Y155.245
N3300 X152.715 Y155.506
N3305 X152.672 Y155.771
N3310 X152.65 Y156.02
N3315 X152.619 Y157.745
N3320 X152.51 Y164.177
N3325 X152.521 Y164.445
N3330 X152.552 Y164.712
N3335 X152.605 Y164.975
N3340 X152.677 Y165.233
N3345 X152.77 Y165.485
N3350 X152.882 Y165.728
N3355 X153.012 Y165.962
N3360 X153.161 Y166.186
N3365 X153.326 Y166.397
N3370 X153.508 Y166.594
N3375 X153.704 Y166.777
N3380 X153.915 Y166.943
N3385 X154.137 Y167.093
N3390 X154.371 Y167.225
N3395 X154.614 Y167.338
N3400 X154.865 Y167.432
N3405 X155.123 Y167.506
N3410 X155.386 Y167.559
N3415 X155.652 Y167.592
N3420 X156.015 Y167.606
N3425 X164.423 Y167.743
N3430 X164.691 Y167.732
N3435 X164.957 Y167.701
N3440 X165.221 Y167.649
N3445 X165.479 Y167.576
N3450 X165.731 Y167.484
N3455 X165.974 Y167.372
N3460 X166.209 Y167.242
N3465 X166.432 Y167.093
N3470 X166.643 Y166.928
N3475 X166.841 Y166.746
N3480 X167.023 Y166.55
N3485 X167.19 Y166.34
N3490 X167.34 Y166.118
N3495 X167.472 Y165.884
N3500 X167.586 Y165.641
N3505 X167.68 Y165.39
N3510 X167.754 Y165.133
N3515 X167.808 Y164.87
N3520 X167.841 Y164.604
N3525 X167.853 Y164.367
N3530 X167.996 Y155.324
N3535 X167.986 Y155.056
N3540 X167.954 Y154.789
N3545 X167.902 Y154.526
N3550 X167.83 Y154.268
N3555 X167.737 Y154.016
N3560 X167.625 Y153.773
N3565 X167.495 Y153.538
N3570 X167.346 Y153.315
N3575 X167.18 Y153.104
N3580 X166.999 Y152.907
N3585 X166.802 Y152.724
N3590 X166.592 Y152.557
N3595 X166.37 Y152.408
N3600 X166.136 Y152.276
N3605 X165.893 Y152.163
N3610 X165.642 Y152.069
N3615 X165.384 Y151.995
N3620 X165.121 Y151.941
N3625 X164.855 Y151.909
N3630 X164.488 Y151.895
N3635 X155.079 Y151.751
N3640 X154.811 Y151.761
N3645 X154.544 Y151.792
N3650 X154.281 Y151.844
N3655 X154.023 Y151.917
N3660 X153.771 Y152.009
N3665 X153.527 Y152.121
N3670 X153.293 Y152.252
N3675 X153.07 Y152.4
N3680 X152.859 Y152.565
N3685 X152.661 Y152.747
N3690 X152.478 Y152.943
N3695 X152.311 Y153.153
N3700 X152.161 Y153.375
N3705 X152.029 Y153.608
N3710 X151.915 Y153.851
N3715 X151.821 Y154.102
N3720 X151.747 Y154.36
N3725 X151.692 Y154.623
N3730 X151.659 Y154.889
N3735 X151.647 Y155.131
N3740 X151.497 Y165.173
N3745 X151.508 Y165.441
N3750 X151.539 Y165.707
N3755 X151.591 Y165.97
N3760 X151.664 Y166.228
N3765 X151.756 Y166.48
N3770 X151.868 Y166.724
N3775 X151.999 Y166.958
N3780 X152.147 Y167.182
N3785 X152.312 Y167.393
N3790 X152.494 Y167.59
N3795 X152.69 Y167.773
N3800 X152.9 Y167.94
N3805 X153.122 Y168.09
N3810 X153.356 Y168.222
N3815 X153.599 Y168.335
N3820 X153.85 Y168.43
N3825 X154.108 Y168.504
N3830 X154.37 Y168.558
N3835 X154.636 Y168.591
N3840 X154.879 Y168.603
N3845 X165.422 Y168.756
N3850 X165.69 Y168.745
N3855 X165.956 Y168.714
N3860 X166.219 Y168.662
N3865 X166.478 Y168.589
N3870 X166.729 Y168.497
N3875 X166.973 Y168.385
N3880 X167.208 Y168.255
N3885 X167.431 Y168.106
N3890 X167.642 Y167.941
N3895 X167.84 Y167.759
N3900 X168.022 Y167.563
N3905 X168.189 Y167.353
N3910 X168.339 Y167.131
N3915 X168.472 Y166.898
N3920 X168.585 Y166.655
N3925 X168.679 Y166.404
N3930 X168.754 Y166.146
N3935 X168.808 Y165.883
N3940 X168.841 Y165.617
N3945 X168.853 Y165.372
N3950 X169.009 Y154.323
N3955 X168.998 Y154.055
N3960 X168.967 Y153.788
N3965 X168.915 Y153.525
N3970 X168.842 Y153.267
N3975 X168.749 Y153.015
N3980 X168.638 Y152.772
N3985 X168.507 Y152.537
N3990 X168.358 Y152.314
N3995 X168.193 Y152.103
N4000 X168.011 Y151.906
N4005 X167.815 Y151.723
N4010 X167.604 Y151.557
N4015 X167.382 Y151.407
N4020 X167.148 Y151.275
N4025 X166.905 Y151.162
N4030 X166.654 Y151.068
N4035 X166.396 Y150.994
N4040 X166.133 Y150.941
N4045 X165.867 Y150.908
N4050 X165.629 Y150.896
N4055 X154.117 Y150.739
N4060 X153.802 Y150.749
N4065 X153.536 Y150.78
N4070 X153.273 Y150.833
N4075 X153.015 Y150.905
N4080 X152.763 Y150.998
N4085 X152.519 Y151.11
N4090 X152.285 Y151.241
N4095 X152.062 Y151.389
N4100 X151.851 Y151.555
N4105 X151.654 Y151.737
N4110 X151.471 Y151.933
N4115 X151.305 Y152.143
N4120 X151.155 Y152.366
N4125 X151.024 Y152.6
N4130 X150.911 Y152.843
N4135 X150.817 Y153.094
N4140 X150.743 Y153.352
N4145 X150.69 Y153.615
N4150 X150.658 Y153.881
N4155 X150.646 Y154.117
N4160 X150.486 Y166.178
N4165 X150.496 Y166.446
N4170 X150.528 Y166.713
N4175 X150.58 Y166.976
N4180 X150.652 Y167.234
N4185 X150.745 Y167.486
N4190 X150.857 Y167.729
N4195 X150.988 Y167.963
N4200 X151.136 Y168.187
N4205 X151.302 Y168.398
N4210 X151.483 Y168.595
N4215 X151.68 Y168.778
N4220 X151.89 Y168.944
N4225 X152.112 Y169.094
N4230 X152.346 Y169.226
N4235 X152.589 Y169.339
N4240 X152.84 Y169.433
N4245 X153.098 Y169.507
N4250 X153.361 Y169.56
N4255 X153.627 Y169.593
N4260 X153.867 Y169.604
N4265 X166.422 Y169.767
N4270 X166.69 Y169.757
N4275 X166.957 Y169.725
N4280 X167.22 Y169.673
N4285 X167.478 Y169.601
N4290 X167.73 Y169.508
N4295 X167.974 Y169.396
N4300 X168.208 Y169.266
N4305 X168.431 Y169.118
N4310 X168.643 Y168.952
N4315 X168.84 Y168.771
N4320 X169.023 Y168.575
N4325 X169.19 Y168.365
N4330 X169.34 Y168.143
N4335 X169.472 Y167.909
N4340 X169.586 Y167.666
N4345 X169.68 Y167.415
N4350 X169.755 Y167.158
N4355 X169.809 Y166.895
N4360 X169.842 Y166.629
N4365 X169.855 Y166.378
N4370 X170.02 Y153.319
N4375 X170.009 Y153.051
N4380 X169.978 Y152.785
N4385 X169.926 Y152.522
N4390 X169.853 Y152.264
N4395 X169.76 Y152.012
N4400 X169.648 Y151.768
N4405 X169.518 Y151.534
N4410 X169.369 Y151.311
N4415 X169.203 Y151.1
N4420 X169.022 Y150.903
N4425 X168.825 Y150.72
N4430 X168.615 Y150.554
N4435 X168.392 Y150.404
N4440 X168.159 Y150.272
N4445 X167.916 Y150.159
N4450 X167.664 Y150.066
N4455 X167.406 Y149.992
N4460 X167.144 Y149.939
N4465 X166.877 Y149.906
N4470 X166.637 Y149.895
N4475 X153.076 Y149.728
N4480 X152.808 Y149.738
N4485 X152.542 Y149.77
N4490 X152.278 Y149.822
N4495 X152.02 Y149.894
N4500 X151.768 Y149.986
N4505 X151.525 Y150.098
N4510 X151.29 Y150.229
N4515 X151.067 Y150.377
N4520 X150.856 Y150.542
N4525 X150.658 Y150.724
N4530 X150.475 Y150.92
N4535 X150.308 Y151.13
N4540 X150.158 Y151.352
N4545 X150.026 Y151.586
N4550 X149.913 Y151.829
N4555 X149.818 Y152.08
N4560 X149.744 Y152.337
N4565 X149.69 Y152.6
N4570 X149.657 Y152.866
N4575 X149.644 Y153.118
N4580 X149.475 Y167.182
N4585 X149.486 Y167.45
N4590 X149.517 Y167.716
N4595 X149.569 Y167.979
N4600 X149.642 Y168.237
N4605 X149.734 Y168.489
N4610 X149.846 Y168.733
N4615 X149.977 Y168.967
N4620 X150.126 Y169.19
N4625 X150.291 Y169.401
N4630 X150.473 Y169.598
N4635 X150.67 Y169.781
N4640 X150.88 Y169.947
N4645 X151.102 Y170.097
N4650 X151.336 Y170.229
N4655 X151.579 Y170.342
N4660 X151.83 Y170.435
N4665 X152.088 Y170.509
N4670 X152.351 Y170.562
N4675 X152.617 Y170.595
N4680 X152.86 Y170.606
N4685 X167.433 Y170.778
N4690 X167.701 Y170.767
N4695 X167.967 Y170.736
N4700 X168.231 Y170.683
N4705 X168.489 Y170.611
N4710 X168.74 Y170.518
N4715 X168.984 Y170.406
N4720 X169.218 Y170.275
N4725 X169.441 Y170.127
N4730 X169.652 Y169.961
N4735 X169.85 Y169.779
N4740 X170.032 Y169.583
N4745 X170.199 Y169.372
N4750 X170.348 Y169.15
N4755 X170.48 Y168.916
N4760 X170.593 Y168.673
N4765 X170.686 Y168.422
N4770 X170.76 Y168.164
N4775 X170.813 Y167.901
N4780 X170.846 Y167.635
N4785 X170.857 Y167.393
N4790 X171.03 Y152.322
N4795 X171.019 Y152.054
N4800 X170.988 Y151.788
N4805 X170.936 Y151.524
N4810 X170.863 Y151.266
N4815 X170.771 Y151.015
N4820 X170.659 Y150.771
N4825 X170.529 Y150.536
N4830 X170.38 Y150.313
N4835 X170.215 Y150.102
N4840 X170.033 Y149.905
N4845 X169.837 Y149.722
N4850 X169.627 Y149.555
N4855 X169.405 Y149.405
N4860 X169.171 Y149.273
N4865 X168.928 Y149.16
N4870 X168.677 Y149.066
N4875 X168.419 Y148.991
N4880 X168.156 Y148.938
N4885 X167.89 Y148.904
N4890 X167.639 Y148.892
N4895 X152.074 Y148.718
N4900 X151.806 Y148.728
N4905 X151.539 Y148.759
N4910 X151.276 Y148.812
N4915 X151.018 Y148.884
N4920 X150.766 Y148.976
N4925 X150.522 Y149.088
N4930 X150.288 Y149.219
N4935 X150.065 Y149.367
N4940 X149.853 Y149.532
N4945 X149.656 Y149.714
N4950 X149.473 Y149.91
N4955 X149.306 Y150.12
N4960 X149.156 Y150.342
N4965 X149.024 Y150.575
N4970 X148.91 Y150.818
N4975 X148.816 Y151.069
N4980 X148.741 Y151.327
N4985 X148.687 Y151.59
N4990 X148.654 Y151.856
N4995 X148.642 Y152.112
N5000 X148.465 Y168.178
N5005 X148.476 Y168.446
N5010 X148.507 Y168.713
N5015 X148.559 Y168.976
N5020 X148.632 Y169.234
N5025 X148.724 Y169.486
N5030 X148.836 Y169.729
N5035 X148.966 Y169.964
N5040 X149.115 Y170.187
N5045 X149.28 Y170.398
N5050 X149.462 Y170.596
N5055 X149.658 Y170.779
N5060 X149.868 Y170.945
N5065 X150.09 Y171.095
N5070 X150.323 Y171.228
N5075 X150.566 Y171.341
N5080 X150.818 Y171.435
N5085 X151.075 Y171.51
N5090 X151.338 Y171.564
N5095 X151.604 Y171.597
N5100 X151.859 Y171.609
N5105 X168.434 Y171.787
N5110 X168.702 Y171.777
N5115 X168.968 Y171.745
N5120 X169.231 Y171.693
N5125 X169.356 Y171.661
N5130 X169.393 Y171.65 Z-7.916
N5135 X169.457 Y171.631 Z-7.674
N5140 X169.489 Y171.621 Z-7.583
N5145 X169.551 Y171.6 Z-7.437
N5150 X169.612 Y171.578 Z-7.316
N5155 X169.673 Y171.555 Z-7.21
N5160 X169.735 Y171.53 Z-7.119
N5165 X169.809 Y171.499 Z-7.023
N5170 X169.883 Y171.466 Z-6.941
N5175 X169.969 Y171.424 Z-6.858
N5180 X170.053 Y171.38 Z-6.789
N5185 X170.149 Y171.327 Z-6.724
N5190 X170.243 Y171.27 Z-6.673
N5195 X170.386 Y171.176 Z-6.619
N5200 X170.548 Y171.057 Z-6.581
N5205 X170.648 Y170.975 Z-6.566
N5210 X170.746 Y170.889 Z-6.557
N5215 X170.889 Y170.751 Z-6.555
N5220 X171.025 Y170.603 Z-6.564
N5225 X171.109 Y170.502 Z-6.573
N5230 X171.189 Y170.398 Z-6.589
N5235 X171.257 Y170.303 Z-6.608
N5240 X171.321 Y170.205 Z-6.634
N5245 X171.438 Y170.008 Z-6.697
N5250 X171.497 Y169.896 Z-6.737
N5255 X171.551 Y169.782 Z-6.786
N5260 X171.595 Y169.683 Z-6.835
N5265 X171.635 Y169.582 Z-6.893
N5270 X171.67 Y169.485 Z-6.955
N5275 X171.73 Y169.297 Z-7.094
N5280 X171.754 Y169.206 Z-7.171
N5285 X171.777 Y169.109 Z-7.264
N5290 X171.798 Y169.012 Z-7.375
N5295 X171.811 Y168.939 Z-7.474
N5300 X171.823 Y168.865 Z-7.591
N5305 X171.831 Y168.807 Z-7.703
N5310 X171.838 Y168.748 Z-7.843
N5315 X171.845 Y168.687 Z-8.052
N5320 X171.846 Y168.668 Z-8.15
N5325 X171.86 Y168.397
N5330 X172.037 Y151.603
N5335 Y151.574 Z-7.998
N5340 Y151.536 Z-7.858
N5345 X172.038 Y151.497 Z-7.749
N5350 X172.039 Y151.426 Z-7.586
N5355 X172.04 Y151.319 Z-7.393
N5360 X172.037 Y151.18 Z-7.192
N5365 X172.028 Y151.036 Z-7.025
N5370 X172.019 Y150.946 Z-6.935
N5375 X172.008 Y150.856 Z-6.856
N5380 X171.993 Y150.755 Z-6.778
N5385 X171.975 Y150.656 Z-6.708
N5390 X171.952 Y150.548 Z-6.641
N5395 X171.893 Y150.327 Z-6.52
N5400 X171.857 Y150.216 Z-6.466
N5405 X171.781 Y150.013 Z-6.383
N5410 X171.731 Y149.898 Z-6.345
N5415 X171.618 Y149.673 Z-6.281
N5420 X171.555 Y149.562 Z-6.253
N5425 X171.43 Y149.367 Z-6.214
N5430 X171.354 Y149.261 Z-6.199
N5435 X171.189 Y149.058 Z-6.181
N5440 X171.101 Y148.961 Z-6.175
N5445 X170.929 Y148.792 Z-6.174
N5450 X170.777 Y148.661 Z-6.186
N5455 X170.631 Y148.548 Z-6.206
N5460 X170.535 Y148.48 Z-6.228
N5465 X170.438 Y148.417 Z-6.26
N5470 X170.34 Y148.358 Z-6.302
N5475 X170.245 Y148.304 Z-6.352
N5480 X170.148 Y148.254 Z-6.413
N5485 X170.057 Y148.21 Z-6.479
N5490 X169.965 Y148.168 Z-6.556
N5495 X169.881 Y148.134 Z-6.636
N5500 X169.796 Y148.101 Z-6.728
N5505 X169.72 Y148.074 Z-6.82
N5510 X169.644 Y148.049 Z-6.924
N5515 X169.578 Y148.029 Z-7.025
N5520 X169.511 Y148.01 Z-7.14
N5525 X169.399 Y147.981 Z-7.375
N5530 X169.308 Y147.961 Z-7.63
N5535 X169.275 Y147.954 Z-7.754
N5540 X169.241 Y147.948 Z-7.912
N5545 X169.208 Y147.942 Z-8.15
N5550 X168.943 Y147.905
N5555 X168.645 Y147.889
N5560 X151.069 Y147.708
N5565 X150.801 Y147.719
N5570 X150.535 Y147.75
N5575 X150.272 Y147.802
N5580 X150.014 Y147.875
N5585 X149.762 Y147.967
N5590 X149.518 Y148.079
N5595 X149.284 Y148.209
N5600 X149.06 Y148.358
N5605 X148.849 Y148.523
N5610 X148.652 Y148.705
N5615 X148.469 Y148.901
N5620 X148.302 Y149.111
N5625 X148.152 Y149.333
N5630 X148.02 Y149.566
N5635 X147.906 Y149.809
N5640 X147.812 Y150.061
N5645 X147.738 Y150.318
N5650 X147.684 Y150.581
N5655 X147.651 Y150.847
N5660 X147.638 Y151.105
N5665 X147.456 Y169.184
N5670 X147.466 Y169.452
N5675 X147.498 Y169.718
N5680 X147.55 Y169.981 Z-8.148
N5685 X147.62 Y170.231 Z-8.142
N5690 X147.712 Y170.483 Z-8.138
N5695 X147.823 Y170.727 Z-8.134
N5700 X147.953 Y170.962 Z-8.132
N5705 X148.101 Y171.186
N5710 X148.266 Y171.397
N5715 X148.447 Y171.595 Z-8.134
N5720 X148.643 Y171.778 Z-8.137
N5725 X148.852 Y171.945 Z-8.142
N5730 X149.074 Y172.096 Z-8.147
N5735 X149.308 Y172.228 Z-8.15
N5740 X149.55 Y172.342
N5745 X149.801 Y172.437
N5750 X150.059 Y172.512
N5755 X150.321 Y172.566
N5760 X150.625 Y172.603
N5765 X150.654 Y172.605 Z-8.049
N5770 X150.719 Y172.609 Z-7.905
N5775 X150.785 Y172.611 Z-7.805
N5780 X150.851 Y172.613 Z-7.732
N5785 X150.946 Z-7.652
N5790 X151.04 Y172.614 Z-7.592
N5795 X151.155 Y172.616 Z-7.537
N5800 X151.27 Y172.617 Z-7.501
N5805 X151.397 Y172.618 Z-7.479
N5810 X151.525 Y172.619 Z-7.474
N5815 X151.658 Y172.621 Z-7.489
N5820 X151.791 Y172.622 Z-7.523
N5825 X151.903 Y172.623 Z-7.57
N5830 X152.015 Y172.624 Z-7.635
N5835 X152.112 Y172.625 Z-7.712
N5840 X152.21 Y172.626 Z-7.814
N5845 X152.284 Y172.627 Z-7.92
N5850 X152.359 Z-8.074
N5855 X152.385 Y172.628 Z-8.15
N5860 X169.089 Y172.793
N5865 X169.128 Z-7.862
N5870 X169.183 Y172.794 Z-7.617
N5875 X169.284 Y172.795 Z-7.311
N5880 X169.406 Y172.796 Z-7.038
N5885 X169.502 Z-6.864
N5890 X169.637 Y172.791 Z-6.659
N5895 X169.789 Y172.779 Z-6.464
N5900 X169.958 Y172.757 Z-6.281
N5905 X170.046 Y172.742 Z-6.197
N5910 X170.143 Y172.724 Z-6.114
N5915 X170.238 Y172.702 Z-6.038
N5920 X170.341 Y172.676 Z-5.964
N5925 X170.442 Y172.646 Z-5.897
N5930 X170.55 Y172.612 Z-5.834
N5935 X170.656 Y172.573 Z-5.778
N5940 X170.767 Y172.529 Z-5.727
N5945 X170.876 Y172.481 Z-5.683
N5950 X170.988 Y172.426 Z-5.645
N5955 X171.098 Y172.368 Z-5.615
N5960 X171.209 Y172.304 Z-5.591
N5965 X171.386 Y172.19 Z-5.568
N5970 X171.531 Y172.084 Z-5.559
N5975 X171.733 Y171.915 Z-5.552
N5980 X171.925 Y171.727
N5985 X172.102 Y171.526 Z-5.556
N5990 X172.262 Y171.311 Z-5.566
N5995 X172.389 Y171.112 Z-5.581
N6000 X172.501 Y170.905 Z-5.601
N6005 X172.61 Y170.667 Z-5.629
N6010 X172.691 Y170.447 Z-5.663
N6015 X172.756 Y170.224 Z-5.707
N6020 X172.786 Y170.098 Z-5.734
N6025 X172.829 Y169.858 Z-5.794
N6030 X172.854 Y169.633 Z-5.865
N6035 X172.863 Y169.406 Z-5.952
N6040 X172.868 Y168.973 Z-6.145
N6045 X172.871 Y168.657 Z-6.313
N6050 X172.875 Y168.242 Z-6.574
N6055 X172.878 Y167.94 Z-6.799
N6060 X172.879 Y167.758 Z-6.96
N6065 X172.882 Y167.495 Z-7.234
N6070 X172.884 Y167.331 Z-7.442
N6075 X172.885 Y167.196 Z-7.661
N6080 Y167.134 Z-7.789
N6085 X172.886 Y167.087 Z-7.909
N6090 Y167.028 Z-8.133
N6095 X172.887 Y167.024 Z-8.15
N6100 X173.021 Y153.224
N6105 Y153.179 Z-7.972
N6110 X173.022 Y153.076 Z-7.714
N6115 X173.023 Y152.964 Z-7.51
N6120 X173.024 Y152.826 Z-7.313
N6125 X173.026 Y152.664 Z-7.127
N6130 X173.028 Y152.485 Z-6.951
N6135 X173.031 Y152.096 Z-6.635
N6140 X173.034 Y151.787 Z-6.427
N6145 X173.038 Y151.391 Z-6.205
N6150 X173.042 Y151.004 Z-6.017
N6155 X173.046 Y150.581 Z-5.849
N6160 X173.049 Y150.314 Z-5.755
N6165 X173.046 Y150.189 Z-5.717
N6170 X173.039 Y150.064 Z-5.683
N6175 X173.028 Y149.937 Z-5.652
N6180 X173.012 Y149.811 Z-5.625
N6185 X172.964 Y149.557 Z-5.58
N6190 X172.897 Y149.307 Z-5.542
N6195 X172.811 Y149.061 Z-5.514
N6200 X172.699 Y148.806 Z-5.493
N6205 X172.583 Y148.589 Z-5.478
N6210 X172.458 Y148.39 Z-5.468
N6215 X172.299 Y148.174 Z-5.462
N6220 X172.123 Y147.971 Z-5.458
N6225 X171.932 Y147.783
N6230 X171.728 Y147.61 Z-5.462
N6235 X171.623 Y147.531 Z-5.466
N6240 X171.516 Y147.457 Z-5.475
N6245 X171.417 Y147.394 Z-5.488
N6250 X171.316 Y147.334 Z-5.508
N6255 X171.214 Y147.278 Z-5.532
N6260 X171.11 Y147.226 Z-5.563
N6265 X171.007 Y147.179 Z-5.598
N6270 X170.903 Y147.134 Z-5.64
N6275 X170.8 Y147.095 Z-5.685
N6280 X170.696 Y147.059 Z-5.737
N6285 X170.596 Y147.027 Z-5.792
N6290 X170.494 Y146.999 Z-5.854
N6295 X170.298 Y146.953 Z-5.989
N6300 X170.11 Y146.921 Z-6.142
N6305 X169.934 Y146.9 Z-6.311
N6310 X169.77 Y146.889 Z-6.495
N6315 X169.653 Y146.886 Z-6.646
N6320 X169.515 Y146.884 Z-6.855
N6325 X169.393 Y146.883 Z-7.078
N6330 X169.289 Y146.882 Z-7.316
N6335 X169.203 Y146.881 Z-7.568
N6340 X169.138 Z-7.843
N6345 X169.095 Y146.88 Z-8.15
N6350 X153.722 Y146.734
N6355 X153.668 Y146.733 Z-7.953
N6360 X153.581 Z-7.751
N6365 X153.46 Y146.731 Z-7.548
N6370 X153.334 Y146.73 Z-7.369
N6375 X153.173 Y146.729 Z-7.181
N6380 X152.992 Y146.727 Z-7.006
N6385 X152.796 Y146.725 Z-6.843
N6390 X152.589 Y146.723 Z-6.692
N6395 X152.37 Y146.721 Z-6.565
N6400 X152.136 Y146.719 Z-6.464
N6405 X151.888 Y146.716 Z-6.392
N6410 X151.631 Y146.714 Z-6.352
N6415 X151.37 Y146.712 Z-6.345
N6420 X151.237 Y146.71 Z-6.354
N6425 X150.987 Y146.708 Z-6.395
N6430 X150.757 Y146.706 Z-6.462
N6435 X150.535 Y146.704 Z-6.555
N6440 X150.324 Y146.702 Z-6.675
N6445 X150.221 Y146.701 Z-6.746
N6450 X150.065 Y146.699 Z-6.875
N6455 X149.978 Y146.7 Z-6.961
N6460 X149.854 Y146.706 Z-7.109
N6465 X149.744 Y146.714 Z-7.272
N6470 X149.683 Y146.721 Z-7.379
N6475 X149.622 Y146.728 Z-7.504
N6480 X149.573 Y146.735 Z-7.62
N6485 X149.525 Y146.742 Z-7.761
N6490 X149.49 Y146.748 Z-7.888
N6495 X149.447 Y146.755 Z-8.124
N6500 X149.191 Y146.812 Z-8.113
N6505 X148.939 Y146.889 Z-8.103
N6510 X148.691 Y146.986 Z-8.094
N6515 X148.45 Y147.103 Z-8.086
N6520 X148.218 Y147.239 Z-8.08
N6525 X147.998 Y147.392 Z-8.074
N6530 X147.791 Y147.561 Z-8.07
N6535 X147.597 Y147.747 Z-8.067
N6540 X147.418 Y147.947 Z-8.065
N6545 X147.256 Y148.16
N6550 X147.111 Y148.386 Z-8.066
N6555 X146.984 Y148.622 Z-8.068
N6560 X146.875 Y148.867 Z-8.072
N6565 X146.786 Y149.12 Z-8.076
N6570 X146.717 Y149.38 Z-8.082
N6575 X146.669 Y149.643 Z-8.09
N6580 X146.642 Y149.91 Z-8.098
N6585 X146.635 Y150.098 Z-8.105
N6590 X146.622 Y151.426 Z-8.15
N6595 X146.463 Y168.46 Z-8.149
N6600 X146.447 Y170.186 Z-8.085
N6605 X146.457 Y170.451 Z-8.075
N6610 X146.488 Y170.718 Z-8.067
N6615 X146.54 Y170.981 Z-8.06
N6620 X146.613 Y171.239 Z-8.054
N6625 X146.705 Y171.491 Z-8.05
N6630 X146.816 Y171.735 Z-8.046
N6635 X146.947 Y171.969 Z-8.044
N6640 X147.095 Y172.193
N6645 X147.26 Y172.404
N6650 X147.442 Y172.602 Z-8.046
N6655 X147.638 Y172.785 Z-8.049
N6660 X147.848 Y172.952 Z-8.054
N6665 X148.07 Y173.102 Z-8.06
N6670 X148.303 Y173.234 Z-8.067
N6675 X148.546 Y173.348 Z-8.075
N6680 X148.797 Y173.442 Z-8.084
N6685 X149.073 Y173.521 Z-8.095
N6690 X149.109 Y173.529 Z-7.887
N6695 X149.167 Y173.542 Z-7.677
N6700 X149.249 Y173.558 Z-7.465
N6705 X149.355 Y173.577 Z-7.255
N6710 X149.487 Y173.594 Z-7.054
N6715 X149.565 Y173.602 Z-6.955
N6720 X149.643 Y173.609 Z-6.866
N6725 X149.733 Y173.613 Z-6.775
N6730 X149.846 Y173.616 Z-6.673
N6735 X150.126 Y173.619 Z-6.457
N6740 X150.258 Y173.62 Z-6.371
N6745 X150.483 Y173.622 Z-6.252
N6750 X150.722 Y173.624 Z-6.156
N6755 X150.971 Y173.627 Z-6.087
N6760 X151.227 Y173.629 Z-6.045
N6765 X151.489 Y173.631 Z-6.031
N6770 X151.757 Y173.634 Z-6.047
N6775 X151.991 Y173.636 Z-6.087
N6780 X152.222 Y173.638 Z-6.15
N6785 X152.446 Y173.64 Z-6.237
N6790 X152.875 Y173.644 Z-6.443
N6795 X153.186 Y173.647 Z-6.619
N6800 X153.596 Y173.651 Z-6.882
N6805 X153.8 Y173.653 Z-7.035
N6810 X153.984 Y173.654 Z-7.194
N6815 X154.238 Y173.657 Z-7.447
N6820 X154.326 Z-7.55
N6825 X154.415 Y173.658 Z-7.669
N6830 X154.482 Y173.659 Z-7.775
N6835 X154.548 Z-7.903
N6840 X154.618 Y173.66 Z-8.094
N6845 X154.634 Z-8.15
N6850 X169.225 Y173.794 Z-8.146
N6855 X169.265 Z-7.859
N6860 X169.339 Y173.795 Z-7.565
N6865 X169.437 Y173.796 Z-7.292
N6870 X169.538 Y173.797 Z-7.076
N6875 X169.659 Y173.798 Z-6.865
N6880 X169.798 Y173.799 Z-6.663
N6885 X169.955 Y173.801 Z-6.47
N6890 X170.129 Y173.802 Z-6.289
N6895 X170.315 Y173.804 Z-6.125
N6900 X170.44 Y173.805 Z-6.028
N6905 X170.652 Y173.799 Z-5.884
N6910 X170.763 Y173.79 Z-5.817
N6915 X170.873 Y173.778 Z-5.755
N6920 X170.988 Y173.761 Z-5.697
N6925 X171.103 Y173.74 Z-5.645
N6930 X171.221 Y173.715 Z-5.596
N6935 X171.338 Y173.685 Z-5.553
N6940 X171.458 Y173.651 Z-5.515
N6945 X171.576 Y173.611 Z-5.482
N6950 X171.696 Y173.567 Z-5.454
N6955 X171.814 Y173.518 Z-5.433
N6960 X171.932 Y173.463 Z-5.416
N6965 X172.048 Y173.404 Z-5.406
N6970 X172.211 Y173.312 Z-5.4
N6975 X172.435 Y173.165
N6980 X172.647 Y173.
N6985 X172.845 Y172.819
N6990 X173.029 Y172.624
N6995 X173.197 Y172.415
N7000 X173.347 Y172.193
N7005 X173.48 Y171.96
N7010 X173.595 Y171.717
N7015 X173.69 Y171.467
N7020 X173.765 Y171.209
N7025 X173.82 Y170.947
N7030 X173.846 Y170.764 Z-5.403
N7035 X173.865 Y170.498 Z-5.413
N7040 X173.87 Y170.056 Z-5.449
N7045 X173.875 Y169.587 Z-5.509
N7050 X173.88 Y169.006 Z-5.618
N7055 X173.884 Y168.545 Z-5.727
N7060 X173.889 Y167.965 Z-5.898
N7065 X173.893 Y167.504 Z-6.059
N7070 X173.899 Y166.93 Z-6.292
N7075 X173.903 Y166.502 Z-6.501
N7080 X173.904 Y166.294 Z-6.624
N7085 X173.906 Y166.098 Z-6.772
N7090 X173.908 Y165.918 Z-6.944
N7095 X173.909 Y165.757 Z-7.139
N7100 X173.91 Y165.618 Z-7.355
N7105 X173.912 Y165.502 Z-7.595
N7110 Y165.458 Z-7.715
N7115 Y165.413 Z-7.864
N7120 X173.913 Y165.364 Z-8.118
N7125 Y165.359 Z-8.15
N7130 X174.009 Y154.73
N7135 Y154.705 Z-7.985
N7140 Y154.667 Z-7.818
N7145 X174.01 Y154.588 Z-7.575
N7150 Y154.546 Z-7.475
N7155 X174.011 Y154.461 Z-7.306
N7160 X174.012 Y154.334 Z-7.102
N7165 X174.013 Y154.184 Z-6.91
N7170 X174.015 Y154.01 Z-6.733
N7175 X174.017 Y153.817 Z-6.574
N7180 X174.019 Y153.604 Z-6.437
N7185 X174.022 Y153.257 Z-6.266
N7190 X174.025 Y152.896 Z-6.116
N7195 X174.031 Y152.292 Z-5.899
N7200 X174.035 Y151.803 Z-5.755
N7205 X174.04 Y151.294 Z-5.628
N7210 X174.044 Y150.78 Z-5.529
N7215 X174.049 Y150.26 Z-5.455
N7220 X174.054 Y149.737 Z-5.412
N7225 X174.057 Y149.301 Z-5.4
N7230 X174.047 Y149.033
N7235 X174.015 Y148.767
N7240 X173.963 Y148.504
N7245 X173.89 Y148.246
N7250 X173.797 Y147.994
N7255 X173.685 Y147.75
N7260 X173.554 Y147.516
N7265 X173.405 Y147.293
N7270 X173.239 Y147.083
N7275 X173.057 Y146.886
N7280 X172.86 Y146.703
N7285 X172.65 Y146.537
N7290 X172.427 Y146.388
N7295 X172.252 Y146.288 Z-5.401
N7300 X172.09 Y146.206 Z-5.412
N7305 X171.982 Y146.158 Z-5.424
N7310 X171.874 Y146.113 Z-5.442
N7315 X171.764 Y146.073 Z-5.464
N7320 X171.654 Y146.037 Z-5.491
N7325 X171.544 Y146.004 Z-5.522
N7330 X171.433 Y145.976 Z-5.558
N7335 X171.324 Y145.952 Z-5.598
N7340 X171.107 Y145.914 Z-5.691
N7345 X170.894 Y145.891 Z-5.801
N7350 X170.728 Y145.883 Z-5.901
N7355 X170.469 Y145.88 Z-6.084
N7360 X170.284 Y145.878 Z-6.242
N7365 X170.11 Y145.877 Z-6.415
N7370 X169.95 Y145.875 Z-6.603
N7375 X169.804 Y145.874 Z-6.805
N7380 X169.674 Y145.873 Z-7.022
N7385 X169.562 Y145.872 Z-7.253
N7390 X169.468 Y145.871 Z-7.5
N7395 X169.394 Y145.87 Z-7.766
N7400 X169.368 Z-7.895
N7405 X169.336 Z-8.124
N7410 X167.727 Y145.856 Z-8.15
N7415 X156.464 Y145.756 Z-8.146
N7420 X156.418 Z-8.037
N7425 X156.377 Y145.755 Z-7.96
N7430 X156.31 Z-7.859
N7435 X156.157 Y145.753 Z-7.682
N7440 X155.909 Y145.751 Z-7.439
N7445 X155.711 Y145.749 Z-7.281
N7450 X155.388 Y145.747 Z-7.069
N7455 X155.079 Y145.744 Z-6.876
N7460 X154.734 Y145.741 Z-6.693
N7465 X154.273 Y145.737 Z-6.468
N7470 X153.681 Y145.731 Z-6.221
N7475 X153.216 Y145.727 Z-6.049
N7480 X152.618 Y145.722 Z-5.857
N7485 X152.08 Y145.717 Z-5.716
N7490 X151.855 Y145.715 Z-5.673
N7495 X151.595 Y145.713 Z-5.647
N7500 X151.331 Y145.711 Z-5.646
N7505 X151.079 Y145.708 Z-5.669
N7510 X150.845 Y145.706 Z-5.711
N7515 X150.558 Y145.704 Z-5.793
N7520 X150.168 Y145.7 Z-5.936
N7525 X149.84 Y145.697 Z-6.079
N7530 X149.523 Y145.695 Z-6.243
N7535 X149.216 Y145.692 Z-6.431
N7540 X149.059 Y145.691 Z-6.541
N7545 X148.964 Y145.692 Z-6.615
N7550 X148.869 Y145.696 Z-6.698
N7555 X148.783 Y145.702 Z-6.781
N7560 X148.696 Y145.71 Z-6.875
N7565 X148.618 Y145.719 Z-6.968
N7570 X148.541 Y145.73 Z-7.073
N7575 X148.474 Y145.741 Z-7.176
N7580 X148.408 Y145.753 Z-7.292
N7585 X148.352 Y145.764 Z-7.403
N7590 X148.297 Y145.776 Z-7.531
N7595 X148.254 Y145.786 Z-7.65
N7600 X148.212 Y145.797 Z-7.796
N7605 X148.164 Y145.809 Z-8.024
N7610 X147.901 Y145.892 Z-8.014
N7615 X147.654 Y145.992 Z-8.005
N7620 X147.414 Y146.111 Z-7.998
N7625 X147.184 Y146.249 Z-7.991
N7630 X146.965 Y146.404 Z-7.986
N7635 X146.759 Y146.576 Z-7.981
N7640 X146.568 Y146.764 Z-7.979
N7645 X146.391 Y146.966 Z-7.977
N7650 X146.231 Y147.181
N7655 X146.088 Y147.408 Z-7.978
N7660 X145.963 Y147.645 Z-7.981
N7665 X145.858 Y147.892 Z-7.984
N7670 X145.772 Y148.146 Z-7.989
N7675 X145.705 Y148.406 Z-7.995
N7680 X145.66 Y148.67 Z-8.003
N7685 X145.635 Y148.937 Z-8.011
N7690 X145.631 Y149.089 Z-8.017
N7695 X145.598 Y152.807 Z-8.15
N7700 X145.57 Y156.035
N7705 Y156.093 Z-8.032
N7710 X145.569 Y156.134 Z-7.974
N7715 Y156.214 Z-7.886
N7720 X145.568 Y156.294 Z-7.822
N7725 X145.567 Y156.403 Z-7.761
N7730 X145.566 Y156.511 Z-7.723
N7735 X145.565 Y156.639 Z-7.702
N7740 X145.564 Y156.766 Z-7.705
N7745 X145.563 Y156.896 Z-7.732
N7750 X145.562 Y157.027 Z-7.788
N7755 X145.56 Y157.156 Z-7.88
N7760 Y157.234 Z-7.954
N7765 X145.559 Y157.315 Z-8.05
N7770 Y157.382 Z-8.15
N7775 X145.515 Y162.363 Z-8.148
N7780 Y162.407 Z-8.07
N7785 X145.514 Y162.48 Z-7.97
N7790 X145.513 Y162.564 Z-7.879
N7795 X145.512 Y162.748 Z-7.722
N7800 X145.51 Y162.902 Z-7.617
N7805 X145.509 Y163.066 Z-7.542
N7810 X145.508 Y163.19 Z-7.508
N7815 X145.507 Y163.314 Z-7.493
N7820 X145.506 Y163.445 Z-7.496
N7825 X145.505 Y163.577 Z-7.518
N7830 X145.504 Y163.691 Z-7.554
N7835 X145.503 Y163.806 Z-7.608
N7840 X145.502 Y163.909 Z-7.675
N7845 X145.501 Y164.012 Z-7.766
N7850 X145.5 Y164.094 Z-7.863
N7855 X145.499 Y164.177 Z-8.
N7860 Y164.235 Z-8.15
N7865 X145.473 Y167.201 Z-8.145
N7870 X145.439 Y171.188 Z-7.997
N7875 X145.449 Y171.453 Z-7.988
N7880 X145.48 Y171.72 Z-7.979
N7885 X145.532 Y171.983 Z-7.972
N7890 X145.604 Y172.241 Z-7.967
N7895 X145.696 Y172.493 Z-7.962
N7900 X145.808 Y172.737 Z-7.959
N7905 X145.938 Y172.971 Z-7.957
N7910 X146.086 Y173.195 Z-7.956
N7915 X146.251 Y173.406
N7920 X146.433 Y173.604 Z-7.958
N7925 X146.629 Y173.787 Z-7.962
N7930 X146.838 Y173.954 Z-7.966
N7935 X147.06 Y174.104 Z-7.972
N7940 X147.294 Y174.237 Z-7.979
N7945 X147.536 Y174.351 Z-7.987
N7950 X147.81 Y174.453 Z-7.997
N7955 X147.854 Y174.467 Z-7.781
N7960 X147.918 Y174.486 Z-7.568
N7965 X148.005 Y174.51 Z-7.354
N7970 X148.116 Y174.537 Z-7.145
N7975 X148.251 Y174.564 Z-6.945
N7980 X148.409 Y174.589 Z-6.757
N7985 X148.498 Y174.6 Z-6.667
N7990 X148.588 Y174.609 Z-6.585
N7995 X148.688 Y174.616 Z-6.504
N8000 X148.842 Y174.62 Z-6.394
N8005 X149.174 Y174.623 Z-6.194
N8010 X149.522 Y174.626 Z-6.02
N8015 X149.883 Y174.629 Z-5.87
N8020 X150.252 Y174.633 Z-5.742
N8025 X150.63 Y174.636 Z-5.636
N8030 X151.013 Y174.639 Z-5.554
N8035 X151.273 Y174.641 Z-5.524
N8040 X151.535 Y174.644 Z-5.518
N8045 X151.803 Y174.646 Z-5.536
N8050 X152.387 Y174.651 Z-5.631
N8055 X153.222 Y174.658 Z-5.811
N8060 X154.048 Y174.665 Z-6.03
N8065 X154.977 Y174.673 Z-6.315
N8070 X155.786 Y174.68 Z-6.592
N8075 X156.133 Y174.683 Z-6.717
N8080 X156.59 Y174.687 Z-6.886
N8085 X156.81 Y174.689 Z-6.97
N8090 X157.277 Y174.693 Z-7.143
N8095 X157.495 Y174.694 Z-7.23
N8100 X157.964 Y174.698 Z-7.398
N8105 X158.292 Y174.701 Z-7.539
N8110 X158.397 Y174.702 Z-7.603
N8115 X158.501 Y174.703 Z-7.688
N8120 X158.587 Y174.704 Z-7.78
N8125 X158.673 Y174.705 Z-7.902
N8130 X158.734 Z-8.022
N8135 X158.779 Z-8.15
N8140 X166.165 Y174.769 Z-8.147
N8145 X169.558 Y174.798 Z-8.079
N8150 X169.585 Z-7.894
N8155 X169.652 Z-7.607
N8160 X169.719 Y174.799 Z-7.404
N8165 X169.825 Y174.8 Z-7.155
N8170 X169.939 Y174.801 Z-6.941
N8175 X170.072 Y174.802 Z-6.734
N8180 X170.223 Y174.803 Z-6.537
N8185 X170.392 Y174.805 Z-6.352
N8190 X170.576 Y174.806 Z-6.179
N8195 X170.775 Y174.808 Z-6.021
N8200 X170.988 Y174.81 Z-5.879
N8205 X171.212 Y174.812 Z-5.754
N8210 X171.437 Y174.813 Z-5.651
N8215 X171.559 Y174.811 Z-5.603
N8220 X171.68 Y174.805 Z-5.56
N8225 X171.804 Y174.794 Z-5.522
N8230 X171.928 Y174.778 Z-5.488
N8235 X172.054 Y174.758 Z-5.46
N8240 X172.179 Y174.732 Z-5.437
N8245 X172.305 Y174.702 Z-5.419
N8250 X172.43 Y174.667 Z-5.407
N8255 X172.63 Y174.6 Z-5.4
N8260 X172.877 Y174.497
N8265 X173.116 Y174.375
N8270 X173.345 Y174.235
N8275 X173.562 Y174.077
N8280 X173.766 Y173.903
N8285 X173.956 Y173.714
N8290 X174.13 Y173.51
N8295 X174.289 Y173.294
N8300 X174.429 Y173.065
N8305 X174.552 Y172.827
N8310 X174.655 Y172.579
N8315 X174.739 Y172.324
N8320 X174.803 Y172.064
N8325 X174.846 Y171.799
N8330 X174.868 Y171.532
N8335 X174.882 Y170.201
N8340 X174.89 Y169.244 Z-5.403
N8345 X174.895 Y168.632 Z-5.434
N8350 X174.9 Y168.044 Z-5.491
N8355 X174.906 Y167.342 Z-5.59
N8360 X174.91 Y166.876 Z-5.676
N8365 X174.912 Y166.646 Z-5.738
N8370 X174.913 Y166.421 Z-5.82
N8375 X174.915 Y166.203 Z-5.922
N8380 X174.917 Y165.994 Z-6.042
N8385 X174.919 Y165.794 Z-6.182
N8390 X174.92 Y165.607 Z-6.338
N8395 X174.922 Y165.433 Z-6.512
N8400 X174.923 Y165.273 Z-6.703
N8405 X174.924 Y165.13 Z-6.909
N8410 X174.925 Y165.004 Z-7.13
N8415 X174.926 Y164.896 Z-7.367
N8420 X174.927 Y164.809 Z-7.621
N8425 X174.928 Y164.743 Z-7.901
N8430 Y164.709 Z-8.15
N8435 X175.007 Y155.32
N8440 Y155.272 Z-7.825
N8445 X175.008 Y155.189 Z-7.513
N8450 X175.009 Y155.107 Z-7.294
N8455 Y155.004 Z-7.078
N8460 X175.01 Y154.882 Z-6.868
N8465 X175.012 Y154.74 Z-6.666
N8470 X175.013 Y154.579 Z-6.476
N8475 X175.014 Y154.401 Z-6.299
N8480 X175.016 Y154.207 Z-6.137
N8485 X175.018 Y153.997 Z-5.993
N8490 X175.02 Y153.774 Z-5.867
N8495 X175.022 Y153.54 Z-5.761
N8500 X175.024 Y153.295 Z-5.677
N8505 X175.026 Y152.987 Z-5.604
N8510 X175.031 Y152.395 Z-5.514
N8515 X175.037 Y151.743 Z-5.444
N8520 X175.042 Y151.087 Z-5.406
N8525 X175.049 Y150.339 Z-5.4
N8530 X175.066 Y148.298
N8535 X175.055 Y148.03
N8540 X175.024 Y147.763
N8545 X174.971 Y147.5
N8550 X174.899 Y147.242
N8555 X174.806 Y146.99
N8560 X174.694 Y146.747
N8565 X174.563 Y146.513
N8570 X174.414 Y146.289
N8575 X174.248 Y146.079
N8580 X174.066 Y145.882
N8585 X173.87 Y145.699
N8590 X173.659 Y145.533
N8595 X173.437 Y145.384
N8600 X173.203 Y145.252
N8605 X172.959 Y145.14
N8610 X172.708 Y145.046
N8615 X172.596 Y145.012 Z-5.404
N8620 X172.484 Y144.982 Z-5.412
N8625 X172.369 Y144.955 Z-5.425
N8630 X172.254 Y144.932 Z-5.442
N8635 X172.139 Y144.913 Z-5.464
N8640 X172.024 Y144.898 Z-5.491
N8645 X171.795 Y144.881 Z-5.556
N8650 X171.563 Y144.877 Z-5.64
N8655 X171.344 Y144.875 Z-5.739
N8660 X171.133 Y144.873 Z-5.854
N8665 X170.93 Y144.871 Z-5.985
N8670 X170.737 Y144.87 Z-6.132
N8675 X170.556 Y144.868 Z-6.294
N8680 X170.386 Y144.867 Z-6.472
N8685 X170.231 Y144.866 Z-6.664
N8690 X170.09 Y144.864 Z-6.871
N8695 X169.966 Y144.863 Z-7.091
N8700 X169.859 Y144.862 Z-7.325
N8705 X169.772 Z-7.575
N8710 X169.705 Y144.861 Z-7.844
N8715 X169.671 Z-8.057
N8720 X164.574 Y144.819 Z-8.15
N8725 X159.705 Y144.779
N8730 X159.679 Y144.778 Z-7.996
N8735 X159.612 Z-7.758
N8740 X159.545 Y144.777 Z-7.593
N8745 X159.437 Y144.776 Z-7.392
N8750 X159.3 Y144.775 Z-7.196
N8755 X159.136 Y144.774 Z-7.015
N8760 X158.947 Y144.772 Z-6.854
N8765 X158.736 Y144.771 Z-6.717
N8770 X158.507 Y144.769 Z-6.608
N8775 X158.263 Y144.767 Z-6.529
N8780 X157.491 Y144.76 Z-6.385
N8785 X157.116 Y144.757 Z-6.311
N8790 X156.485 Y144.752 Z-6.182
N8795 X154.764 Y144.738 Z-5.82
N8800 X153.757 Y144.729 Z-5.637
N8805 X152.873 Y144.722 Z-5.511
N8810 X152.089 Y144.716 Z-5.435
N8815 X151.498 Y144.711 Z-5.406
N8820 X151.164 Y144.708 Z-5.417
N8825 X150.694 Y144.704 Z-5.46
N8830 X150.226 Y144.7 Z-5.528
N8835 X149.762 Y144.696 Z-5.624
N8840 X149.304 Y144.693 Z-5.748
N8845 X148.856 Y144.689 Z-5.903
N8850 X148.527 Y144.686 Z-6.042
N8855 X148.206 Y144.683 Z-6.201
N8860 X148.059 Y144.682 Z-6.284
N8865 X147.958 Y144.684 Z-6.347
N8870 X147.856 Y144.688 Z-6.416
N8875 X147.761 Y144.695 Z-6.489
N8880 X147.665 Y144.705 Z-6.569
N8885 X147.577 Y144.716 Z-6.651
N8890 X147.49 Y144.73 Z-6.741
N8895 X147.411 Y144.744 Z-6.832
N8900 X147.263 Y144.776 Z-7.033
N8905 X147.136 Y144.809 Z-7.252
N8910 X147.03 Y144.84 Z-7.49
N8915 X146.951 Y144.866 Z-7.739
N8920 X146.927 Y144.874 Z-7.838
N8925 X146.691 Y144.967 Z-7.774
N8930 X146.46 Y145.077 Z-7.717
N8935 X146.237 Y145.206 Z-7.668
N8940 X146.023 Y145.351 Z-7.627
N8945 X145.82 Y145.514 Z-7.595
N8950 X145.628 Y145.691 Z-7.571
N8955 X145.45 Y145.884 Z-7.557
N8960 X145.286 Y146.092 Z-7.552
N8965 X145.136 Y146.315 Z-7.557
N8970 X145.069 Y146.429 Z-7.563
N8975 X144.954 Y146.652 Z-7.581
N8980 X144.856 Y146.88 Z-7.608
N8985 X144.771 Y147.127 Z-7.644
N8990 X144.706 Y147.378 Z-7.689
N8995 X144.66 Y147.633 Z-7.742
N9000 X144.634 Y147.888 Z-7.802
N9005 X144.626 Y148.088 Z-7.854
N9010 X144.624 Y148.408 Z-7.941
N9015 X144.576 Y154.295 Z-8.15
N9020 X144.575 Y154.378
N9025 Y154.407 Z-7.958
N9030 X144.574 Y154.463 Z-7.731
N9035 Y154.52 Z-7.567
N9040 X144.573 Y154.583 Z-7.419
N9045 X144.572 Y154.709 Z-7.185
N9050 X144.571 Y154.846 Z-6.986
N9055 X144.57 Y155.006 Z-6.8
N9060 X144.568 Y155.188 Z-6.63
N9065 X144.567 Y155.388 Z-6.479
N9070 X144.565 Y155.606 Z-6.349
N9075 X144.563 Y155.838 Z-6.244
N9080 X144.561 Y156.083 Z-6.164
N9085 X144.559 Y156.337 Z-6.111
N9090 X144.557 Y156.596 Z-6.087
N9095 X144.555 Y156.861 Z-6.093
N9100 X144.547 Y157.814 Z-6.222
N9105 X144.541 Y158.544 Z-6.3
N9110 X144.535 Y159.277 Z-6.348
N9115 X144.529 Y160.05 Z-6.358
N9120 X144.523 Y160.803 Z-6.329
N9125 X144.517 Y161.562 Z-6.264
N9130 X144.511 Y162.319 Z-6.169
N9135 X144.504 Y163.072 Z-6.059
N9140 X144.502 Y163.333 Z-6.042
N9145 X144.5 Y163.601 Z-6.055
N9150 X144.498 Y163.836 Z-6.092
N9155 X144.496 Y164.067 Z-6.153
N9160 X144.494 Y164.292 Z-6.238
N9165 X144.493 Y164.508 Z-6.345
N9170 X144.491 Y164.714 Z-6.475
N9175 X144.489 Y164.907 Z-6.627
N9180 X144.488 Y165.084 Z-6.8
N9185 X144.487 Y165.244 Z-6.994
N9190 X144.486 Y165.385 Z-7.206
N9195 X144.485 Y165.505 Z-7.438
N9200 X144.484 Y165.601 Z-7.692
N9205 Y165.637 Z-7.817
N9210 X144.483 Y165.687 Z-8.076
N9215 Y165.697 Z-8.15
N9220 X144.437 Y171.355 Z-7.939
N9225 X144.43 Y172.196 Z-7.718
N9230 X144.44 Y172.45 Z-7.654
N9235 X144.468 Y172.704 Z-7.598
N9240 X144.516 Y172.957 Z-7.548
N9245 X144.583 Y173.207 Z-7.507
N9250 X144.669 Y173.452 Z-7.473
N9255 X144.774 Y173.691 Z-7.449
N9260 X144.897 Y173.923 Z-7.434
N9265 X145.039 Y174.147 Z-7.429
N9270 X145.118 Y174.255 Z-7.43
N9275 X145.277 Y174.452 Z-7.439
N9280 X145.448 Y174.634 Z-7.456
N9285 X145.641 Y174.811 Z-7.483
N9290 X145.847 Y174.972 Z-7.517
N9295 X146.063 Y175.117 Z-7.558
N9300 X146.289 Y175.244 Z-7.605
N9305 X146.522 Y175.353 Z-7.659
N9310 X146.619 Y175.393 Z-7.681
N9315 X146.689 Y175.419 Z-7.462
N9320 X146.786 Y175.453 Z-7.237
N9325 X146.898 Y175.487 Z-7.036
N9330 X147.035 Y175.524 Z-6.838
N9335 X147.194 Y175.56 Z-6.653
N9340 X147.279 Y175.576 Z-6.569
N9345 X147.374 Y175.59 Z-6.484
N9350 X147.47 Y175.603 Z-6.407
N9355 X147.574 Y175.613 Z-6.331
N9360 X147.755 Y175.623 Z-6.217
N9365 X148.064 Y175.627 Z-6.057
N9370 X148.423 Y175.63 Z-5.901
N9375 X148.79 Y175.633 Z-5.769
N9380 X149.167 Y175.636 Z-5.659
N9385 X149.548 Y175.639 Z-5.569
N9390 X149.935 Y175.642 Z-5.498
N9395 X150.456 Y175.646 Z-5.434
N9400 X150.98 Y175.65 Z-5.403
N9405 X152.087 Y175.659 Z-5.402
N9410 X152.832 Y175.665 Z-5.432
N9415 X153.773 Y175.672 Z-5.509
N9420 X154.738 Y175.68 Z-5.62
N9425 X156.793 Y175.697 Z-5.891
N9430 X157.392 Y175.701 Z-5.964
N9435 X158.123 Y175.707 Z-6.041
N9440 X158.358 Y175.709 Z-6.083
N9445 X158.588 Y175.711 Z-6.148
N9450 X158.811 Y175.713 Z-6.236
N9455 X159.026 Y175.714 Z-6.348
N9460 X159.23 Y175.716 Z-6.481
N9465 X159.42 Y175.718 Z-6.637
N9470 X159.595 Y175.719 Z-6.812
N9475 X159.753 Y175.72 Z-7.008
N9480 X159.891 Y175.721 Z-7.223
N9485 X160.008 Y175.722 Z-7.457
N9490 X160.102 Y175.723 Z-7.713
N9495 X160.136 Z-7.838
N9500 X160.182 Y175.724 Z-8.086
N9505 X160.19 Z-8.15
N9510 X163.275 Y175.748 Z-8.145
N9515 X169.892 Y175.801 Z-8.012
N9520 X169.948 Y175.802 Z-7.721
N9525 X170.015 Z-7.489
N9530 X170.115 Y175.803 Z-7.231
N9535 X170.217 Y175.804 Z-7.025
N9540 X170.342 Y175.805 Z-6.816
N9545 X170.486 Y175.806 Z-6.616
N9550 X170.647 Y175.807 Z-6.425
N9555 X170.825 Y175.809 Z-6.248
N9560 X171.018 Y175.81 Z-6.084
N9565 X171.225 Y175.812 Z-5.935
N9570 X171.444 Y175.814 Z-5.803
N9575 X171.675 Y175.816 Z-5.689
N9580 X171.914 Y175.818 Z-5.592
N9585 X172.161 Y175.82 Z-5.515
N9590 X172.452 Y175.822 Z-5.45
N9595 X172.582 Y175.819 Z-5.43
N9600 X172.711 Y175.812 Z-5.415
N9605 X172.841 Y175.8 Z-5.405
N9610 X173.012 Y175.776 Z-5.4
N9615 X173.274 Y175.722
N9620 X173.532 Y175.647
N9625 X173.783 Y175.553
N9630 X174.026 Y175.439
N9635 X174.259 Y175.306
N9640 X174.481 Y175.156
N9645 X174.691 Y174.989
N9650 X174.887 Y174.805
N9655 X175.068 Y174.608
N9660 X175.233 Y174.396
N9665 X175.38 Y174.172
N9670 X175.51 Y173.938
N9675 X175.621 Y173.694
N9680 X175.713 Y173.442
N9685 X175.785 Y173.183
N9690 X175.836 Y172.92
N9695 X175.867 Y172.653
N9700 X175.877 Y172.291
N9705 X175.915 Y167.406 Z-5.403
N9710 X175.917 Y167.162 Z-5.42
N9715 X175.919 Y166.927 Z-5.456
N9720 X175.921 Y166.696 Z-5.511
N9725 X175.923 Y166.468 Z-5.584
N9730 X175.925 Y166.247 Z-5.675
N9735 X175.926 Y166.032 Z-5.785
N9740 X175.928 Y165.826 Z-5.911
N9745 X175.929 Y165.63 Z-6.055
N9750 X175.931 Y165.446 Z-6.215
N9755 X175.932 Y165.274 Z-6.39
N9760 X175.934 Y165.116 Z-6.581
N9765 X175.935 Y164.972 Z-6.786
N9770 X175.936 Y164.845 Z-7.004
N9775 X175.937 Y164.735 Z-7.237
N9780 Y164.644 Z-7.484
N9785 X175.938 Y164.572 Z-7.751
N9790 Y164.546 Z-7.879
N9795 Y164.511 Z-8.148
N9800 X176.009 Y155.489 Z-8.144
N9805 X176.01 Y155.458 Z-7.898
N9810 Y155.424 Z-7.73
N9815 Y155.357 Z-7.485
N9820 X176.011 Y155.257 Z-7.216
N9825 X176.012 Y155.153 Z-6.999
N9830 X176.013 Y155.03 Z-6.788
N9835 X176.014 Y154.889 Z-6.585
N9840 X176.015 Y154.73 Z-6.393
N9845 X176.017 Y154.554 Z-6.213
N9850 X176.018 Y154.362 Z-6.048
N9855 X176.02 Y154.156 Z-5.898
N9860 X176.022 Y153.937 Z-5.766
N9865 X176.023 Y153.706 Z-5.653
N9870 X176.025 Y153.465 Z-5.56
N9875 X176.027 Y153.216 Z-5.487
N9880 X176.029 Y152.961 Z-5.436
N9885 X176.031 Y152.701 Z-5.407
N9890 X176.035 Y152.232 Z-5.4
N9895 X176.074 Y147.304
N9900 X176.063 Y147.036
N9905 X176.032 Y146.77
N9910 X175.98 Y146.507
N9915 X175.907 Y146.249
N9920 X175.815 Y145.997
N9925 X175.703 Y145.753
N9930 X175.573 Y145.519
N9935 X175.424 Y145.296
N9940 X175.259 Y145.084
N9945 X175.077 Y144.887
N9950 X174.881 Y144.704
N9955 X174.671 Y144.537
N9960 X174.449 Y144.387
N9965 X174.216 Y144.255
N9970 X173.973 Y144.141
N9975 X173.722 Y144.047
N9980 X173.464 Y143.973
N9985 X173.201 Y143.919
N9990 X173.002 Y143.892 Z-5.402
N9995 X172.758 Y143.875 Z-5.42
N10000 X172.552 Y143.872 Z-5.45
N10005 X172.204 Y143.869 Z-5.531
N10010 X171.867 Y143.867 Z-5.65
N10015 X171.649 Y143.865 Z-5.751
N10020 X171.439 Y143.863 Z-5.867
N10025 X171.237 Y143.862 Z-6.
N10030 X171.045 Y143.86 Z-6.149
N10035 X170.864 Y143.859 Z-6.313
N10040 X170.697 Y143.858 Z-6.492
N10045 X170.543 Y143.856 Z-6.686
N10050 X170.404 Y143.855 Z-6.894
N10055 X170.281 Y143.854 Z-7.116
N10060 X170.177 Z-7.351
N10065 X170.092 Y143.853 Z-7.603
N10070 X170.027 Y143.852 Z-7.875
N10075 X170.007 Z-7.991
N10080 X161.424 Y143.786 Z-8.15
N10085 X160.497 Y143.778
N10090 X160.469 Z-7.937
N10095 X160.41 Z-7.675
N10100 X160.351 Y143.777 Z-7.488
N10105 X160.29 Z-7.333
N10110 X160.171 Y143.776 Z-7.09
N10115 X160.044 Y143.775 Z-6.883
N10120 X159.897 Y143.774 Z-6.686
N10125 X159.731 Y143.773 Z-6.501
N10130 X159.547 Y143.771 Z-6.331
N10135 X159.347 Y143.77 Z-6.177
N10140 X159.131 Y143.768 Z-6.042
N10145 X158.903 Y143.766 Z-5.927
N10150 X158.663 Y143.764 Z-5.833
N10155 X158.414 Y143.762 Z-5.763
N10160 X158.158 Y143.76 Z-5.716
N10165 X154.964 Y143.736 Z-5.469
N10170 X153.941 Y143.728 Z-5.416
N10175 X153.134 Y143.721 Z-5.4
N10180 X150.056 Y143.698 Z-5.404
N10185 X149.575 Y143.694 Z-5.432
N10190 X149.105 Y143.69 Z-5.485
N10195 X148.639 Y143.687 Z-5.565
N10200 X148.178 Y143.683 Z-5.672
N10205 X147.723 Y143.679 Z-5.809
N10210 X147.39 Y143.677 Z-5.933
N10215 X147.044 Y143.674 Z-6.086
N10220 X146.939 Y143.676 Z-6.144
N10225 X146.834 Y143.681 Z-6.21
N10230 X146.737 Y143.688 Z-6.281
N10235 X146.639 Y143.698 Z-6.36
N10240 X146.551 Y143.71 Z-6.442
N10245 X146.462 Y143.724 Z-6.532
N10250 X146.383 Y143.739 Z-6.623
N10255 X146.235 Y143.771 Z-6.823
N10260 X146.107 Y143.805 Z-7.04
N10265 X146.026 Y143.829 Z-7.208
N10270 X145.787 Y143.913 Z-7.141
N10275 X145.554 Y144.016 Z-7.081
N10280 X145.327 Y144.136 Z-7.029
N10285 X145.109 Y144.274 Z-6.985
N10290 X144.9 Y144.429 Z-6.949
N10295 X144.703 Y144.6 Z-6.924
N10300 X144.537 Y144.767 Z-6.909
N10305 X144.383 Y144.945 Z-6.901
N10310 X144.3 Y145.051 Z-6.9
N10315 X144.222 Y145.16 Z-6.901
N10320 X144.149 Y145.272 Z-6.905
N10325 X144.016 Y145.502 Z-6.919
N10330 X143.903 Y145.738 Z-6.943
N10335 X143.813 Y145.969 Z-6.975
N10340 X143.74 Y146.205 Z-7.014
N10345 X143.682 Y146.457 Z-7.063
N10350 X143.643 Y146.712 Z-7.12
N10355 X143.625 Y146.955 Z-7.18
N10360 X143.622 Y147.071 Z-7.211
N10365 X143.606 Y149.074 Z-7.754
N10370 X143.601 Y149.788 Z-7.94
N10375 X143.572 Y153.647 Z-8.08
N10380 X143.571 Y153.676 Z-7.91
N10385 Y153.745 Z-7.646
N10390 X143.57 Y153.815 Z-7.452
N10395 Y153.886 Z-7.295
N10400 X143.569 Y154.001 Z-7.083
N10405 X143.568 Y154.136 Z-6.878
N10410 X143.567 Y154.291 Z-6.682
N10415 X143.565 Y154.462 Z-6.498
N10420 X143.564 Y154.648 Z-6.327
N10425 X143.562 Y154.849 Z-6.169
N10430 X143.561 Y155.061 Z-6.025
N10435 X143.559 Y155.283 Z-5.896
N10440 X143.557 Y155.515 Z-5.782
N10445 X143.555 Y155.756 Z-5.689
N10450 X143.554 Y156.005 Z-5.617
N10455 X143.552 Y156.26 Z-5.568
N10460 X143.55 Y156.521 Z-5.542
N10465 X143.547 Y156.816
N10470 X143.537 Y158.135 Z-5.608
N10475 X143.53 Y159.135 Z-5.64
N10480 X143.522 Y160.167 Z-5.645
N10485 X143.515 Y161.046 Z-5.628
N10490 X143.508 Y161.949 Z-5.593
N10495 X143.498 Y163.235 Z-5.525
N10500 X143.496 Y163.501 Z-5.527
N10505 X143.494 Y163.752 Z-5.552
N10510 X143.493 Y163.986 Z-5.596
N10515 X143.491 Y164.215 Z-5.658
N10520 X143.489 Y164.496 Z-5.764
N10525 X143.487 Y164.766 Z-5.894
N10530 X143.484 Y165.075 Z-6.077
N10535 X143.482 Y165.369 Z-6.292
N10540 X143.481 Y165.552 Z-6.452
N10545 X143.479 Y165.724 Z-6.627
N10550 X143.478 Y165.882 Z-6.816
N10555 X143.477 Y166.027 Z-7.02
N10560 X143.476 Y166.155 Z-7.24
N10565 X143.475 Y166.264 Z-7.477
N10570 Y166.352 Z-7.735
N10575 X143.474 Y166.384 Z-7.861
N10580 Y166.423 Z-8.073
N10585 X143.447 Y169.959 Z-7.941
N10590 X143.441 Y170.72 Z-7.733
N10595 X143.428 Y172.5 Z-7.268
N10600 X143.422 Y173.202 Z-7.085
N10605 X143.432 Y173.457 Z-7.022
N10610 X143.46 Y173.711 Z-6.967
N10615 X143.502 Y173.939 Z-6.922
N10620 X143.567 Y174.189 Z-6.882
N10625 X143.652 Y174.435 Z-6.849
N10630 X143.755 Y174.675 Z-6.826
N10635 X143.877 Y174.908 Z-6.813
N10640 X144.019 Y175.134 Z-6.808
N10645 X144.178 Y175.35 Z-6.813
N10650 X144.354 Y175.551 Z-6.827
N10655 X144.521 Y175.717 Z-6.849
N10660 X144.698 Y175.87 Z-6.878
N10665 X144.907 Y176.026 Z-6.915
N10670 X145.126 Y176.165 Z-6.959
N10675 X145.354 Y176.286 Z-7.009
N10680 X145.59 Y176.39 Z-7.066
N10685 X145.744 Y176.446 Z-7.103
N10690 X145.855 Y176.482 Z-6.89
N10695 X145.987 Y176.519 Z-6.689
N10700 X146.141 Y176.556 Z-6.501
N10705 X146.23 Y176.573 Z-6.41
N10710 X146.318 Y176.588 Z-6.329
N10715 X146.417 Y176.602 Z-6.248
N10720 X146.516 Y176.613 Z-6.176
N10725 X146.624 Y176.622 Z-6.106
N10730 X146.824 Y176.629 Z-5.998
N10735 X147.06 Y176.631 Z-5.893
N10740 X147.429 Y176.634 Z-5.764
N10745 X147.805 Y176.637 Z-5.654
N10750 X148.188 Y176.64 Z-5.565
N10755 X148.575 Y176.643 Z-5.496
N10760 X149.095 Y176.647 Z-5.433
N10765 X149.62 Y176.651 Z-5.403
N10770 X154.598 Y176.688
N10775 X155.877 Y176.698 Z-5.437
N10780 X158.066 Y176.714 Z-5.526
N10785 X158.301 Y176.716 Z-5.556
N10790 X158.534 Y176.718 Z-5.605
N10795 X158.762 Y176.719 Z-5.674
N10800 X158.985 Y176.721 Z-5.762
N10805 X159.201 Y176.723 Z-5.868
N10810 X159.408 Y176.724 Z-5.993
N10815 X159.604 Y176.726 Z-6.135
N10820 X159.789 Y176.727 Z-6.294
N10825 X159.961 Y176.728 Z-6.469
N10830 X160.119 Y176.729 Z-6.66
N10835 X160.295 Y176.731 Z-6.921
N10840 X160.386 Z-7.086
N10845 X160.494 Y176.732 Z-7.32
N10850 X160.582 Y176.733 Z-7.569
N10855 X160.65 Z-7.838
N10860 X160.693 Y176.734 Z-8.129
N10865 X160.694 Z-8.136
N10870 X170.229 Y176.805 Z-7.944
N10875 X170.286 Y176.806 Z-7.672
N10880 X170.354 Z-7.453
N10885 X170.421 Y176.807 Z-7.28
N10890 X170.546 Y176.808 Z-7.021
N10895 X170.671 Y176.809 Z-6.812
N10900 X170.815 Y176.81 Z-6.612
N10905 X170.977 Y176.811 Z-6.422
N10910 X171.155 Y176.812 Z-6.245
N10915 X171.348 Y176.814 Z-6.081
N10920 X171.555 Y176.815 Z-5.933
N10925 X171.775 Y176.817 Z-5.801
N10930 X172.005 Y176.819 Z-5.687
N10935 X172.245 Y176.821 Z-5.591
N10940 X172.618 Y176.823 Z-5.48
N10945 X173.001 Y176.826 Z-5.398
N10950 X173.26 Y176.828 Z-5.364
N10955 X173.516 Y176.829 Z-5.348
N10960 X173.713 Y176.82 Z-5.341
N10965 X173.979 Y176.789 Z-5.334
N10970 X174.242 Y176.737 Z-5.33
N10975 X174.5 Y176.665 Z-5.328
N10980 X174.752 Y176.573 Z-5.33
N10985 X174.996 Y176.461 Z-5.334
N10990 X175.231 Y176.331 Z-5.341
N10995 X175.454 Y176.183 Z-5.35
N11000 X175.662 Y176.021 Z-5.362
N11005 X175.856 Y175.845 Z-5.377
N11010 X176.036 Y175.654 Z-5.394
N11015 X176.2 Y175.45 Z-5.4
N11020 X176.352 Y175.229
N11025 X176.486 Y174.996
N11030 X176.602 Y174.754
N11035 X176.698 Y174.504
N11040 X176.774 Y174.247
N11045 X176.83 Y173.984
N11050 X176.866 Y173.719
N11055 X176.881 Y173.424
N11060 X176.926 Y167.377 Z-5.403
N11065 X176.927 Y167.114 Z-5.425
N11070 X176.929 Y166.88 Z-5.465
N11075 X176.931 Y166.649 Z-5.523
N11080 X176.933 Y166.423 Z-5.6
N11085 X176.934 Y166.203 Z-5.695
N11090 X176.936 Y165.991 Z-5.807
N11095 X176.937 Y165.787 Z-5.937
N11100 X176.939 Y165.593 Z-6.084
N11105 X176.94 Y165.411 Z-6.247
N11110 X176.941 Y165.242 Z-6.425
N11115 X176.942 Y165.087 Z-6.618
N11120 X176.943 Y164.947 Z-6.825
N11125 X176.944 Y164.823 Z-7.045
N11130 X176.945 Y164.717 Z-7.279
N11135 X176.946 Y164.63 Z-7.528
N11140 Y164.562 Z-7.794
N11145 X176.947 Y164.516 Z-8.085
N11150 X177.014 Y155.483 Z-8.078
N11155 Y155.46 Z-7.913
N11160 Y155.427 Z-7.741
N11165 X177.015 Y155.36 Z-7.493
N11170 Y155.259 Z-7.222
N11175 X177.016 Y155.156 Z-7.005
N11180 X177.017 Y155.033 Z-6.793
N11185 X177.018 Y154.893 Z-6.59
N11190 X177.019 Y154.734 Z-6.398
N11195 X177.02 Y154.559 Z-6.218
N11200 X177.022 Y154.367 Z-6.052
N11205 X177.023 Y154.162 Z-5.902
N11210 X177.025 Y153.943 Z-5.77
N11215 X177.027 Y153.712 Z-5.656
N11220 X177.029 Y153.472 Z-5.562
N11225 X177.03 Y153.223 Z-5.488
N11230 X177.032 Y152.968 Z-5.437
N11235 X177.034 Y152.708 Z-5.407
N11240 X177.036 Y152.446 Z-5.4
N11245 X177.082 Y146.3
N11250 X177.071 Y146.032
N11255 X177.04 Y145.766
N11260 X176.988 Y145.503
N11265 X176.915 Y145.245
N11270 X176.823 Y144.993
N11275 X176.711 Y144.749
N11280 X176.581 Y144.515
N11285 X176.432 Y144.291
N11290 X176.286 Y144.103 Z-5.404
N11295 X176.118 Y143.916 Z-5.413
N11300 X175.948 Y143.752 Z-5.424
N11305 X175.768 Y143.6 Z-5.433
N11310 X175.553 Y143.444 Z-5.441
N11315 X175.324 Y143.304 Z-5.448
N11320 X175.085 Y143.183 Z-5.452
N11325 X174.837 Y143.08 Z-5.454
N11330 X174.582 Y142.997
N11335 X174.321 Y142.934 Z-5.452
N11340 X174.056 Y142.892 Z-5.448
N11345 X173.789 Y142.871 Z-5.441
N11350 X173.406 Y142.866 Z-5.431
N11355 X173.138 Y142.864 Z-5.437
N11360 X172.902 Y142.862 Z-5.46
N11365 X172.668 Y142.861 Z-5.503
N11370 X172.438 Y142.859 Z-5.564
N11375 X172.212 Y142.857 Z-5.644
N11380 X171.94 Y142.855 Z-5.769
N11385 X171.681 Y142.854 Z-5.921
N11390 X171.483 Y142.852 Z-6.061
N11395 X171.296 Y142.851 Z-6.216
N11400 X171.12 Y142.849 Z-6.386
N11405 X170.958 Y142.848 Z-6.572
N11410 X170.81 Y142.847 Z-6.771
N11415 X170.678 Y142.846 Z-6.985
N11420 X170.563 Y142.845 Z-7.213
N11425 X170.466 Z-7.455
N11430 X170.39 Y142.844 Z-7.712
N11435 X170.365 Z-7.814
N11440 X169.459 Y142.837 Z-7.941
N11445 X160.85 Y142.774 Z-8.104
N11450 X160.816 Z-7.873
N11455 X160.749 Z-7.593
N11460 X160.682 Y142.773 Z-7.392
N11465 X160.582 Z-7.155
N11470 X160.468 Y142.772 Z-6.941
N11475 X160.336 Y142.771 Z-6.734
N11480 X160.185 Y142.77 Z-6.537
N11485 X160.017 Y142.768 Z-6.351
N11490 X159.833 Y142.767 Z-6.178
N11495 X159.634 Y142.766 Z-6.02
N11500 X159.422 Y142.764 Z-5.877
N11505 X159.198 Y142.762 Z-5.752
N11510 X158.963 Y142.761 Z-5.645
N11515 X158.658 Y142.758 Z-5.537
N11520 X158.342 Y142.756 Z-5.462
N11525 X158.083 Y142.754 Z-5.426
N11530 X157.69 Y142.751 Z-5.412
N11535 X155.814 Y142.738 Z-5.4
N11540 X148.663 Y142.686 Z-5.404
N11545 X148.182 Y142.682 Z-5.432
N11550 X147.83 Y142.679 Z-5.469
N11555 X147.596 Y142.678 Z-5.51
N11560 X147.366 Y142.676 Z-5.57
N11565 X147.14 Y142.674 Z-5.649
N11570 X146.867 Y142.672 Z-5.773
N11575 X146.604 Y142.67 Z-5.92
N11580 X146.306 Y142.668 Z-6.122
N11585 X146.05 Y142.667 Z-6.334
N11590 X145.875 Y142.671 Z-6.506
N11595 X145.714 Y142.683 Z-6.694
N11600 X145.667 Y142.688 Z-6.755
N11605 X145.422 Y142.724 Z-6.673
N11610 X145.177 Y142.779 Z-6.596
N11615 X144.96 Y142.844 Z-6.532
N11620 X144.723 Y142.933 Z-6.467
N11625 X144.491 Y143.041 Z-6.41
N11630 X144.266 Y143.166 Z-6.359
N11635 X144.072 Y143.293 Z-6.321
N11640 X143.865 Y143.451 Z-6.288
N11645 X143.67 Y143.625 Z-6.266
N11650 X143.488 Y143.814 Z-6.253
N11655 X143.337 Y143.996 Z-6.248
N11660 X143.181 Y144.214 Z-6.25
N11665 X143.042 Y144.444 Z-6.263
N11670 X142.925 Y144.678 Z-6.285
N11675 X142.835 Y144.895 Z-6.315
N11680 X142.753 Y145.142 Z-6.355
N11685 X142.69 Y145.393 Z-6.403
N11690 X142.647 Y145.647 Z-6.457
N11695 X142.622 Y145.902 Z-6.519
N11700 X142.617 Y146.075 Z-6.566
N11705 X142.599 Y148.557 Z-7.251
N11710 X142.58 Y151.183 Z-7.939
N11715 X142.568 Y152.929 Z-8.003
N11720 X142.567 Y152.962 Z-7.84
N11725 Y153.029 Z-7.605
N11730 X142.566 Y153.098 Z-7.422
N11735 Y153.168 Z-7.272
N11740 X142.565 Y153.285 Z-7.06
N11745 X142.564 Y153.423 Z-6.856
N11750 X142.563 Y153.579 Z-6.662
N11755 X142.562 Y153.752 Z-6.48
N11760 X142.56 Y153.94 Z-6.31
N11765 X142.559 Y154.142 Z-6.153
N11770 X142.557 Y154.355 Z-6.011
N11775 X142.556 Y154.579 Z-5.883
N11780 X142.553 Y154.931 Z-5.719
N11785 X142.551 Y155.298 Z-5.589
N11790 X142.548 Y155.677 Z-5.492
N11795 X142.545 Y156.064 Z-5.43
N11800 X142.542 Y156.455 Z-5.402
N11805 X142.528 Y158.4 Z-5.403
N11810 X142.505 Y161.609 Z-5.402
N11815 X142.491 Y163.611 Z-5.403
N11820 X142.488 Y163.954 Z-5.428
N11825 X142.486 Y164.305 Z-5.48
N11830 X142.483 Y164.652 Z-5.56
N11835 X142.481 Y164.992 Z-5.669
N11840 X142.478 Y165.323 Z-5.806
N11845 X142.476 Y165.641 Z-5.973
N11850 X142.474 Y165.944 Z-6.17
N11855 X142.472 Y166.226 Z-6.398
N11860 X142.471 Y166.401 Z-6.567
N11865 X142.469 Y166.564 Z-6.751
N11870 X142.468 Y166.713 Z-6.95
N11875 X142.467 Y166.846 Z-7.164
N11880 Y166.961 Z-7.393
N11885 X142.466 Y167.056 Z-7.64
N11890 X142.465 Y167.126 Z-7.901
N11895 Y167.144 Z-7.995
N11900 X142.455 Y168.594 Z-7.941
N11905 X142.444 Y170.114 Z-7.521
N11910 X142.428 Y172.375 Z-6.924
N11915 X142.422 Y173.113 Z-6.735
N11920 X142.415 Y174.203 Z-6.457
N11925 X142.424 Y174.457 Z-6.394
N11930 X142.453 Y174.712 Z-6.34
N11935 X142.5 Y174.965 Z-6.294
N11940 X142.568 Y175.216 Z-6.256
N11945 X142.654 Y175.462 Z-6.227
N11950 X142.759 Y175.701 Z-6.205
N11955 X142.819 Y175.818 Z-6.198
N11960 X142.883 Y175.933 Z-6.194
N11965 X143.027 Y176.159 Z-6.193
N11970 X143.188 Y176.373 Z-6.202
N11975 X143.362 Y176.57 Z-6.219
N11980 X143.55 Y176.753 Z-6.245
N11985 X143.75 Y176.92 Z-6.279
N11990 X143.962 Y177.071 Z-6.318
N11995 X144.184 Y177.205 Z-6.361
N12000 X144.415 Y177.322 Z-6.413
N12005 X144.652 Y177.42 Z-6.471
N12010 X144.895 Y177.5 Z-6.536
N12015 X144.993 Y177.527 Z-6.562
N12020 X145.144 Y177.562 Z-6.37
N12025 X145.23 Y177.579 Z-6.278
N12030 X145.317 Y177.593 Z-6.195
N12035 X145.413 Y177.607 Z-6.112
N12040 X145.51 Y177.618 Z-6.037
N12045 X145.617 Y177.627 Z-5.965
N12050 X145.723 Y177.632 Z-5.9
N12055 X145.939 Y177.635 Z-5.79
N12060 X146.298 Y177.638 Z-5.643
N12065 X146.672 Y177.64 Z-5.529
N12070 X147.055 Y177.643 Z-5.449
N12075 X147.445 Y177.646 Z-5.4
N12080 X147.838 Y177.649 Z-5.382
N12085 X148.224 Y177.651 Z-5.392
N12090 X148.389 Y177.653 Z-5.4
N12095 X157.996 Y177.721 Z-5.402
N12100 X158.257 Y177.723 Z-5.422
N12105 X158.608 Y177.725 Z-5.483
N12110 X158.952 Y177.727 Z-5.58
N12115 X159.175 Y177.729 Z-5.667
N12120 X159.391 Y177.731 Z-5.769
N12125 X159.601 Y177.732 Z-5.888
N12130 X159.801 Y177.733 Z-6.023
N12135 X159.991 Y177.735 Z-6.174
N12140 X160.17 Y177.736 Z-6.34
N12145 X160.336 Y177.737 Z-6.521
N12150 X160.489 Y177.738 Z-6.717
N12155 X160.626 Y177.739 Z-6.926
N12160 X160.746 Y177.74 Z-7.15
N12165 X160.848 Y177.741 Z-7.388
N12170 X160.931 Y177.742 Z-7.642
N12175 X160.992 Z-7.918
N12180 X161.014 Z-8.07
N12185 X167.609 Y177.789 Z-7.94
N12190 X168.911 Y177.798 Z-7.759
N12195 X170.666 Y177.811 Z-7.524
N12200 X170.733 Z-7.343
N12205 X170.841 Y177.812 Z-7.112
N12210 X170.962 Y177.813 Z-6.902
N12215 X171.102 Y177.814 Z-6.698
N12220 X171.258 Y177.815 Z-6.503
N12225 X171.43 Y177.816 Z-6.318
N12230 X171.615 Y177.817 Z-6.145
N12235 X171.813 Y177.819 Z-5.985
N12240 X172.13 Y177.821 Z-5.769
N12245 X172.354 Y177.823 Z-5.643
N12250 X172.708 Y177.825 Z-5.48
N12255 X172.952 Y177.827 Z-5.392
N12260 X173.328 Y177.829 Z-5.29
N12265 X173.585 Y177.831 Z-5.243
N12270 X173.845 Y177.833 Z-5.213
N12275 X174.432 Y177.837 Z-5.186
N12280 X174.72 Y177.827 Z-5.176
N12285 X174.986 Y177.796 Z-5.17
N12290 X175.249 Y177.744 Z-5.166
N12295 X175.508 Y177.672 Z-5.165
N12300 X175.76 Y177.58 Z-5.166
N12305 X176.004 Y177.469 Z-5.17
N12310 X176.238 Y177.338 Z-5.176
N12315 X176.461 Y177.19 Z-5.185
N12320 X176.649 Y177.044 Z-5.195
N12325 X176.845 Y176.869 Z-5.208
N12330 X177.008 Y176.699 Z-5.221
N12335 X177.176 Y176.497 Z-5.238
N12340 X177.313 Y176.306 Z-5.257
N12345 X177.436 Y176.106 Z-5.278
N12350 X177.557 Y175.873 Z-5.302
N12355 X177.66 Y175.633 Z-5.329
N12360 X177.744 Y175.385 Z-5.357
N12365 X177.803 Y175.158 Z-5.384
N12370 X177.829 Y175.03 Z-5.399
N12375 X177.867 Y174.768 Z-5.4
N12380 X177.883 Y174.534
N12385 X177.902 Y172.018
N12390 X177.935 Y167.345 Z-5.404
N12395 X177.937 Y167.114 Z-5.425
N12400 X177.938 Y166.88 Z-5.465
N12405 X177.94 Y166.649 Z-5.523
N12410 X177.942 Y166.423 Z-5.6
N12415 X177.943 Y166.203 Z-5.695
N12420 X177.945 Y165.991 Z-5.807
N12425 X177.946 Y165.787 Z-5.937
N12430 X177.947 Y165.593 Z-6.084
N12435 X177.949 Y165.411 Z-6.247
N12440 X177.95 Y165.242 Z-6.425
N12445 X177.951 Y165.087 Z-6.618
N12450 X177.952 Y164.947 Z-6.825
N12455 X177.953 Y164.823 Z-7.045
N12460 Y164.717 Z-7.279
N12465 X177.954 Y164.63 Z-7.528
N12470 X177.955 Y164.562 Z-7.794
N12475 Y164.523 Z-8.022
N12480 X178.018 Y155.476 Z-8.018
N12485 Y155.437 Z-7.787
N12490 X178.019 Y155.403 Z-7.644
N12495 Y155.355 Z-7.477
N12500 X178.02 Y155.257 Z-7.217
N12505 Y155.152 Z-6.997
N12510 X178.021 Y155.029 Z-6.787
N12515 X178.022 Y154.888 Z-6.585
N12520 X178.023 Y154.73 Z-6.393
N12525 X178.025 Y154.554 Z-6.214
N12530 X178.026 Y154.363 Z-6.048
N12535 X178.027 Y154.157 Z-5.899
N12540 X178.029 Y153.938 Z-5.767
N12545 X178.03 Y153.708 Z-5.654
N12550 X178.032 Y153.467 Z-5.56
N12555 X178.034 Y153.219 Z-5.487
N12560 X178.036 Y152.964 Z-5.436
N12565 X178.038 Y152.704 Z-5.407
N12570 X178.04 Y152.305 Z-5.4
N12575 X178.089 Y145.288
N12580 X178.079 Y145.02
N12585 X178.047 Y144.754 Z-5.401
N12590 X177.998 Y144.503 Z-5.415
N12595 X177.918 Y144.219 Z-5.432
N12600 X177.826 Y143.971 Z-5.442
N12605 X177.714 Y143.729 Z-5.451
N12610 X177.583 Y143.495 Z-5.459
N12615 X177.433 Y143.272 Z-5.467
N12620 X177.262 Y143.055 Z-5.477
N12625 X177.116 Y142.897 Z-5.489
N12630 X176.936 Y142.725 Z-5.5
N12635 X176.743 Y142.566 Z-5.511
N12640 X176.482 Y142.386 Z-5.522
N12645 X176.214 Y142.234 Z-5.531
N12650 X175.97 Y142.122 Z-5.538
N12655 X175.718 Y142.029 Z-5.542
N12660 X175.46 Y141.957 Z-5.545
N12665 X175.164 Y141.9 Z-5.546
N12670 X174.93 Y141.874 Z-5.551
N12675 X174.688 Y141.863 Z-5.554
N12680 X173.95 Y141.858 Z-5.567
N12685 X173.648 Y141.856 Z-5.593
N12690 X173.297 Y141.854 Z-5.648
N12695 X172.95 Y141.851 Z-5.729
N12700 X172.611 Y141.849 Z-5.839
N12705 X172.28 Y141.847 Z-5.978
N12710 X171.964 Y141.844 Z-6.148
N12715 X171.763 Y141.843 Z-6.283
N12720 X171.573 Y141.842 Z-6.437
N12725 X171.397 Y141.841 Z-6.609
N12730 X171.237 Y141.839 Z-6.798
N12735 X171.093 Y141.838 Z-7.005
N12740 X170.952 Y141.837 Z-7.262
N12745 X170.941 Z-7.281
N12750 X166.303 Y141.805 Z-7.941
N12755 X161.169 Y141.77 Z-8.038
N12760 X161.139 Z-7.854
N12765 X161.072 Y141.769 Z-7.581
N12770 X161.005 Z-7.382
N12775 X160.9 Y141.768 Z-7.14
N12780 X160.786 Y141.767 Z-6.926
N12785 X160.652 Y141.766 Z-6.72
N12790 X160.5 Y141.765 Z-6.523
N12795 X160.33 Y141.764 Z-6.338
N12800 X160.145 Y141.763 Z-6.166
N12805 X159.945 Y141.762 Z-6.009
N12810 X159.732 Y141.76 Z-5.868
N12815 X159.507 Y141.759 Z-5.744
N12820 X159.272 Y141.757 Z-5.638
N12825 X159.028 Y141.755 Z-5.55
N12830 X158.778 Y141.753 Z-5.483
N12835 X158.521 Y141.752 Z-5.435
N12840 X158.261 Y141.75 Z-5.407
N12845 X157.999 Y141.748 Z-5.4
N12850 X148.487 Y141.683 Z-5.401
N12855 X148.083 Y141.68 Z-5.426
N12860 X147.585 Y141.676 Z-5.474
N12865 X147.236 Y141.674 Z-5.536
N12870 X146.891 Y141.672 Z-5.628
N12875 X146.555 Y141.669 Z-5.75
N12880 X146.23 Y141.667 Z-5.902
N12885 X145.919 Y141.665 Z-6.082
N12890 X145.624 Y141.663 Z-6.294
N12895 X145.483 Y141.662 Z-6.41
N12900 X145.031 Y141.659 Z-6.234
N12905 X144.787 Y141.668 Z-6.142
N12910 X144.535 Y141.695 Z-6.053
N12915 X144.32 Y141.734 Z-5.992
N12920 X144.196 Y141.762 Z-5.963
N12925 X144.073 Y141.796 Z-5.937
N12930 X143.95 Y141.834 Z-5.915
N12935 X143.828 Y141.878 Z-5.897
N12940 X143.588 Y141.979 Z-5.867
N12945 X143.355 Y142.098 Z-5.846
N12950 X143.131 Y142.235 Z-5.831
N12955 X142.919 Y142.39 Z-5.822
N12960 X142.714 Y142.563 Z-5.82
N12965 X142.525 Y142.753 Z-5.821
N12970 X142.319 Y142.996 Z-5.824
N12975 X142.155 Y143.229 Z-5.826
N12980 X142.019 Y143.46 Z-5.83
N12985 X141.902 Y143.699 Z-5.835
N12990 X141.829 Y143.88 Z-5.843
N12995 X141.754 Y144.104 Z-5.855
N13000 X141.694 Y144.332 Z-5.87
N13005 X141.651 Y144.563 Z-5.891
N13010 X141.624 Y144.797 Z-5.919
N13015 X141.612 Y145.055 Z-5.959
N13020 X141.609 Y145.519 Z-6.056
N13025 X141.602 Y146.485 Z-6.32
N13030 X141.594 Y147.67 Z-6.65
N13035 X141.567 Y151.658 Z-7.708
N13040 X141.563 Y152.23 Z-7.85
N13045 Y152.295 Z-7.618
N13050 X141.562 Y152.359 Z-7.447
N13055 Y152.458 Z-7.233
N13060 X141.561 Y152.579 Z-7.023
N13065 X141.56 Y152.72 Z-6.82
N13070 X141.559 Y152.88 Z-6.628
N13075 X141.558 Y153.056 Z-6.448
N13080 X141.556 Y153.246 Z-6.28
N13085 X141.555 Y153.45 Z-6.126
N13090 X141.553 Y153.665 Z-5.987
N13095 X141.552 Y153.891 Z-5.862
N13100 X141.549 Y154.246 Z-5.701
N13105 X141.547 Y154.614 Z-5.576
N13110 X141.544 Y154.994 Z-5.483
N13115 X141.542 Y155.382 Z-5.425
N13120 X141.539 Y155.75 Z-5.401
N13125 X141.481 Y164.313 Z-5.402
N13130 X141.478 Y164.688 Z-5.428
N13135 X141.476 Y165.039 Z-5.48
N13140 X141.474 Y165.386 Z-5.56
N13145 X141.471 Y165.726 Z-5.669
N13150 X141.469 Y166.057 Z-5.806
N13155 X141.467 Y166.374 Z-5.973
N13160 X141.465 Y166.678 Z-6.171
N13165 X141.463 Y166.959 Z-6.398
N13170 X141.462 Y167.135 Z-6.568
N13175 X141.461 Y167.298 Z-6.752
N13180 X141.46 Y167.447 Z-6.951
N13185 X141.459 Y167.58 Z-7.164
N13190 X141.458 Y167.694 Z-7.394
N13195 X141.457 Y167.789 Z-7.641
N13200 Y167.828 Z-7.774
N13205 X141.443 Y169.855 Z-7.215
N13210 X141.432 Y171.581 Z-6.754
N13215 X141.426 Y172.343 Z-6.553
N13220 X141.419 Y173.363 Z-6.294
N13225 X141.413 Y174.257 Z-6.081
N13230 X141.411 Y174.643 Z-6.009
N13235 X141.408 Y175.033 Z-5.955
N13240 X141.409 Y175.34 Z-5.928
N13245 X141.429 Y175.601 Z-5.915
N13250 X141.47 Y175.863 Z-5.91
N13255 X141.531 Y176.124 Z-5.909
N13260 X141.613 Y176.38 Z-5.91
N13265 X141.714 Y176.628
N13270 X141.835 Y176.867 Z-5.913
N13275 X141.973 Y177.096 Z-5.919
N13280 X142.129 Y177.314 Z-5.925
N13285 X142.302 Y177.52 Z-5.933
N13290 X142.49 Y177.711 Z-5.941
N13295 X142.693 Y177.886 Z-5.947
N13300 X142.909 Y178.046 Z-5.951
N13305 X143.136 Y178.188 Z-5.956
N13310 X143.365 Y178.307 Z-5.964
N13315 X143.587 Y178.404 Z-5.977
N13320 X143.81 Y178.482 Z-5.996
N13325 X144.036 Y178.544 Z-6.025
N13330 X144.278 Y178.594 Z-6.059
N13335 X144.325 Y178.601 Z-6.064
N13340 X144.462 Y178.619 Z-5.946
N13345 X144.621 Y178.633 Z-5.83
N13350 X144.815 Y178.639 Z-5.714
N13355 X145.046 Y178.641 Z-5.6
N13360 X145.409 Y178.643 Z-5.457
N13365 X145.783 Y178.646 Z-5.347
N13370 X146.167 Y178.648 Z-5.268
N13375 X146.557 Y178.651 Z-5.221
N13380 X146.953 Y178.654 Z-5.205
N13385 X147.355 Y178.656 Z-5.218
N13390 X147.826 Y178.66 Z-5.262
N13395 X149.079 Y178.668 Z-5.399
N13400 X158.331 Y178.73 Z-5.403
N13405 X158.585 Y178.732 Z-5.422
N13410 X158.936 Y178.734 Z-5.483
N13415 X159.279 Y178.736 Z-5.58
N13420 X159.502 Y178.738 Z-5.667
N13425 X159.719 Y178.739 Z-5.769
N13430 X159.928 Y178.741 Z-5.888
N13435 X160.129 Y178.742 Z-6.024
N13440 X160.319 Y178.743 Z-6.174
N13445 X160.498 Y178.745 Z-6.34
N13450 X160.664 Y178.746 Z-6.522
N13455 X160.816 Y178.747 Z-6.717
N13460 X160.953 Y178.748 Z-6.927
N13465 X161.073 Z-7.15
N13470 X161.176 Y178.749 Z-7.388
N13475 X161.258 Y178.75 Z-7.642
N13480 X161.318 Z-7.908
N13485 X161.333 Z-8.004
N13490 X164.507 Y178.771 Z-7.941
N13495 X165.288 Y178.777 Z-7.829
N13500 X168.1 Y178.796 Z-7.443
N13505 X169.403 Y178.804 Z-7.271
N13510 X171.363 Y178.818 Z-7.015
N13515 X171.498 Z-6.774
N13520 X171.637 Y178.819 Z-6.569
N13525 X171.792 Y178.82 Z-6.373
N13530 X171.963 Y178.822 Z-6.187
N13535 X172.148 Y178.823 Z-6.013
N13540 X172.345 Y178.824 Z-5.851
N13545 X172.554 Y178.826 Z-5.703
N13550 X172.774 Y178.827 Z-5.569
N13555 X173.003 Y178.829 Z-5.449
N13560 X173.24 Y178.83 Z-5.345
N13565 X173.484 Y178.832 Z-5.256
N13570 X173.734 Y178.833 Z-5.184
N13575 X173.989 Y178.835 Z-5.129
N13580 X174.247 Y178.837 Z-5.09
N13585 X174.64 Y178.839 Z-5.064
N13590 X175.468 Y178.845 Z-5.034
N13595 X175.736 Y178.834 Z-5.026
N13600 X175.988 Y178.805 Z-5.02
N13605 X176.252 Y178.754 Z-5.016
N13610 X176.51 Y178.683 Z-5.015
N13615 X176.762 Y178.591 Z-5.016
N13620 X177.006 Y178.48 Z-5.019
N13625 X177.241 Y178.35 Z-5.025
N13630 X177.454 Y178.21 Z-5.033
N13635 X177.645 Y178.063 Z-5.042
N13640 X177.842 Y177.888 Z-5.053
N13645 X178.006 Y177.719 Z-5.066
N13650 X178.174 Y177.518 Z-5.082
N13655 X178.312 Y177.326 Z-5.099
N13660 X178.449 Y177.103 Z-5.12
N13665 X178.569 Y176.87 Z-5.143
N13670 X178.671 Y176.629 Z-5.167
N13675 X178.754 Y176.381 Z-5.192
N13680 X178.817 Y176.127 Z-5.22
N13685 X178.858 Y175.896 Z-5.245
N13690 X178.884 Y175.636 Z-5.277
N13695 X178.891 Y175.315 Z-5.318
N13700 X178.895 Y174.717 Z-5.4
N13705 X178.944 Y167.353 Z-5.404
N13710 X178.946 Y167.114 Z-5.425
N13715 X178.947 Y166.88 Z-5.465
N13720 X178.949 Y166.649 Z-5.523
N13725 X178.95 Y166.423 Z-5.6
N13730 X178.952 Y166.203 Z-5.695
N13735 X178.953 Y165.991 Z-5.807
N13740 X178.954 Y165.787 Z-5.937
N13745 X178.956 Y165.593 Z-6.084
N13750 X178.957 Y165.411 Z-6.247
N13755 X178.958 Y165.242 Z-6.425
N13760 X178.959 Y165.087 Z-6.618
N13765 X178.96 Y164.947 Z-6.825
N13770 X178.961 Y164.823 Z-7.045
N13775 X178.962 Y164.717 Z-7.279
N13780 Y164.63 Z-7.528
N13785 X178.963 Y164.562 Z-7.794
N13790 Y164.533 Z-7.959
N13795 X179.023 Y155.466 Z-7.952
N13800 Y155.412 Z-7.678
N13805 X179.024 Y155.35 Z-7.464
N13810 Y155.268 Z-7.244
N13815 X179.025 Y155.167 Z-7.026
N13820 X179.026 Y155.047 Z-6.814
N13825 X179.027 Y154.908 Z-6.61
N13830 X179.028 Y154.751 Z-6.417
N13835 X179.029 Y154.577 Z-6.235
N13840 X179.03 Y154.387 Z-6.068
N13845 X179.031 Y154.183 Z-5.917
N13850 X179.033 Y153.966 Z-5.782
N13855 X179.034 Y153.736 Z-5.667
N13860 X179.036 Y153.497 Z-5.57
N13865 X179.038 Y153.249 Z-5.495
N13870 X179.039 Y152.994 Z-5.441
N13875 X179.041 Y152.735 Z-5.409
N13880 X179.043 Y152.473 Z-5.4
N13885 X179.091 Y145.173
N13890 X179.093 Y144.861 Z-5.415
N13895 X179.097 Y144.289 Z-5.439
N13900 X179.087 Y144.026 Z-5.449
N13905 X179.056 Y143.765 Z-5.46
N13910 X179.006 Y143.506 Z-5.47
N13915 X178.936 Y143.252 Z-5.484
N13920 X178.857 Y143.03 Z-5.5
N13925 X178.752 Y142.79 Z-5.517
N13930 X178.628 Y142.558 Z-5.533
N13935 X178.487 Y142.337 Z-5.547
N13940 X178.33 Y142.127 Z-5.561
N13945 X178.157 Y141.93 Z-5.576
N13950 X177.989 Y141.764 Z-5.59
N13955 X177.789 Y141.594 Z-5.603
N13960 X177.576 Y141.439 Z-5.615
N13965 X177.376 Y141.315 Z-5.625
N13970 X177.143 Y141.193 Z-5.636
N13975 X176.9 Y141.088 Z-5.643
N13980 X176.668 Y141.008 Z-5.65
N13985 X176.409 Y140.94 Z-5.655
N13990 X176.11 Y140.887 Z-5.657
N13995 X175.873 Y140.864 Z-5.663
N14000 X175.42 Y140.856 Z-5.676
N14005 X174.765 Y140.852 Z-5.698
N14010 X174.412 Y140.85 Z-5.735
N14015 X174.063 Y140.848 Z-5.797
N14020 X173.717 Y140.845 Z-5.887
N14025 X173.381 Y140.843 Z-6.006
N14030 X173.054 Y140.841 Z-6.154
N14035 X172.742 Y140.839 Z-6.334
N14040 X172.544 Y140.838 Z-6.472
N14045 X172.347 Y140.836 Z-6.63
N14050 X169.799 Y140.82 Z-6.998
N14055 X165.196 Y140.79 Z-7.668
N14060 X163.196 Y140.776 Z-7.94
N14065 X161.486 Y140.765 Z-7.972
N14070 X161.444 Z-7.752
N14075 X161.384 Z-7.534
N14080 X161.305 Y140.764 Z-7.315
N14085 X161.206 Y140.763 Z-7.097
N14090 X161.087 Z-6.885
N14095 X160.95 Y140.762 Z-6.68
N14100 X160.794 Y140.761 Z-6.486
N14105 X160.622 Y140.76 Z-6.303
N14110 X160.433 Y140.758 Z-6.134
N14115 X160.231 Y140.757 Z-5.98
N14120 X160.015 Y140.756 Z-5.842
N14125 X159.788 Y140.754 Z-5.722
N14130 X159.551 Y140.753 Z-5.619
N14135 X159.306 Y140.751 Z-5.536
N14140 X159.054 Y140.749 Z-5.472
N14145 X158.797 Y140.748 Z-5.428
N14150 X158.536 Y140.746 Z-5.404
N14155 X156.224 Y140.731 Z-5.4
N14160 X149.146 Y140.685 Z-5.403
N14165 X148.31 Y140.679 Z-5.46
N14170 X148.045 Y140.677 Z-5.475
N14175 X147.43 Y140.673 Z-5.528
N14180 X146.818 Y140.669 Z-5.612
N14185 X146.47 Y140.667 Z-5.687
N14190 X146.129 Y140.665 Z-5.793
N14195 X145.798 Y140.663 Z-5.929
N14200 X145.46 Y140.661 Z-6.105
N14205 X145.437 Y140.66 Z-6.115
N14210 X145.066 Y140.658 Z-5.993
N14215 X144.686 Y140.656 Z-5.9
N14220 X144.299 Y140.653 Z-5.839
N14225 X144.027 Y140.651 Z-5.816
N14230 X143.806 Y140.658 Z-5.809
N14235 X143.567 Y140.682 Z-5.812
N14240 X143.298 Y140.73 Z-5.819
N14245 X143.059 Y140.791 Z-5.828
N14250 X142.834 Y140.866 Z-5.836
N14255 X142.588 Y140.969 Z-5.842
N14260 X142.35 Y141.091 Z-5.847
N14265 X142.121 Y141.231 Z-5.848
N14270 X141.905 Y141.39 Z-5.85
N14275 X141.701 Y141.564 Z-5.853
N14280 X141.512 Y141.754 Z-5.854
N14285 X141.372 Y141.915 Z-5.855
N14290 X141.212 Y142.13
N14295 X141.075 Y142.344 Z-5.852
N14300 X140.949 Y142.581 Z-5.849
N14305 X140.841 Y142.827 Z-5.846
N14310 X140.754 Y143.08
N14315 X140.686 Y143.34
N14320 X140.639 Y143.604 Z-5.847
N14325 X140.613 Y143.871
N14330 X140.606 Y144.184 Z-5.846
N14335 X140.599 Y145.257 Z-5.864
N14340 X140.596 Y145.744 Z-5.897
N14345 X140.593 Y146.213 Z-5.958
N14350 X140.589 Y146.795 Z-6.065
N14355 X140.586 Y147.255 Z-6.177
N14360 X140.559 Y151.442 Z-7.298
N14365 X140.557 Y151.731 Z-7.368
N14370 Y151.83 Z-7.149
N14375 X140.556 Y151.949 Z-6.938
N14380 X140.555 Y152.089 Z-6.736
N14385 X140.554 Y152.248 Z-6.545
N14390 X140.553 Y152.424 Z-6.367
N14395 X140.552 Y152.617 Z-6.203
N14400 X140.55 Y152.825 Z-6.056
N14405 X140.549 Y153.045 Z-5.924
N14410 X140.547 Y153.394 Z-5.752
N14415 X140.544 Y153.757 Z-5.615
N14420 X140.542 Y154.135 Z-5.511
N14425 X140.539 Y154.52 Z-5.441
N14430 X140.537 Y154.911 Z-5.405
N14435 X140.523 Y157.006 Z-5.4
N14440 X140.471 Y165.054 Z-5.402
N14445 X140.469 Y165.421 Z-5.428
N14450 X140.467 Y165.772 Z-5.48
N14455 X140.465 Y166.119 Z-5.56
N14460 X140.462 Y166.459 Z-5.669
N14465 X140.46 Y166.79 Z-5.807
N14470 X140.458 Y167.127 Z-5.985
N14475 X140.457 Y167.311 Z-6.103
N14480 X140.456 Y167.503 Z-6.252
N14485 X140.454 Y167.684 Z-6.418
N14490 X140.453 Y167.85 Z-6.6
N14495 X140.452 Y168.001 Z-6.798
N14500 Y168.135 Z-7.011
N14505 X140.451 Y168.267 Z-7.272
N14510 X140.441 Y169.765 Z-6.86
N14515 X140.43 Y171.49 Z-6.396
N14520 X140.423 Y172.61 Z-6.107
N14525 X140.42 Y172.993 Z-6.022
N14530 X140.418 Y173.381 Z-5.958
N14535 X140.414 Y173.9 Z-5.902
N14540 X140.411 Y174.43 Z-5.884
N14545 X140.404 Y175.569 Z-5.883
N14550 X140.399 Y176.218 Z-5.87
N14555 X140.41 Y176.486 Z-5.866
N14560 X140.441 Y176.752 Z-5.863
N14565 X140.494 Y177.015 Z-5.859
N14570 X140.566 Y177.273 Z-5.856
N14575 X140.659 Y177.525 Z-5.854
N14580 X140.777 Y177.781 Z-5.852
N14585 X140.908 Y178.014 Z-5.854
N14590 X141.058 Y178.237 Z-5.858
N14595 X141.224 Y178.447 Z-5.862
N14600 X141.407 Y178.644 Z-5.865
N14605 X141.604 Y178.826 Z-5.867
N14610 X141.814 Y178.992 Z-5.869
N14615 X142.038 Y179.141 Z-5.871
N14620 X142.272 Y179.271 Z-5.877
N14625 X142.507 Y179.38 Z-5.883
N14630 X142.759 Y179.474 Z-5.888
N14635 X143.017 Y179.547 Z-5.892
N14640 X143.28 Y179.601 Z-5.895
N14645 X143.383 Y179.616 Z-5.893
N14650 X143.546 Y179.633 Z-5.76
N14655 X143.719 Y179.643 Z-5.644
N14660 X143.919 Y179.645 Z-5.533
N14665 X144.272 Y179.647 Z-5.373
N14670 X144.641 Y179.65 Z-5.245
N14675 X145.02 Y179.652 Z-5.149
N14680 X145.407 Y179.655 Z-5.084
N14685 X145.798 Y179.657 Z-5.049
N14690 X146.195 Y179.66 Z-5.044
N14695 X146.624 Y179.662 Z-5.071
N14700 X148.525 Y179.674 Z-5.258
N14705 X149.752 Y179.682 Z-5.392
N14710 X150.281 Y179.686 Z-5.4
N14715 X158.696 Y179.739 Z-5.404
N14720 X159.031 Y179.741 Z-5.438
N14725 X159.379 Y179.744 Z-5.511
N14730 X159.72 Y179.746 Z-5.622
N14735 X159.94 Y179.747 Z-5.716
N14740 X160.154 Y179.749 Z-5.828
N14745 X160.359 Y179.75 Z-5.955
N14750 X160.555 Y179.751 Z-6.098
N14755 X160.739 Y179.752 Z-6.257
N14760 X160.912 Y179.753 Z-6.431
N14765 X161.072 Y179.754 Z-6.62
N14770 X161.217 Y179.755 Z-6.823
N14775 X161.345 Y179.756 Z-7.041
N14780 X161.457 Y179.757 Z-7.273
N14785 X161.55 Z-7.521
N14790 X161.622 Y179.758 Z-7.789
N14795 X161.647 Z-7.916
N14800 X164.251 Y179.775 Z-7.534
N14805 X166.335 Y179.788 Z-7.251
N14810 X169.148 Y179.806 Z-6.876
N14815 X170.164 Y179.812 Z-6.75
N14820 X171.182 Y179.819 Z-6.625
N14825 X172.143 Y179.825 Z-6.489
N14830 X172.289 Y179.826 Z-6.296
N14835 X172.455 Y179.827 Z-6.107
N14840 X172.636 Y179.828 Z-5.93
N14845 X172.83 Y179.829 Z-5.764
N14850 X173.036 Y179.831 Z-5.613
N14855 X173.253 Y179.832 Z-5.475
N14860 X173.479 Y179.833 Z-5.351
N14865 X173.714 Y179.835 Z-5.243
N14870 X174.05 Y179.837 Z-5.12
N14875 X174.395 Y179.839 Z-5.028
N14880 X174.716 Y179.841 Z-4.972
N14885 X175.092 Y179.844 Z-4.941
N14890 X176.463 Y179.852 Z-4.895
N14895 X176.731 Y179.842 Z-4.887
N14900 X176.998 Y179.811 Z-4.882
N14905 X177.261 Y179.758 Z-4.879
N14910 X177.519 Y179.686 Z-4.877
N14915 X177.771 Y179.594 Z-4.878
N14920 X178.014 Y179.482 Z-4.882
N14925 X178.249 Y179.351 Z-4.887
N14930 X178.466 Y179.207 Z-4.894
N14935 X178.678 Y179.042 Z-4.903
N14940 X178.894 Y178.844 Z-4.916
N14945 X179.035 Y178.693 Z-4.927
N14950 X179.185 Y178.511 Z-4.941
N14955 X179.337 Y178.298 Z-4.959
N14960 X179.459 Y178.096 Z-4.976
N14965 X179.578 Y177.863 Z-4.996
N14970 X179.669 Y177.646 Z-5.016
N14975 X179.746 Y177.424 Z-5.043
N14980 X179.806 Y177.198 Z-5.076
N14985 X179.852 Y176.969 Z-5.113
N14990 X179.881 Y176.738 Z-5.154
N14995 X179.896 Y176.441 Z-5.209
N15000 X179.902 Y175.498 Z-5.4
N15005 X179.953 Y167.341 Z-5.404
N15010 X179.954 Y167.114 Z-5.425
N15015 X179.956 Y166.88 Z-5.465
N15020 X179.957 Y166.649 Z-5.523
N15025 X179.959 Y166.367 Z-5.622
N15030 X179.961 Y166.095 Z-5.749
N15035 X179.962 Y165.886 Z-5.871
N15040 X179.963 Y165.687 Z-6.01
N15045 X179.965 Y165.499 Z-6.165
N15050 X179.966 Y165.323 Z-6.336
N15055 X179.967 Y165.161 Z-6.522
N15060 X179.968 Y165.013 Z-6.722
N15065 Y164.881 Z-6.937
N15070 X179.969 Y164.766 Z-7.165
N15075 X179.97 Y164.669 Z-7.408
N15080 Y164.606 Z-7.603
N15085 X179.992 Y161.113 Z-7.598
N15090 X180.007 Y158.774 Z-7.609
N15095 X180.019 Y156.896 Z-7.611
N15100 X180.028 Y155.395 Z-7.615
N15105 X180.029 Y155.328 Z-7.4
N15110 Y155.261 Z-7.228
N15115 X180.03 Y155.136 Z-6.969
N15120 X180.031 Y155.012 Z-6.759
N15125 Y154.868 Z-6.559
N15130 X180.032 Y154.707 Z-6.368
N15135 X180.034 Y154.529 Z-6.191
N15140 X180.035 Y154.336 Z-6.028
N15145 X180.036 Y154.129 Z-5.88
N15150 X180.037 Y153.909 Z-5.749
N15155 X180.039 Y153.678 Z-5.635
N15160 X180.04 Y153.438 Z-5.54
N15165 X180.042 Y153.19 Z-5.465
N15170 X180.044 Y152.936 Z-5.411
N15175 X180.045 Y152.677 Z-5.377
N15180 X180.047 Y152.349 Z-5.366
N15185 X180.083 Y146.728 Z-5.362
N15190 X180.084 Y146.459 Z-5.379
N15195 X180.085 Y146.306 Z-5.4
N15200 X180.096 Y144.548 Z-5.404
N15205 X180.102 Y143.663 Z-5.432
N15210 X180.104 Y143.212 Z-5.458
N15215 X180.096 Y143.035 Z-5.475
N15220 X180.072 Y142.802 Z-5.503
N15225 X180.046 Y142.644 Z-5.527
N15230 X179.989 Y142.389 Z-5.545
N15235 X179.92 Y142.163 Z-5.561
N15240 X179.806 Y141.874 Z-5.582
N15245 X179.713 Y141.682 Z-5.598
N15250 X179.596 Y141.478 Z-5.617
N15255 X179.45 Y141.26 Z-5.637
N15260 X179.288 Y141.054 Z-5.655
N15265 X179.11 Y140.861 Z-5.673
N15270 X178.939 Y140.7 Z-5.689
N15275 X178.735 Y140.535 Z-5.706
N15280 X178.494 Y140.37 Z-5.723
N15285 X178.264 Y140.239 Z-5.738
N15290 X177.997 Y140.114 Z-5.752
N15295 X177.7 Y140.007 Z-5.764
N15300 X177.398 Y139.928 Z-5.772
N15305 X177.067 Y139.874 Z-5.777
N15310 X176.787 Y139.854 Z-5.781
N15315 X175.743 Y139.847 Z-5.82
N15320 X175.441 Y139.845 Z-5.843
N15325 X175.009 Y139.842 Z-5.905
N15330 X174.213 Y139.838 Z-5.955
N15335 X173.157 Y139.831 Z-6.071
N15340 X172.662 Y139.828 Z-6.134
N15345 X170.606 Y139.815 Z-6.432
N15350 X166.293 Y139.788 Z-7.08
N15355 X163.276 Y139.77 Z-7.508
N15360 X161.762 Y139.76 Z-7.718
N15365 X161.714 Z-7.545
N15370 X161.621 Y139.759 Z-7.29
N15375 X161.528 Z-7.089
N15380 X161.409 Y139.758 Z-6.877
N15385 X161.27 Y139.757 Z-6.673
N15390 X161.114 Y139.756 Z-6.479
N15395 X160.941 Y139.755 Z-6.296
N15400 X160.752 Y139.754 Z-6.128
N15405 X160.549 Y139.753 Z-5.975
N15410 X160.333 Y139.751 Z-5.837
N15415 X160.106 Y139.75 Z-5.717
N15420 X159.868 Y139.748 Z-5.616
N15425 X159.623 Y139.747 Z-5.533
N15430 X159.371 Y139.745 Z-5.47
N15435 X159.113 Y139.744 Z-5.426
N15440 X158.853 Y139.742 Z-5.404
N15445 X149.844 Y139.686
N15450 X149.297 Y139.683 Z-5.445
N15455 X148.767 Y139.68 Z-5.464
N15460 X148.267 Y139.676 Z-5.497
N15465 X147.299 Y139.67 Z-5.575
N15470 X146.569 Y139.666 Z-5.671
N15475 X146.192 Y139.664 Z-5.728
N15480 X145.845 Y139.661 Z-5.806
N15485 X145.473 Y139.659 Z-5.924
N15490 X145.093 Y139.657 Z-5.858
N15495 X144.702 Y139.654 Z-5.822
N15500 X144.439 Y139.653 Z-5.817
N15505 X143.266 Y139.645 Z-5.873
N15510 X142.892 Y139.646 Z-5.886
N15515 X142.629 Y139.667 Z-5.894
N15520 X142.38 Y139.705 Z-5.902
N15525 X142.134 Y139.761 Z-5.908
N15530 X141.878 Y139.841 Z-5.912
N15535 X141.629 Y139.941 Z-5.915
N15540 X141.347 Y140.082 Z-5.917
N15545 X141.119 Y140.223 Z-5.914
N15550 X140.902 Y140.381
N15555 X140.726 Y140.53 Z-5.909
N15560 X140.534 Y140.717 Z-5.905
N15565 X140.358 Y140.92 Z-5.9
N15570 X140.199 Y141.134 Z-5.894
N15575 X140.056 Y141.361 Z-5.888
N15580 X139.918 Y141.629 Z-5.881
N15585 X139.826 Y141.846 Z-5.876
N15590 X139.73 Y142.136 Z-5.868
N15595 X139.678 Y142.347 Z-5.866
N15600 X139.628 Y142.645 Z-5.861
N15605 X139.607 Y142.879 Z-5.858
N15610 X139.6 Y143.312 Z-5.855
N15615 X139.591 Y144.722 Z-5.86
N15620 X139.578 Y146.858 Z-5.907
N15625 X139.575 Y147.329 Z-5.945
N15630 X139.573 Y147.798 Z-6.009
N15635 X139.57 Y148.263 Z-6.1
N15640 X139.567 Y148.721 Z-6.218
N15645 X139.556 Y150.47 Z-6.695
N15650 X139.55 Y151.393 Z-6.931
N15655 Y151.519 Z-6.722
N15660 X139.549 Y151.665 Z-6.523
N15665 X139.548 Y151.83 Z-6.336
N15670 X139.546 Y152.061 Z-6.12
N15675 X139.545 Y152.316 Z-5.929
N15680 X139.543 Y152.534 Z-5.796
N15685 X139.542 Y152.764 Z-5.681
N15690 X139.541 Y153.003 Z-5.584
N15695 X139.539 Y153.25 Z-5.507
N15700 X139.538 Y153.504 Z-5.448
N15705 X139.536 Y153.762 Z-5.408
N15710 X139.534 Y154.023 Z-5.388
N15715 X139.533 Y154.288
N15720 X139.531 Y154.54 Z-5.4
N15725 X139.462 Y165.787 Z-5.402
N15730 X139.461 Y166.036 Z-5.421
N15735 X139.459 Y166.271 Z-5.458
N15740 X139.458 Y166.502 Z-5.513
N15745 X139.456 Y166.729 Z-5.587
N15750 X139.455 Y167.032 Z-5.718
N15755 X139.453 Y167.269 Z-5.85
N15760 X139.452 Y167.471 Z-5.984
N15765 X139.451 Y167.662 Z-6.133
N15770 X139.45 Y167.843 Z-6.298
N15775 X139.449 Y168.011 Z-6.477
N15780 X139.448 Y168.165 Z-6.671
N15785 X139.447 Y168.306 Z-6.879
N15790 X139.436 Y170.054 Z-6.397
N15795 X139.428 Y171.426 Z-6.036
N15800 X139.425 Y171.81 Z-5.958
N15805 X139.423 Y172.2 Z-5.902
N15810 X139.42 Y172.723 Z-5.858
N15815 X139.416 Y173.253 Z-5.847
N15820 X139.403 Y175.412 Z-5.867
N15825 X139.398 Y176.216 Z-5.852
N15830 X139.392 Y177.226 Z-5.818
N15835 X139.403 Y177.494 Z-5.81
N15840 X139.43 Y177.737 Z-5.803
N15845 X139.475 Y177.976 Z-5.796
N15850 X139.544 Y178.236 Z-5.788
N15855 X139.651 Y178.531 Z-5.779
N15860 X139.732 Y178.714 Z-5.777
N15865 X139.858 Y178.951 Z-5.774
N15870 X140.002 Y179.177 Z-5.773
N15875 X140.172 Y179.401 Z-5.772
N15880 X140.35 Y179.601 Z-5.77
N15885 X140.544 Y179.787 Z-5.768
N15890 X140.751 Y179.957 Z-5.766
N15895 X140.971 Y180.11 Z-5.767
N15900 X141.202 Y180.246 Z-5.769
N15905 X141.444 Y180.363 Z-5.773
N15910 X141.694 Y180.461 Z-5.776
N15915 X141.95 Y180.538 Z-5.78
N15920 X142.212 Y180.596 Z-5.783
N15925 X142.381 Y180.622 Z-5.782
N15930 X142.545 Y180.639 Z-5.645
N15935 X142.68 Y180.647 Z-5.55
N15940 X142.909 Y180.65 Z-5.416
N15945 X143.259 Y180.652 Z-5.252
N15950 X143.626 Y180.655 Z-5.119
N15955 X144.003 Y180.657 Z-5.018
N15960 X144.389 Y180.659 Z-4.947
N15965 X144.78 Y180.662 Z-4.905
N15970 X145.176 Y180.664 Z-4.894
N15975 X145.62 Y180.667 Z-4.915
N15980 X147.542 Y180.678 Z-5.088
N15985 X149.267 Y180.689 Z-5.259
N15990 X150.547 Y180.697 Z-5.398
N15995 X158.856 Y180.747 Z-5.4
N16000 X159.123 Y180.749 Z-5.411
N16005 X159.475 Y180.751 Z-5.458
N16010 X159.822 Y180.753 Z-5.544
N16015 X160.158 Y180.755 Z-5.667
N16020 X160.375 Y180.756 Z-5.769
N16025 X160.584 Y180.757 Z-5.888
N16030 X160.833 Y180.759 Z-6.06
N16035 X161.067 Y180.76 Z-6.258
N16040 X161.239 Y180.761 Z-6.434
N16045 X161.396 Y180.762 Z-6.625
N16050 X161.539 Y180.763 Z-6.831
N16055 X161.665 Y180.764 Z-7.051
N16060 X161.773 Y180.765 Z-7.286
N16065 X161.833 Z-7.442
N16070 X163.366 Y180.774 Z-7.217
N16075 X165.423 Y180.787 Z-6.934
N16080 X166.465 Y180.793 Z-6.796
N16085 X166.96 Y180.796 Z-6.733
N16090 X169.514 Y180.812 Z-6.403
N16095 X170.27 Y180.816 Z-6.312
N16100 X171.432 Y180.823 Z-6.176
N16105 X172.332 Y180.829 Z-6.076
N16110 X172.725 Y180.831 Z-6.041
N16115 X172.976 Y180.833 Z-6.006
N16120 X173.151 Y180.834 Z-5.83
N16125 X173.343 Y180.835 Z-5.664
N16130 X173.548 Y180.836 Z-5.51
N16135 X173.763 Y180.837 Z-5.37
N16140 X173.989 Y180.839 Z-5.245
N16145 X174.223 Y180.84 Z-5.136
N16150 X174.586 Y180.842 Z-5.001
N16155 X174.839 Y180.844 Z-4.93
N16160 X175.218 Y180.846 Z-4.858
N16165 X175.483 Y180.848 Z-4.831
N16170 X177.476 Y180.86 Z-4.765
N16175 X177.744 Y180.849 Z-4.758
N16180 X178.01 Y180.818 Z-4.754
N16185 X178.273 Y180.766 Z-4.751
N16190 X178.531 Y180.693 Z-4.75
N16195 X178.783 Y180.6 Z-4.751
N16200 X179.027 Y180.488 Z-4.754
N16205 X179.261 Y180.358 Z-4.758
N16210 X179.484 Y180.209 Z-4.765
N16215 X179.678 Y180.058 Z-4.773
N16220 X179.855 Y179.899 Z-4.783
N16225 X180.036 Y179.71 Z-4.796
N16230 X180.233 Y179.467 Z-4.812
N16235 X180.354 Y179.292 Z-4.831
N16240 X180.474 Y179.091 Z-4.863
N16245 X180.58 Y178.883 Z-4.905
N16250 X180.67 Y178.67 Z-4.955
N16255 X180.746 Y178.453 Z-5.01
N16260 X180.807 Y178.232 Z-5.069
N16265 X180.853 Y178.008 Z-5.129
N16270 X180.883 Y177.782 Z-5.191
N16275 X180.899 Y177.555 Z-5.252
N16280 X180.904 Y176.997 Z-5.4
N16285 X180.919 Y174.5
N16290 X180.92 Y174.232 Z-5.412
N16295 X180.922 Y173.997 Z-5.437
N16300 X180.956 Y168.23 Z-5.474
N16305 X180.96 Y167.593 Z-5.489
N16310 X180.962 Y167.324 Z-5.513
N16315 X180.964 Y166.975 Z-5.578
N16320 X180.966 Y166.632 Z-5.68
N16325 X180.967 Y166.409 Z-5.769
N16330 X180.968 Y166.194 Z-5.875
N16335 X180.97 Y165.986 Z-5.997
N16340 X180.971 Y165.74 Z-6.173
N16345 X180.972 Y165.512 Z-6.375
N16350 X180.973 Y165.344 Z-6.555
N16355 X180.974 Y165.191 Z-6.751
N16360 X180.975 Y165.054 Z-6.962
N16365 X180.976 Y164.963 Z-7.13
N16370 X181. Y160.956 Z-7.142
N16375 X181.015 Y158.351 Z-7.158
N16380 X181.035 Y155.128 Z-7.178
N16385 Y155. Z-6.907
N16390 X181.036 Y154.86 Z-6.668
N16395 X181.037 Y154.717 Z-6.465
N16400 X181.038 Y154.557 Z-6.273
N16405 X181.039 Y154.381 Z-6.093
N16410 X181.04 Y154.189 Z-5.926
N16415 X181.041 Y153.985 Z-5.774
N16420 X181.043 Y153.696 Z-5.6
N16425 X181.045 Y153.419 Z-5.47
N16430 X181.046 Y153.176 Z-5.381
N16435 X181.048 Y152.926 Z-5.312
N16440 X181.049 Y152.67 Z-5.264
N16445 X181.051 Y152.41 Z-5.238
N16450 X181.058 Y151.206 Z-5.231
N16455 X181.085 Y146.704 Z-5.229
N16460 X181.087 Y146.453 Z-5.247
N16465 X181.088 Y146.218 Z-5.283
N16470 X181.089 Y145.987 Z-5.337
N16475 X181.091 Y145.784 Z-5.4
N16480 X181.112 Y142.273 Z-5.401
N16485 X181.101 Y142.005 Z-5.408
N16490 X181.07 Y141.741 Z-5.423
N16495 X181.032 Y141.539 Z-5.444
N16500 X180.974 Y141.312 Z-5.479
N16505 X180.901 Y141.091 Z-5.528
N16510 X180.813 Y140.875 Z-5.592
N16515 X180.716 Y140.676 Z-5.673
N16520 X180.696 Y140.637 Z-5.691
N16525 X180.562 Y140.413 Z-5.715
N16530 X180.412 Y140.199 Z-5.738
N16535 X180.246 Y139.997 Z-5.76
N16540 X180.083 Y139.826 Z-5.781
N16545 X179.91 Y139.668 Z-5.802
N16550 X179.726 Y139.521 Z-5.821
N16555 X179.51 Y139.373 Z-5.841
N16560 X179.283 Y139.242 Z-5.859
N16565 X179.071 Y139.14 Z-5.875
N16570 X178.827 Y139.043 Z-5.888
N16575 X178.576 Y138.965 Z-5.899
N16580 X178.346 Y138.912 Z-5.908
N16585 X178.082 Y138.871 Z-5.913
N16590 X177.815 Y138.85 Z-5.916
N16595 X176.765 Y138.842 Z-5.915
N16600 X176.497 Y138.841 Z-5.921
N16605 X175.49 Y138.835 Z-5.861
N16610 X174.473 Y138.829 Z-5.819
N16615 X173.286 Y138.822 Z-5.816
N16620 X172.634 Y138.818 Z-5.833
N16625 X171.574 Y138.811 Z-5.9
N16630 X170.869 Y138.807 Z-5.969
N16635 X169.789 Y138.801 Z-6.111
N16640 X166.75 Y138.783 Z-6.58
N16645 X165.737 Y138.777 Z-6.733
N16650 X163.995 Y138.767 Z-6.983
N16655 X161.967 Y138.755 Z-7.274
N16660 X161.862 Y138.754 Z-7.288
N16665 X161.768 Y138.753 Z-7.069
N16670 X161.655 Z-6.855
N16675 X161.523 Y138.752 Z-6.648
N16680 X161.372 Y138.751 Z-6.451
N16685 X161.204 Y138.75 Z-6.265
N16690 X161.019 Y138.749 Z-6.093
N16695 X160.819 Y138.748 Z-5.937
N16700 X160.605 Y138.747 Z-5.798
N16705 X160.379 Y138.745 Z-5.677
N16710 X160.142 Y138.744 Z-5.575
N16715 X159.896 Y138.742 Z-5.494
N16720 X159.643 Y138.741 Z-5.435
N16725 X159.385 Y138.739 Z-5.398
N16730 X159.123 Y138.738 Z-5.383
N16735 X158.485 Y138.734 Z-5.4
N16740 X150.571 Y138.687 Z-5.404
N16745 X150.023 Y138.684 Z-5.438
N16750 X149.228 Y138.679 Z-5.468
N16755 X148.728 Y138.676 Z-5.501
N16760 X147.706 Y138.67 Z-5.581
N16765 X146.553 Y138.663 Z-5.688
N16770 X145.526 Y138.657 Z-5.852
N16775 X145.465 Z-5.855
N16780 X145.101 Y138.655 Z-5.847
N16785 X143.705 Y138.647 Z-5.913
N16790 X142.811 Y138.641 Z-5.955
N16795 X141.904 Y138.639 Z-5.98
N16800 X141.621 Y138.66 Z-5.987
N16805 X141.364 Y138.7 Z-5.993
N16810 X141.111 Y138.76 Z-5.997
N16815 X140.818 Y138.855
N16820 X140.571 Y138.959 Z-5.993
N16825 X140.333 Y139.082 Z-5.989
N16830 X140.105 Y139.223 Z-5.984
N16835 X139.888 Y139.382 Z-5.975
N16840 X139.708 Y139.536 Z-5.968
N16845 X139.518 Y139.725 Z-5.958
N16850 X139.362 Y139.903 Z-5.949
N16855 X139.201 Y140.118 Z-5.94
N16860 X139.073 Y140.318 Z-5.931
N16865 X138.948 Y140.551 Z-5.919
N16870 X138.827 Y140.827 Z-5.905
N16875 X138.761 Y141.012 Z-5.897
N16880 X138.689 Y141.271 Z-5.887
N16885 X138.642 Y141.503 Z-5.879
N16890 X138.609 Y141.769 Z-5.872
N16895 X138.596 Y142.042 Z-5.866
N16900 X138.587 Y143.651 Z-5.846
N16905 X138.57 Y146.602 Z-5.876
N16910 X138.561 Y148.141 Z-5.927
N16915 X138.558 Y148.613 Z-5.964
N16920 X138.555 Y149.081 Z-6.025
N16925 X138.553 Y149.546 Z-6.114
N16930 X138.55 Y150.007 Z-6.222
N16935 X138.543 Y151.103 Z-6.499
N16940 X138.542 Y151.258 Z-6.303
N16945 X138.541 Y151.431 Z-6.121
N16950 X138.54 Y151.62 Z-5.954
N16955 X138.539 Y151.824 Z-5.802
N16960 X138.538 Y152.041 Z-5.667
N16965 X138.537 Y152.27 Z-5.55
N16970 X138.535 Y152.508 Z-5.451
N16975 X138.534 Y152.755 Z-5.37
N16980 X138.532 Y153.008 Z-5.309
N16985 X138.531 Y153.266 Z-5.267
N16990 X138.529 Y153.527 Z-5.245
N16995 X138.528 Y153.789 Z-5.241
N17000 X138.525 Y154.293 Z-5.274
