%
(1001.2)
(T4  D=6. CR=3. - ZMIN=-24.3 - BALL END MILL)
N10 G90 G94 G17 G91.1
N15 G21
N20 G53 G0 Z0.
(MORPHED SPIRAL1)
N25 T4 M6
N30 S5000 M3
N40 M8
N45 G0 X161.915 Y159.446
N50 G43 Z35. H4
N55 G0 Z-10.752
N60 G1 Z-17.401 F700.
N65 X161.912 Y159.44 Z-17.456
N70 X161.904 Y159.42 Z-17.507
N75 X161.892 Y159.389 Z-17.551
N80 X161.875 Y159.348 Z-17.584
N85 X161.856 Y159.3 Z-17.606
N90 X161.836 Y159.249 Z-17.613
N95 X161.816 Y159.198 Z-17.606
N100 X161.797 Y159.151 Z-17.584
N105 X161.78 Y159.11 Z-17.551
N110 X161.768 Y159.079 Z-17.507
N115 X161.76 Y159.059 Z-17.456
N120 X161.757 Y159.052 Z-17.401
N125 Z-14.748 F1000.
N130 X161.754 Y159.045 Z-14.665
N135 X161.748 Y159.029 Z-14.603
N140 X161.721 Y158.968 Z-14.487
N145 X161.687 Y158.898 Z-14.418
N150 X161.64 Y158.811 Z-14.323
N155 X161.596 Y158.738 Z-14.275
N160 X161.533 Y158.647 Z-14.205
N165 X161.493 Y158.593 Z-14.179
N170 X161.467 Y158.561 Z-14.155
N175 X161.382 Y158.463 Z-14.108
N180 X161.316 Y158.397 Z-14.066
N185 X161.231 Y158.32 Z-14.036
N190 X161.147 Y158.252 Z-14.002
N195 X161.092 Y158.213 Z-13.99
N200 X161.011 Y158.159 Z-13.962
N205 X160.924 Y158.108 Z-13.947
N210 X160.864 Y158.076 Z-13.93
N215 X160.758 Y158.026 Z-13.917
N220 X160.65 Y157.984 Z-13.9
N225 X160.582 Y157.961 Z-13.895
N230 X160.524 Y157.943 Z-13.886
N235 X160.397 Y157.912 Z-13.88
N240 X160.281 Y157.892 Z-13.873
N245 X160.211 Y157.883 Z-13.874
N250 X160.037 Y157.871 Z-13.869
N255 X159.842 Y157.86 Z-13.815
N260 X159.748 Y157.858 Z-13.778
N265 X159.636 Y157.861 Z-13.744
N270 X159.495 Y157.873 Z-13.7
N275 X159.41 Y157.885 Z-13.672
N280 X159.241 Y157.919 Z-13.625
N285 X159.095 Y157.961 Z-13.588
N290 X158.969 Y158.006 Z-13.552
N295 X158.764 Y158.099 Z-13.503
N300 X158.665 Y158.154 Z-13.479
N305 X158.473 Y158.282 Z-13.436
N310 X158.295 Y158.431 Z-13.399
N315 X158.212 Y158.513 Z-13.384
N320 X158.105 Y158.634 Z-13.364
N325 X158.024 Y158.738 Z-13.346
N330 X157.95 Y158.848 Z-13.333
N335 X157.853 Y159.019 Z-13.317
N340 X157.81 Y159.109 Z-13.307
N345 X157.724 Y159.328 Z-13.294
N350 X157.67 Y159.528 Z-13.286
N355 X157.637 Y159.723 Z-13.281
N360 X157.617 Y160. Z-13.278
N365 X157.607 Y160.252 Z-13.235
N370 X157.618 Y160.482 Z-13.195
N375 X157.651 Y160.71 Z-13.156
N380 X157.707 Y160.936 Z-13.12
N385 X157.785 Y161.155 Z-13.087
N390 X157.884 Y161.367 Z-13.056
N395 X158.004 Y161.568 Z-13.028
N400 X158.143 Y161.757 Z-13.003
N405 X158.3 Y161.931 Z-12.98
N410 X158.474 Y162.089 Z-12.961
N415 X158.663 Y162.23 Z-12.944
N420 X158.865 Y162.351 Z-12.93
N425 X159.082 Y162.453 Z-12.918
N430 X159.29 Y162.528 Z-12.91
N435 X159.503 Y162.582 Z-12.905
N440 X159.73 Y162.618 Z-12.902
N445 X159.874 Y162.63
N450 X160.063 Y162.639 Z-12.896
N455 X160.285 Y162.644 Z-12.87
N460 X160.448 Y162.637 Z-12.848
N465 X160.63 Y162.617 Z-12.828
N470 X160.861 Y162.573 Z-12.802
N475 X161.088 Y162.508 Z-12.779
N480 X161.308 Y162.423 Z-12.756
N485 X161.519 Y162.319 Z-12.735
N490 X161.72 Y162.197 Z-12.716
N495 X161.91 Y162.057 Z-12.699
N500 X162.086 Y161.9 Z-12.683
N505 X162.228 Y161.751 Z-12.672
N510 X162.358 Y161.591 Z-12.659
N515 X162.46 Y161.446 Z-12.649
N520 X162.579 Y161.243 Z-12.64
N525 X162.696 Y160.991 Z-12.63
N530 X162.778 Y160.753 Z-12.624
N535 X162.838 Y160.505 Z-12.62
N540 X162.873 Y160.257 Z-12.618
N545 X162.882 Y160.126 Z-12.62
N550 X162.895 Y159.811 Z-12.602
N555 X162.89 Y159.572 Z-12.583
N560 X162.867 Y159.338 Z-12.565
N565 X162.836 Y159.165 Z-12.55
N570 X162.779 Y158.937 Z-12.532
N575 X162.704 Y158.714 Z-12.515
N580 X162.604 Y158.484 Z-12.498
N585 X162.48 Y158.255 Z-12.482
N590 X162.341 Y158.047 Z-12.467
N595 X162.185 Y157.852 Z-12.455
N600 X162.016 Y157.674 Z-12.443
N605 X161.834 Y157.512 Z-12.434
N610 X161.739 Y157.438 Z-12.427
N615 X161.542 Y157.303 Z-12.419
N620 X161.337 Y157.186 Z-12.413
N625 X161.124 Y157.086 Z-12.408
N630 X161.014 Y157.043 Z-12.404
N635 X160.774 Y156.966 Z-12.399
N640 X160.497 Y156.904 Z-12.396
N645 X160.241 Y156.872 Z-12.395
N650 X159.972 Y156.859 Z-12.392
N655 X159.631 Y156.855 Z-12.372
N660 X159.38 Y156.875 Z-12.357
N665 X159.125 Y156.915 Z-12.342
N670 X158.889 Y156.973 Z-12.329
N675 X158.664 Y157.046 Z-12.317
N680 X158.446 Y157.136 Z-12.305
N685 X158.235 Y157.242 Z-12.293
N690 X158.033 Y157.363 Z-12.282
N695 X157.828 Y157.509 Z-12.272
N700 X157.623 Y157.682 Z-12.262
N705 X157.434 Y157.872 Z-12.253
N710 X157.263 Y158.076 Z-12.246
N715 X157.185 Y158.182 Z-12.24
N720 X157.046 Y158.396 Z-12.234
N725 X156.911 Y158.652 Z-12.228
N730 X156.797 Y158.927 Z-12.223
N735 X156.709 Y159.212 Z-12.22
N740 X156.649 Y159.505 Z-12.217
N745 X156.619 Y159.771
N750 X156.606 Y160.063 Z-12.213
N755 X156.602 Y160.319 Z-12.203
N760 X156.617 Y160.58 Z-12.191
N765 X156.64 Y160.76 Z-12.181
N770 X156.683 Y160.992 Z-12.172
N775 X156.743 Y161.22 Z-12.163
N780 X156.818 Y161.443 Z-12.153
N785 X156.922 Y161.69 Z-12.143
N790 X157.036 Y161.912 Z-12.134
N795 X157.161 Y162.117 Z-12.126
N800 X157.319 Y162.337 Z-12.119
N805 X157.491 Y162.54 Z-12.111
N810 X157.655 Y162.708 Z-12.104
N815 X157.857 Y162.885 Z-12.097
N820 X158.071 Y163.045 Z-12.092
N825 X158.307 Y163.193 Z-12.087
N830 X158.522 Y163.306 Z-12.085
N835 X158.768 Y163.413 Z-12.08
N840 X159.022 Y163.5 Z-12.077
N845 X159.333 Y163.577 Z-12.075
N850 X159.651 Y163.624 Z-12.073
N855 X160.008 Y163.644 Z-12.072
N860 X160.468 Y163.658 Z-12.051
N865 X160.736 Y163.647 Z-12.036
N870 X160.965 Y163.621 Z-12.022
N875 X161.197 Y163.579 Z-12.01
N880 X161.426 Y163.521 Z-12.
N885 X161.649 Y163.447 Z-11.99
N890 X161.897 Y163.344 Z-11.979
N895 X162.114 Y163.235 Z-11.971
N900 X162.374 Y163.077 Z-11.963
N905 X162.61 Y162.903 Z-11.957
N910 X162.794 Y162.744 Z-11.951
N915 X162.992 Y162.544 Z-11.946
N920 X163.174 Y162.328 Z-11.943
N925 X163.336 Y162.099 Z-11.942
N930 X163.476 Y161.862 Z-11.941
N935 X163.602 Y161.603
N940 X163.699 Y161.353 Z-11.942
N945 X163.78 Y161.083 Z-11.945
N950 X163.838 Y160.81 Z-11.949
N955 X163.867 Y160.596 Z-11.952
N960 X163.887 Y160.261 Z-11.959
N965 X163.903 Y159.77 Z-11.954
N970 X163.917 Y159.288 Z-11.927
N975 X163.906 Y159.026 Z-11.911
N980 X163.875 Y158.759 Z-11.898
N985 X163.832 Y158.532 Z-11.886
N990 X163.772 Y158.304 Z-11.876
N995 X163.684 Y158.049 Z-11.867
N1000 X163.592 Y157.833 Z-11.859
N1005 X163.474 Y157.606 Z-11.852
N1010 X163.325 Y157.366 Z-11.847
N1015 X163.145 Y157.124 Z-11.842
N1020 X162.967 Y156.924 Z-11.838
N1025 X162.74 Y156.707 Z-11.836
N1030 X162.493 Y156.512 Z-11.835
N1035 X162.251 Y156.353 Z-11.836
N1040 X162.016 Y156.225 Z-11.837
N1045 X161.771 Y156.115 Z-11.839
N1050 X161.477 Y156.013 Z-11.844
N1055 X161.184 Y155.939 Z-11.85
N1060 X160.886 Y155.892 Z-11.857
N1065 X160.602 Y155.871 Z-11.865
N1070 X159.96 Y155.852 Z-11.872
N1075 X159.348 Y155.833 Z-11.854
N1080 X158.979 Y155.826 Z-11.833
N1085 X158.782 Y155.836 Z-11.823
N1090 X158.548 Y155.862 Z-11.813
N1095 X158.316 Y155.904 Z-11.804
N1100 X158.057 Y155.971 Z-11.796
N1105 X157.793 Y156.063 Z-11.79
N1110 X157.518 Y156.185 Z-11.783
N1115 X157.283 Y156.314 Z-11.779
N1120 X157.058 Y156.461 Z-11.776
N1125 X156.846 Y156.626 Z-11.774
N1130 X156.634 Y156.819 Z-11.772
N1135 X156.437 Y157.033
N1140 X156.269 Y157.247
N1145 X156.119 Y157.474
N1150 X155.987 Y157.712 Z-11.774
N1155 X155.876 Y157.957 Z-11.776
N1160 X155.785 Y158.209 Z-11.779
N1165 X155.714 Y158.467 Z-11.783
N1170 X155.663 Y158.731 Z-11.788
N1175 X155.63 Y159.043 Z-11.796
N1180 X155.607 Y159.79 Z-11.81
N1185 X155.586 Y160.536 Z-11.801
N1190 X155.568 Y161.233 Z-11.777
N1195 X155.579 Y161.468 Z-11.769
N1200 X155.608 Y161.72 Z-11.763
N1205 X155.658 Y161.979 Z-11.758
N1210 X155.729 Y162.238 Z-11.755
N1215 X155.821 Y162.49 Z-11.753
N1220 X155.931 Y162.734 Z-11.751
N1225 X156.096 Y163.026
N1230 X156.289 Y163.3 Z-11.75
N1235 X156.461 Y163.505
N1240 X156.63 Y163.677
N1245 X156.876 Y163.891
N1250 X157.11 Y164.059
N1255 X157.399 Y164.23
N1260 X157.703 Y164.371 Z-11.751
N1265 X158.003 Y164.477 Z-11.752
N1270 X158.279 Y164.547 Z-11.753
N1275 X158.544 Y164.593 Z-11.755
N1280 X158.855 Y164.619 Z-11.76
N1285 X160.112 Y164.654 Z-11.77
N1290 X161.446 Y164.689 Z-11.751
N1295 X161.714 Y164.678 Z-11.75
N1300 X161.98 Y164.647
N1305 X162.169 Y164.611
N1310 X162.428 Y164.544
N1315 X162.682 Y164.457
N1320 X162.928 Y164.351
N1325 X163.165 Y164.225
N1330 X163.392 Y164.082
N1335 X163.606 Y163.921
N1340 X163.807 Y163.743
N1345 X163.994 Y163.551
N1350 X164.165 Y163.344
N1355 X164.32 Y163.125
N1360 X164.456 Y162.894
N1365 X164.575 Y162.654
N1370 X164.674 Y162.404
N1375 X164.753 Y162.148
N1380 X164.812 Y161.887
N1385 X164.85 Y161.621
N1390 X164.868 Y161.353
N1395 X164.943 Y158.399
N1400 X164.942 Y158.177
N1405 X164.921 Y157.909
N1410 X164.879 Y157.644
N1415 X164.817 Y157.383
N1420 X164.734 Y157.128
N1425 X164.632 Y156.88
N1430 X164.51 Y156.641
N1435 X164.371 Y156.412
N1440 X164.214 Y156.195
N1445 X164.04 Y155.991
N1450 X163.851 Y155.801
N1455 X163.647 Y155.626
N1460 X163.431 Y155.468
N1465 X163.203 Y155.327
N1470 X162.964 Y155.204
N1475 X162.717 Y155.1
N1480 X162.462 Y155.017
N1485 X162.201 Y154.953
N1490 X161.937 Y154.91
N1495 X161.702 Y154.889
N1500 X159.188 Y154.826
N1505 X158.063 Y154.8
N1510 X157.795 Y154.81
N1515 X157.529 Y154.842
N1520 X157.266 Y154.894
N1525 X157.007 Y154.966
N1530 X156.756 Y155.059
N1535 X156.512 Y155.171
N1540 X156.278 Y155.301
N1545 X156.055 Y155.45
N1550 X155.844 Y155.616
N1555 X155.646 Y155.797
N1560 X155.464 Y155.994
N1565 X155.297 Y156.204
N1570 X155.147 Y156.426
N1575 X155.015 Y156.66
N1580 X154.902 Y156.903
N1585 X154.808 Y157.154
N1590 X154.734 Y157.412
N1595 X154.681 Y157.675
N1600 X154.648 Y157.941
N1605 X154.634 Y158.281
N1610 X154.545 Y162.107
N1615 X154.547 Y162.32
N1620 X154.568 Y162.588
N1625 X154.61 Y162.853
N1630 X154.672 Y163.113
N1635 X154.755 Y163.369
N1640 X154.857 Y163.617
N1645 X154.979 Y163.856
N1650 X155.118 Y164.085
N1655 X155.276 Y164.302
N1660 X155.449 Y164.506
N1665 X155.639 Y164.696
N1670 X155.842 Y164.871
N1675 X156.059 Y165.029
N1680 X156.287 Y165.17
N1685 X156.525 Y165.292
N1690 X156.773 Y165.396
N1695 X157.028 Y165.48
N1700 X157.288 Y165.543
N1705 X157.553 Y165.586
N1710 X157.79 Y165.607
N1715 X160.039 Y165.658
N1720 X162.435 Y165.711
N1725 X162.703 Y165.7
N1730 X162.969 Y165.669
N1735 X163.233 Y165.617
N1740 X163.491 Y165.544
N1745 X163.742 Y165.452
N1750 X163.986 Y165.34
N1755 X164.22 Y165.209
N1760 X164.444 Y165.06
N1765 X164.654 Y164.894
N1770 X164.852 Y164.713
N1775 X165.034 Y164.516
N1780 X165.201 Y164.306
N1785 X165.35 Y164.083
N1790 X165.482 Y163.85
N1795 X165.595 Y163.607
N1800 X165.689 Y163.355
N1805 X165.762 Y163.097
N1810 X165.816 Y162.835
N1815 X165.848 Y162.568
N1820 X165.862 Y162.225
N1825 X165.966 Y157.319
N1830 X165.955 Y157.051
N1835 X165.924 Y156.784
N1840 X165.871 Y156.521
N1845 X165.799 Y156.263
N1850 X165.706 Y156.011
N1855 X165.594 Y155.768
N1860 X165.464 Y155.533
N1865 X165.315 Y155.31
N1870 X165.15 Y155.099
N1875 X164.968 Y154.902
N1880 X164.772 Y154.719
N1885 X164.562 Y154.552
N1890 X164.339 Y154.403
N1895 X164.106 Y154.271
N1900 X163.862 Y154.158
N1905 X163.611 Y154.064
N1910 X163.353 Y153.99
N1915 X163.091 Y153.936
N1920 X162.824 Y153.904
N1925 X162.474 Y153.89
N1930 X157.072 Y153.78
N1935 X156.804 Y153.79
N1940 X156.537 Y153.822
N1945 X156.274 Y153.874
N1950 X156.016 Y153.947
N1955 X155.764 Y154.039
N1960 X155.52 Y154.151
N1965 X155.286 Y154.281
N1970 X155.063 Y154.43
N1975 X154.852 Y154.595
N1980 X154.654 Y154.777
N1985 X154.472 Y154.973
N1990 X154.305 Y155.183
N1995 X154.155 Y155.406
N2000 X154.023 Y155.639
N2005 X153.91 Y155.882
N2010 X153.816 Y156.133
N2015 X153.742 Y156.391
N2020 X153.688 Y156.654
N2025 X153.655 Y156.92
N2030 X153.641 Y157.276
N2035 X153.526 Y163.181
N2040 X153.536 Y163.449
N2045 X153.568 Y163.716
N2050 X153.62 Y163.979
N2055 X153.692 Y164.237
N2060 X153.785 Y164.489
N2065 X153.897 Y164.732
N2070 X154.028 Y164.966
N2075 X154.176 Y165.19
N2080 X154.342 Y165.401
N2085 X154.524 Y165.598
N2090 X154.72 Y165.78
N2095 X154.93 Y165.947
N2100 X155.153 Y166.096
N2105 X155.387 Y166.228
N2110 X155.63 Y166.341
N2115 X155.881 Y166.435
N2120 X156.139 Y166.509
N2125 X156.402 Y166.562
N2130 X156.668 Y166.594
N2135 X157.02 Y166.608
N2140 X163.426 Y166.728
N2145 X163.694 Y166.718
N2150 X163.961 Y166.686
N2155 X164.224 Y166.634
N2160 X164.482 Y166.562
N2165 X164.734 Y166.469
N2170 X164.977 Y166.357
N2175 X165.212 Y166.227
N2180 X165.435 Y166.078
N2185 X165.646 Y165.913
N2190 X165.843 Y165.731
N2195 X166.026 Y165.535
N2200 X166.193 Y165.325
N2205 X166.343 Y165.103
N2210 X166.475 Y164.869
N2215 X166.588 Y164.626
N2220 X166.682 Y164.375
N2225 X166.756 Y164.117
N2230 X166.81 Y163.855
N2235 X166.843 Y163.588
N2240 X166.857 Y163.227
N2245 X166.982 Y156.388
N2250 X166.98 Y156.192
N2255 X166.959 Y155.924
N2260 X166.917 Y155.659
N2265 X166.855 Y155.398
N2270 X166.772 Y155.143
N2275 X166.67 Y154.895
N2280 X166.548 Y154.656
N2285 X166.409 Y154.427
N2290 X166.252 Y154.21
N2295 X166.078 Y154.005
N2300 X165.889 Y153.815
N2305 X165.686 Y153.64
N2310 X165.47 Y153.481
N2315 X165.242 Y153.34
N2320 X165.003 Y153.217
N2325 X164.756 Y153.114
N2330 X164.501 Y153.029
N2335 X164.241 Y152.965
N2340 X163.976 Y152.922
N2345 X163.728 Y152.9
N2350 X162.003 Y152.868
N2355 X156.135 Y152.765
N2360 X155.941 Y152.767
N2365 X155.674 Y152.788
N2370 X155.409 Y152.829
N2375 X155.148 Y152.892
N2380 X154.893 Y152.974
N2385 X154.645 Y153.077
N2390 X154.406 Y153.198
N2395 X154.177 Y153.338
N2400 X153.959 Y153.495
N2405 X153.755 Y153.668
N2410 X153.565 Y153.857
N2415 X153.39 Y154.061
N2420 X153.231 Y154.277
N2425 X153.09 Y154.505
N2430 X152.967 Y154.743
N2435 X152.864 Y154.991
N2440 X152.779 Y155.245
N2445 X152.715 Y155.506
N2450 X152.672 Y155.771
N2455 X152.65 Y156.02
N2460 X152.619 Y157.745
N2465 X152.51 Y164.177
N2470 X152.521 Y164.445
N2475 X152.552 Y164.712
N2480 X152.605 Y164.975
N2485 X152.677 Y165.233
N2490 X152.77 Y165.485
N2495 X152.882 Y165.728
N2500 X153.012 Y165.962
N2505 X153.161 Y166.186
N2510 X153.326 Y166.397
N2515 X153.508 Y166.594
N2520 X153.704 Y166.777
N2525 X153.915 Y166.943
N2530 X154.137 Y167.093
N2535 X154.371 Y167.225
N2540 X154.614 Y167.338
N2545 X154.865 Y167.432
N2550 X155.123 Y167.506
N2555 X155.386 Y167.559
N2560 X155.652 Y167.592
N2565 X156.015 Y167.606
N2570 X164.423 Y167.743
N2575 X164.691 Y167.732
N2580 X164.958 Y167.701
N2585 X165.221 Y167.649
N2590 X165.479 Y167.576
N2595 X165.731 Y167.484
N2600 X165.974 Y167.372
N2605 X166.209 Y167.242
N2610 X166.432 Y167.093
N2615 X166.643 Y166.928
N2620 X166.841 Y166.746
N2625 X167.023 Y166.55
N2630 X167.19 Y166.34
N2635 X167.34 Y166.118
N2640 X167.472 Y165.884
N2645 X167.586 Y165.641
N2650 X167.68 Y165.39
N2655 X167.754 Y165.133
N2660 X167.808 Y164.87
N2665 X167.841 Y164.604
N2670 X167.853 Y164.367
N2675 X167.996 Y155.324
N2680 X167.986 Y155.056
N2685 X167.954 Y154.789
N2690 X167.902 Y154.526
N2695 X167.83 Y154.268
N2700 X167.737 Y154.016
N2705 X167.625 Y153.773
N2710 X167.495 Y153.538
N2715 X167.346 Y153.315
N2720 X167.18 Y153.104
N2725 X166.999 Y152.907
N2730 X166.802 Y152.724
N2735 X166.592 Y152.557
N2740 X166.37 Y152.408
N2745 X166.136 Y152.276
N2750 X165.893 Y152.163
N2755 X165.642 Y152.069
N2760 X165.384 Y151.995
N2765 X165.121 Y151.941
N2770 X164.855 Y151.908
N2775 X164.488 Y151.895
N2780 X155.079 Y151.751
N2785 X154.811 Y151.761
N2790 X154.544 Y151.792
N2795 X154.281 Y151.844
N2800 X154.023 Y151.917
N2805 X153.771 Y152.009
N2810 X153.527 Y152.121
N2815 X153.293 Y152.252
N2820 X153.07 Y152.4
N2825 X152.859 Y152.565
N2830 X152.661 Y152.747
N2835 X152.478 Y152.943
N2840 X152.311 Y153.153
N2845 X152.161 Y153.375
N2850 X152.029 Y153.608
N2855 X151.915 Y153.851
N2860 X151.821 Y154.102
N2865 X151.747 Y154.36
N2870 X151.692 Y154.623
N2875 X151.659 Y154.889
N2880 X151.647 Y155.131
N2885 X151.497 Y165.173
N2890 X151.508 Y165.441
N2895 X151.539 Y165.707
N2900 X151.591 Y165.97
N2905 X151.664 Y166.228
N2910 X151.756 Y166.48
N2915 X151.868 Y166.724
N2920 X151.999 Y166.958
N2925 X152.147 Y167.182
N2930 X152.312 Y167.393
N2935 X152.494 Y167.59
N2940 X152.69 Y167.773
N2945 X152.9 Y167.94
N2950 X153.122 Y168.09
N2955 X153.356 Y168.222
N2960 X153.599 Y168.335
N2965 X153.85 Y168.43
N2970 X154.108 Y168.504
N2975 X154.37 Y168.558
N2980 X154.636 Y168.591
N2985 X154.879 Y168.603
N2990 X165.422 Y168.756
N2995 X165.69 Y168.745
N3000 X165.956 Y168.714
N3005 X166.219 Y168.662
N3010 X166.478 Y168.589
N3015 X166.729 Y168.497
N3020 X166.973 Y168.385
N3025 X167.208 Y168.255
N3030 X167.431 Y168.106
N3035 X167.642 Y167.941
N3040 X167.84 Y167.759
N3045 X168.023 Y167.563
N3050 X168.189 Y167.353
N3055 X168.339 Y167.131
N3060 X168.472 Y166.898
N3065 X168.585 Y166.655
N3070 X168.679 Y166.404
N3075 X168.754 Y166.146
N3080 X168.808 Y165.883
N3085 X168.841 Y165.617
N3090 X168.853 Y165.372
N3095 X169.009 Y154.323
N3100 X168.998 Y154.055
N3105 X168.967 Y153.788
N3110 X168.915 Y153.525
N3115 X168.842 Y153.267
N3120 X168.749 Y153.015
N3125 X168.638 Y152.772
N3130 X168.507 Y152.537
N3135 X168.358 Y152.314
N3140 X168.193 Y152.103
N3145 X168.011 Y151.906
N3150 X167.815 Y151.723
N3155 X167.605 Y151.557
N3160 X167.382 Y151.407
N3165 X167.148 Y151.275
N3170 X166.905 Y151.162
N3175 X166.654 Y151.068
N3180 X166.396 Y150.994
N3185 X166.133 Y150.941
N3190 X165.867 Y150.908
N3195 X165.629 Y150.896
N3200 X154.117 Y150.739
N3205 X153.802 Y150.749
N3210 X153.536 Y150.78
N3215 X153.273 Y150.833
N3220 X153.015 Y150.905
N3225 X152.763 Y150.998
N3230 X152.519 Y151.11
N3235 X152.285 Y151.241
N3240 X152.062 Y151.389
N3245 X151.851 Y151.555
N3250 X151.654 Y151.736
N3255 X151.471 Y151.933
N3260 X151.305 Y152.143
N3265 X151.155 Y152.366
N3270 X151.024 Y152.6
N3275 X150.911 Y152.843
N3280 X150.817 Y153.094
N3285 X150.743 Y153.352
N3290 X150.69 Y153.615
N3295 X150.657 Y153.881
N3300 X150.646 Y154.117
N3305 X150.486 Y166.178
N3310 X150.496 Y166.446
N3315 X150.528 Y166.713
N3320 X150.58 Y166.976
N3325 X150.652 Y167.234
N3330 X150.745 Y167.486
N3335 X150.857 Y167.729
N3340 X150.987 Y167.963
N3345 X151.136 Y168.187
N3350 X151.302 Y168.398
N3355 X151.483 Y168.595
N3360 X151.68 Y168.778
N3365 X151.89 Y168.944
N3370 X152.112 Y169.094
N3375 X152.346 Y169.226
N3380 X152.589 Y169.339
N3385 X152.84 Y169.433
N3390 X153.098 Y169.507
N3395 X153.361 Y169.56
N3400 X153.627 Y169.593
N3405 X153.867 Y169.604
N3410 X166.422 Y169.767
N3415 X166.69 Y169.757
N3420 X166.957 Y169.725
N3425 X167.22 Y169.673
N3430 X167.478 Y169.601
N3435 X167.73 Y169.508
N3440 X167.974 Y169.397
N3445 X168.208 Y169.266
N3450 X168.431 Y169.118
N3455 X168.643 Y168.952
N3460 X168.84 Y168.771
N3465 X169.023 Y168.575
N3470 X169.19 Y168.365
N3475 X169.34 Y168.143
N3480 X169.472 Y167.909
N3485 X169.586 Y167.666
N3490 X169.68 Y167.415
N3495 X169.755 Y167.158
N3500 X169.809 Y166.895
N3505 X169.842 Y166.629
N3510 X169.855 Y166.378
N3515 X170.02 Y153.319
N3520 X170.009 Y153.051
N3525 X169.978 Y152.785
N3530 X169.926 Y152.522
N3535 X169.853 Y152.264
N3540 X169.76 Y152.012
N3545 X169.648 Y151.768
N3550 X169.518 Y151.534
N3555 X169.369 Y151.311
N3560 X169.203 Y151.1
N3565 X169.022 Y150.903
N3570 X168.825 Y150.72
N3575 X168.615 Y150.554
N3580 X168.392 Y150.404
N3585 X168.159 Y150.272
N3590 X167.916 Y150.159
N3595 X167.664 Y150.066
N3600 X167.406 Y149.992
N3605 X167.144 Y149.939
N3610 X166.877 Y149.906
N3615 X166.637 Y149.895
N3620 X153.076 Y149.728
N3625 X152.808 Y149.738
N3630 X152.542 Y149.77
N3635 X152.278 Y149.822
N3640 X152.02 Y149.894
N3645 X151.768 Y149.986
N3650 X151.525 Y150.098
N3655 X151.29 Y150.229
N3660 X151.067 Y150.377
N3665 X150.856 Y150.542
N3670 X150.658 Y150.724
N3675 X150.475 Y150.92
N3680 X150.308 Y151.13
N3685 X150.158 Y151.352
N3690 X150.026 Y151.586
N3695 X149.913 Y151.828
N3700 X149.818 Y152.08
N3705 X149.744 Y152.337
N3710 X149.69 Y152.6
N3715 X149.657 Y152.866
N3720 X149.644 Y153.118
N3725 X149.475 Y167.182
N3730 X149.485 Y167.45
N3735 X149.517 Y167.716
N3740 X149.569 Y167.979
N3745 X149.642 Y168.237
N3750 X149.734 Y168.489
N3755 X149.846 Y168.733
N3760 X149.977 Y168.967
N3765 X150.126 Y169.19
N3770 X150.291 Y169.401
N3775 X150.473 Y169.598
N3780 X150.669 Y169.781
N3785 X150.88 Y169.947
N3790 X151.102 Y170.097
N3795 X151.336 Y170.229
N3800 X151.579 Y170.342
N3805 X151.83 Y170.435
N3810 X152.088 Y170.509
N3815 X152.351 Y170.562
N3820 X152.617 Y170.595
N3825 X152.86 Y170.606
N3830 X167.433 Y170.778
N3835 X167.701 Y170.767
N3840 X167.968 Y170.736
N3845 X168.231 Y170.683
N3850 X168.489 Y170.611
N3855 X168.74 Y170.518
N3860 X168.984 Y170.406
N3865 X169.218 Y170.275
N3870 X169.441 Y170.127
N3875 X169.652 Y169.961
N3880 X169.85 Y169.779
N3885 X170.032 Y169.583
N3890 X170.199 Y169.373
N3895 X170.348 Y169.15
N3900 X170.48 Y168.916
N3905 X170.593 Y168.673
N3910 X170.686 Y168.422
N3915 X170.76 Y168.164
N3920 X170.813 Y167.901
N3925 X170.846 Y167.635
N3930 X170.857 Y167.393
N3935 X171.03 Y152.322
N3940 X171.019 Y152.054
N3945 X170.988 Y151.788
N3950 X170.936 Y151.524
N3955 X170.863 Y151.266
N3960 X170.771 Y151.015
N3965 X170.659 Y150.771
N3970 X170.529 Y150.536
N3975 X170.38 Y150.313
N3980 X170.215 Y150.102
N3985 X170.033 Y149.905
N3990 X169.837 Y149.722
N3995 X169.627 Y149.555
N4000 X169.405 Y149.405
N4005 X169.171 Y149.273
N4010 X168.928 Y149.16
N4015 X168.677 Y149.065
N4020 X168.419 Y148.991
N4025 X168.157 Y148.937
N4030 X167.89 Y148.904
N4035 X167.639 Y148.892
N4040 X152.074 Y148.718
N4045 X151.806 Y148.728
N4050 X151.539 Y148.759
N4055 X151.276 Y148.812
N4060 X151.018 Y148.884
N4065 X150.766 Y148.976
N4070 X150.522 Y149.088
N4075 X150.288 Y149.219
N4080 X150.065 Y149.367
N4085 X149.853 Y149.532
N4090 X149.656 Y149.714
N4095 X149.473 Y149.91
N4100 X149.306 Y150.12
N4105 X149.156 Y150.342
N4110 X149.024 Y150.575
N4115 X148.91 Y150.818
N4120 X148.816 Y151.069
N4125 X148.741 Y151.327
N4130 X148.687 Y151.59
N4135 X148.654 Y151.856
N4140 X148.642 Y152.112
N4145 X148.465 Y168.178
N4150 X148.476 Y168.446
N4155 X148.507 Y168.713
N4160 X148.559 Y168.976
N4165 X148.632 Y169.234
N4170 X148.66 Y169.318 Z-11.746
N4175 X148.682 Y169.378 Z-11.559
N4180 X148.701 Y169.428 Z-11.454
N4185 X148.72 Y169.477 Z-11.371
N4190 X148.75 Y169.547 Z-11.274
N4195 X148.781 Y169.615 Z-11.196
N4200 X148.822 Y169.701 Z-11.114
N4205 X148.919 Y169.884 Z-10.976
N4210 X148.976 Y169.979 Z-10.914
N4215 X149.033 Y170.068 Z-10.867
N4220 X149.092 Y170.156 Z-10.829
N4225 X149.166 Y170.257 Z-10.796
N4230 X149.307 Y170.43 Z-10.761
N4235 X149.417 Y170.55 Z-10.741
N4240 X149.5 Y170.634 Z-10.737
N4245 X149.586 Y170.715 Z-10.743
N4250 X149.674 Y170.792 Z-10.757
N4255 X149.81 Y170.902 Z-10.795
N4260 X149.856 Y170.937 Z-10.812
N4265 X149.949 Y171.004 Z-10.86
N4270 X150.037 Y171.062 Z-10.925
N4275 X150.125 Y171.117 Z-11.014
N4280 X150.198 Y171.16 Z-11.107
N4285 X150.272 Y171.201 Z-11.228
N4290 X150.326 Y171.229 Z-11.341
N4295 X150.381 Y171.257 Z-11.492
N4300 X150.43 Y171.28 Z-11.693
N4305 X150.439 Y171.285 Z-11.75
N4310 X150.686 Y171.389
N4315 X150.94 Y171.474
N4320 X151.201 Y171.538
N4325 X151.465 Y171.582
N4330 X151.732 Y171.605
N4335 X153.066 Y171.622
N4340 X168.434 Y171.787
N4345 X168.702 Y171.777
N4350 X168.968 Y171.745
N4355 X169.231 Y171.693
N4360 X169.489 Y171.621
N4365 X169.741 Y171.528
N4370 X169.985 Y171.416
N4375 X170.219 Y171.285
N4380 X170.442 Y171.137
N4385 X170.653 Y170.971
N4390 X170.85 Y170.79
N4395 X171.033 Y170.593
N4400 X171.2 Y170.383
N4405 X171.349 Y170.161
N4410 X171.481 Y169.927
N4415 X171.594 Y169.684
N4420 X171.688 Y169.433
N4425 X171.762 Y169.175
N4430 X171.816 Y168.912
N4435 X171.848 Y168.646
N4440 X171.86 Y168.397
N4445 X172.04 Y151.319
N4450 X172.029 Y151.051
N4455 X171.998 Y150.785
N4460 X171.946 Y150.522
N4465 X171.873 Y150.264
N4470 X171.781 Y150.012
N4475 X171.669 Y149.768
N4480 X171.538 Y149.534
N4485 X171.39 Y149.31
N4490 X171.224 Y149.099
N4495 X171.043 Y148.902
N4500 X170.847 Y148.719
N4505 X170.637 Y148.552
N4510 X170.414 Y148.402
N4515 X170.181 Y148.27
N4520 X169.938 Y148.157
N4525 X169.687 Y148.063
N4530 X169.429 Y147.988
N4535 X169.166 Y147.935
N4540 X168.9 Y147.901
N4545 X168.645 Y147.889
N4550 X151.069 Y147.708
N4555 X150.849 Y147.715
N4560 X150.818 Y147.717 Z-11.511
N4565 X150.746 Y147.723 Z-11.2
N4570 X150.691 Y147.729 Z-11.03
N4575 X150.636 Y147.736 Z-10.89
N4580 X150.525 Y147.752 Z-10.657
N4585 X150.402 Y147.774 Z-10.45
N4590 X150.259 Y147.805 Z-10.255
N4595 X150.183 Y147.825 Z-10.165
N4600 X150.097 Y147.849 Z-10.073
N4605 X150.012 Y147.875 Z-9.991
N4610 X149.918 Y147.907 Z-9.91
N4615 X149.825 Y147.942 Z-9.838
N4620 X149.725 Y147.983 Z-9.769
N4625 X149.625 Y148.027 Z-9.71
N4630 X149.52 Y148.078 Z-9.656
N4635 X149.416 Y148.133 Z-9.611
N4640 X149.308 Y148.195 Z-9.574
N4645 X149.148 Y148.296 Z-9.537
N4650 X148.991 Y148.409 Z-9.516
N4655 X148.888 Y148.491 Z-9.506
N4660 X148.739 Y148.621 Z-9.499
N4665 X148.549 Y148.811 Z-9.5
N4670 X148.417 Y148.962 Z-9.506
N4675 X148.336 Y149.066 Z-9.513
N4680 X148.192 Y149.27 Z-9.536
N4685 X148.071 Y149.47 Z-9.57
N4690 X148.016 Y149.573 Z-9.587
N4695 X147.959 Y149.69 Z-9.611
N4700 X147.907 Y149.808 Z-9.639
N4705 X147.825 Y150.023 Z-9.7
N4710 X147.758 Y150.239 Z-9.775
N4715 X147.728 Y150.36 Z-9.82
N4720 X147.702 Y150.481 Z-9.872
N4725 X147.683 Y150.588 Z-9.922
N4730 X147.667 Y150.695 Z-9.978
N4735 X147.655 Y150.797 Z-10.038
N4740 X147.646 Y150.901 Z-10.104
N4745 X147.638 Y151.105 Z-10.253
N4750 X147.636 Y151.378 Z-10.49
N4755 X147.634 Y151.548 Z-10.666
N4760 X147.632 Y151.704 Z-10.859
N4765 X147.631 Y151.843 Z-11.071
N4770 X147.63 Y151.97 Z-11.313
N4775 X147.629 Y152.033 Z-11.47
N4780 X147.628 Y152.091 Z-11.679
N4785 Y152.104 Z-11.75
N4790 X147.471 Y167.644
N4795 Y167.688 Z-11.549
N4800 X147.47 Y167.76 Z-11.344
N4805 X147.469 Y167.861 Z-11.137
N4810 X147.468 Y167.989 Z-10.934
N4815 X147.466 Y168.141 Z-10.74
N4820 X147.464 Y168.394 Z-10.469
N4825 X147.461 Y168.67 Z-10.228
N4830 X147.458 Y168.985 Z-10.004
N4835 X147.456 Y169.184 Z-9.879
N4840 X147.458 Y169.296 Z-9.815
N4845 X147.463 Y169.408 Z-9.757
N4850 X147.473 Y169.526 Z-9.702
N4855 X147.487 Y169.643 Z-9.652
N4860 X147.505 Y169.764 Z-9.607
N4865 X147.552 Y169.991 Z-9.534
N4870 X147.588 Y170.128 Z-9.493
N4875 X147.658 Y170.345 Z-9.439
N4880 X147.704 Y170.465 Z-9.413
N4885 X147.754 Y170.583 Z-9.392
N4890 X147.869 Y170.816 Z-9.355
N4895 X147.988 Y171.018 Z-9.329
N4900 X148.136 Y171.234 Z-9.31
N4905 X148.301 Y171.438 Z-9.3
N4910 X148.463 Y171.612 Z-9.295
N4915 X148.66 Y171.793 Z-9.299
N4920 X148.861 Y171.951 Z-9.313
N4925 X148.945 Y172.011 Z-9.323
N4930 X149.043 Y172.076 Z-9.341
N4935 X149.142 Y172.137 Z-9.367
N4940 X149.242 Y172.194 Z-9.4
N4945 X149.342 Y172.246 Z-9.439
N4950 X149.444 Y172.295 Z-9.486
N4955 X149.542 Y172.339 Z-9.537
N4960 X149.642 Y172.38 Z-9.597
N4965 X149.737 Y172.415 Z-9.66
N4970 X149.833 Y172.448 Z-9.732
N4975 X149.924 Y172.475 Z-9.806
N4980 X150.016 Y172.501 Z-9.888
N4985 X150.185 Y172.541 Z-10.063
N4990 X150.341 Y172.569 Z-10.256
N4995 X150.481 Y172.589 Z-10.464
N5000 X150.604 Y172.601 Z-10.687
N5005 X150.708 Y172.608 Z-10.925
N5010 X150.794 Y172.612 Z-11.179
N5015 X150.851 Y172.613 Z-11.413
N5020 X150.886 Z-11.626
N5025 X150.899 Z-11.75
N5030 X167.247 Y172.775
N5035 X167.299 Z-11.556
N5040 X167.386 Y172.776 Z-11.36
N5045 X167.449 Y172.777 Z-11.256
N5050 X167.511 Y172.778 Z-11.17
N5055 X167.593 Z-11.076
N5060 X167.674 Y172.779 Z-10.997
N5065 X167.773 Y172.78 Z-10.918
N5070 X167.871 Y172.781 Z-10.853
N5075 X167.984 Y172.782 Z-10.792
N5080 X168.096 Y172.783 Z-10.744
N5085 X168.22 Y172.785 Z-10.705
N5090 X168.343 Y172.786 Z-10.679
N5095 X168.472 Y172.787 Z-10.664
N5100 X168.602 Y172.788 Z-10.661
N5105 X168.736 Y172.79 Z-10.672
N5110 X168.87 Y172.791 Z-10.696
N5115 X168.985 Y172.792 Z-10.729
N5120 X169.1 Y172.793 Z-10.773
N5125 X169.208 Y172.794 Z-10.827
N5130 X169.316 Y172.795 Z-10.893
N5135 X169.44 Y172.796 Z-10.988
N5140 X169.528 Y172.795 Z-11.078
N5145 X169.616 Y172.792 Z-11.194
N5150 X169.681 Y172.788 Z-11.304
N5155 X169.746 Y172.783 Z-11.45
N5160 X169.809 Y172.777 Z-11.663
N5165 X169.825 Y172.775 Z-11.75
N5170 X170.09 Y172.734
N5175 X170.351 Y172.673
N5180 X170.607 Y172.592 Z-11.745
N5185 X170.829 Y172.502 Z-11.737
N5190 X171.069 Y172.384 Z-11.73
N5195 X171.3 Y172.247 Z-11.723
N5200 X171.519 Y172.093 Z-11.717
N5205 X171.726 Y171.921 Z-11.713
N5210 X171.918 Y171.735 Z-11.71
N5215 X172.096 Y171.533 Z-11.709
N5220 X172.257 Y171.319
N5225 X172.4 Y171.093 Z-11.71
N5230 X172.526 Y170.856 Z-11.712
N5235 X172.632 Y170.609 Z-11.716
N5240 X172.719 Y170.356 Z-11.721
N5245 X172.786 Y170.096 Z-11.727
N5250 X172.833 Y169.832 Z-11.734
N5255 X172.858 Y169.565 Z-11.743
N5260 X172.863 Y169.406 Z-11.748
N5265 X173.044 Y150.765 Z-11.745
N5270 X173.049 Y150.314 Z-11.729
N5275 X173.038 Y150.049 Z-11.719
N5280 X173.007 Y149.782 Z-11.711
N5285 X172.955 Y149.519 Z-11.704
N5290 X172.883 Y149.261 Z-11.698
N5295 X172.791 Y149.009 Z-11.694
N5300 X172.679 Y148.765 Z-11.69
N5305 X172.549 Y148.531 Z-11.688
N5310 X172.4 Y148.307
N5315 X172.235 Y148.096
N5320 X172.054 Y147.899 Z-11.69
N5325 X171.857 Y147.716 Z-11.693
N5330 X171.648 Y147.549 Z-11.698
N5335 X171.425 Y147.399 Z-11.704
N5340 X171.192 Y147.267 Z-11.71
N5345 X170.949 Y147.153 Z-11.719
N5350 X170.698 Y147.059 Z-11.728
N5355 X170.443 Y146.986 Z-11.738
N5360 X170.286 Y146.951 Z-11.745
N5365 X170.25 Y146.944 Z-11.524
N5370 X170.185 Y146.932 Z-11.293
N5375 X170.119 Y146.922 Z-11.128
N5380 X170.053 Y146.913 Z-10.996
N5385 X169.99 Y146.905 Z-10.89
N5390 X169.926 Y146.899 Z-10.799
N5395 X169.848 Y146.893 Z-10.702
N5400 X169.711 Y146.887 Z-10.566
N5405 X169.549 Y146.885 Z-10.445
N5410 X169.331 Y146.883 Z-10.32
N5415 X169.217 Y146.881 Z-10.269
N5420 X169.095 Y146.88 Z-10.224
N5425 X168.973 Y146.879 Z-10.189
N5430 X168.846 Y146.878 Z-10.161
N5435 X168.718 Y146.877 Z-10.143
N5440 X168.588 Y146.875 Z-10.133
N5445 X168.457 Y146.874 Z-10.132
N5450 X168.323 Y146.873 Z-10.141
N5455 X168.189 Y146.872 Z-10.16
N5460 X167.956 Y146.869 Z-10.216
N5465 X167.731 Y146.867 Z-10.303
N5470 X167.517 Y146.865 Z-10.42
N5475 X167.317 Y146.863 Z-10.565
N5480 X167.136 Y146.862 Z-10.728
N5485 X166.966 Y146.86 Z-10.907
N5490 X166.812 Y146.859 Z-11.106
N5495 X166.745 Y146.858 Z-11.21
N5500 X166.678 Y146.857 Z-11.331
N5505 X166.625 Z-11.446
N5510 X166.572 Y146.856 Z-11.595
N5515 X166.534 Z-11.75
N5520 X150.886 Y146.707
N5525 X150.852 Z-11.485
N5530 X150.799 Y146.706 Z-11.245
N5535 X150.699 Y146.705 Z-10.933
N5540 X150.618 Y146.704 Z-10.744
N5545 X150.507 Y146.703 Z-10.529
N5550 X150.377 Y146.702 Z-10.321
N5555 X150.228 Y146.701 Z-10.122
N5560 X150.065 Y146.699 Z-9.938
N5565 X149.883 Y146.704 Z-9.764
N5570 X149.686 Y146.72 Z-9.603
N5575 X149.582 Y146.733 Z-9.528
N5580 X149.478 Y146.75 Z-9.459
N5585 X149.369 Y146.771 Z-9.392
N5590 X149.26 Y146.795 Z-9.332
N5595 X149.147 Y146.824 Z-9.275
N5600 X149.035 Y146.857 Z-9.224
N5605 X148.919 Y146.896 Z-9.178
N5610 X148.805 Y146.939 Z-9.137
N5615 X148.689 Y146.987 Z-9.102
N5620 X148.575 Y147.039 Z-9.072
N5625 X148.46 Y147.098 Z-9.049
N5630 X148.348 Y147.16 Z-9.031
N5635 X148.236 Y147.227 Z-9.019
N5640 X148.072 Y147.337 Z-9.012
N5645 X147.86 Y147.502 Z-9.01
N5650 X147.661 Y147.682 Z-9.009
N5655 X147.478 Y147.877 Z-9.01
N5660 X147.309 Y148.086 Z-9.011
N5665 X147.158 Y148.308 Z-9.015
N5670 X147.013 Y148.564 Z-9.022
N5675 X146.892 Y148.826 Z-9.033
N5680 X146.805 Y149.061 Z-9.047
N5685 X146.74 Y149.287 Z-9.065
N5690 X146.69 Y149.517 Z-9.089
N5695 X146.656 Y149.749 Z-9.12
N5700 X146.638 Y149.981 Z-9.16
N5705 X146.632 Y150.328 Z-9.238
N5710 X146.628 Y150.786 Z-9.361
N5715 X146.624 Y151.235 Z-9.513
N5720 X146.62 Y151.678 Z-9.685
N5725 X146.616 Y152.095 Z-9.883
N5730 X146.613 Y152.448 Z-10.068
N5735 X146.61 Y152.755 Z-10.258
N5740 X146.606 Y153.167 Z-10.556
N5745 X146.604 Y153.351 Z-10.714
N5750 X146.603 Y153.525 Z-10.888
N5755 X146.601 Y153.684 Z-11.082
N5760 X146.6 Y153.806 Z-11.269
N5765 X146.599 Y153.88 Z-11.416
N5770 Y153.936 Z-11.569
N5775 X146.598 Y153.979 Z-11.75
N5780 X146.487 Y165.842
N5785 Y165.866 Z-11.621
N5790 Y165.928 Z-11.412
N5795 X146.486 Y165.995 Z-11.255
N5800 X146.485 Y166.11 Z-11.055
N5805 X146.484 Y166.256 Z-10.867
N5810 X146.482 Y166.431 Z-10.688
N5815 X146.48 Y166.623 Z-10.522
N5820 X146.477 Y166.936 Z-10.296
N5825 X146.473 Y167.368 Z-10.031
N5830 X146.47 Y167.701 Z-9.856
N5835 X146.465 Y168.287 Z-9.597
N5840 X146.461 Y168.641 Z-9.466
N5845 X146.457 Y169.14 Z-9.31
N5850 X146.453 Y169.521 Z-9.212
N5855 X146.448 Y170.03 Z-9.111
N5860 X146.449 Y170.316 Z-9.068
N5865 X146.469 Y170.576 Z-9.041
N5870 X146.509 Y170.835 Z-9.022
N5875 X146.568 Y171.091 Z-9.01
N5880 X146.648 Y171.344 Z-9.004
N5885 X146.748 Y171.593 Z-9.001
N5890 X146.868 Y171.833 Z-9.
N5895 X146.985 Y172.031
N5900 X147.138 Y172.251
N5905 X147.308 Y172.459
N5910 X147.493 Y172.653
N5915 X147.693 Y172.832
N5920 X147.907 Y172.994
N5925 X148.012 Y173.065 Z-9.003
N5930 X148.119 Y173.132 Z-9.011
N5935 X148.222 Y173.191 Z-9.023
N5940 X148.325 Y173.246 Z-9.04
N5945 X148.43 Y173.296 Z-9.062
N5950 X148.537 Y173.344 Z-9.088
N5955 X148.643 Y173.387 Z-9.119
N5960 X148.75 Y173.426 Z-9.154
N5965 X148.857 Y173.461 Z-9.194
N5970 X148.964 Y173.493 Z-9.239
N5975 X149.175 Y173.544 Z-9.342
N5980 X149.382 Y173.581 Z-9.461
N5985 X149.581 Y173.604 Z-9.596
N5990 X149.771 Y173.615 Z-9.746
N5995 X149.934 Y173.617 Z-9.892
N6000 X150.144 Y173.619 Z-10.116
N6005 X150.333 Y173.621 Z-10.366
N6010 X150.465 Y173.622 Z-10.581
N6015 X150.58 Y173.623 Z-10.811
N6020 X150.676 Y173.624 Z-11.055
N6025 X150.753 Y173.625 Z-11.318
N6030 X150.78 Z-11.445
N6035 X150.822 Z-11.736
N6040 X150.824 Z-11.75
N6045 X165.12 Y173.757
N6050 X165.176 Z-11.581
N6055 X165.242 Y173.758 Z-11.435
N6060 X165.306 Z-11.32
N6065 X165.442 Y173.759 Z-11.125
N6070 X165.605 Y173.761 Z-10.941
N6075 X165.79 Y173.763 Z-10.769
N6080 X166.172 Y173.766 Z-10.469
N6085 X166.496 Y173.769 Z-10.257
N6090 X167.042 Y173.774 Z-9.956
N6095 X167.396 Y173.777 Z-9.791
N6100 X167.759 Y173.781 Z-9.647
N6105 X168.008 Y173.783 Z-9.578
N6110 X168.265 Y173.785 Z-9.534
N6115 X168.526 Y173.788 Z-9.518
N6120 X168.794 Y173.79 Z-9.529
N6125 X169.029 Y173.792 Z-9.564
N6130 X169.261 Y173.794 Z-9.621
N6135 X169.487 Y173.797 Z-9.701
N6140 X169.758 Y173.799 Z-9.83
N6145 X170.016 Y173.801 Z-9.984
N6150 X170.312 Y173.804 Z-10.191
N6155 X170.44 Y173.805 Z-10.294
N6160 X170.53 Y173.804 Z-10.375
N6165 X170.62 Y173.8 Z-10.465
N6170 X170.701 Y173.795 Z-10.555
N6175 X170.782 Y173.788 Z-10.657
N6180 X170.852 Y173.78 Z-10.757
N6185 X170.923 Y173.771 Z-10.87
N6190 X170.982 Y173.762 Z-10.979
N6195 X171.04 Y173.752 Z-11.105
N6200 X171.086 Y173.744 Z-11.223
N6205 X171.132 Y173.735 Z-11.365
N6210 X171.165 Y173.728 Z-11.492
N6215 X171.198 Y173.72 Z-11.674
N6220 X171.452 Y173.652 Z-11.664
N6225 X171.702 Y173.564 Z-11.654
N6230 X171.947 Y173.456 Z-11.646
N6235 X172.183 Y173.329 Z-11.638
N6240 X172.409 Y173.183 Z-11.632
N6245 X172.622 Y173.021 Z-11.628
N6250 X172.822 Y172.842 Z-11.624
N6255 X173.008 Y172.648 Z-11.622
N6260 X173.177 Y172.441 Z-11.621
N6265 X173.33 Y172.22
N6270 X173.465 Y171.989 Z-11.623
N6275 X173.582 Y171.747 Z-11.626
N6280 X173.68 Y171.497 Z-11.63
N6285 X173.757 Y171.241 Z-11.636
N6290 X173.814 Y170.979 Z-11.642
N6295 X173.851 Y170.713 Z-11.65
N6300 X173.867 Y170.409 Z-11.661
N6305 X173.889 Y168.018 Z-11.747
N6310 X174.031 Y152.194 Z-11.748
N6315 X174.057 Y149.304 Z-11.64
N6320 X174.047 Y149.038 Z-11.631
N6325 X174.016 Y148.772 Z-11.623
N6330 X173.964 Y148.509 Z-11.616
N6335 X173.891 Y148.251 Z-11.61
N6340 X173.799 Y147.999 Z-11.606
N6345 X173.687 Y147.755 Z-11.602
N6350 X173.556 Y147.521 Z-11.6
N6355 X173.408 Y147.298
N6360 X173.242 Y147.087
N6365 X173.061 Y146.889 Z-11.602
N6370 X172.864 Y146.707 Z-11.605
N6375 X172.654 Y146.54 Z-11.61
N6380 X172.431 Y146.391 Z-11.616
N6385 X172.198 Y146.259 Z-11.623
N6390 X171.955 Y146.146 Z-11.631
N6395 X171.703 Y146.052 Z-11.64
N6400 X171.564 Y146.01 Z-11.645
N6405 X171.523 Y145.999 Z-11.431
N6410 X171.461 Y145.983 Z-11.219
N6415 X171.376 Y145.963 Z-11.006
N6420 X171.267 Y145.94 Z-10.797
N6425 X171.133 Y145.918 Z-10.597
N6430 X171.055 Y145.907 Z-10.498
N6435 X170.976 Y145.899 Z-10.409
N6440 X170.886 Y145.891 Z-10.318
N6445 X170.731 Y145.883 Z-10.182
N6450 X170.455 Y145.88 Z-9.984
N6455 X170.121 Y145.877 Z-9.785
N6460 X169.774 Y145.874 Z-9.612
N6465 X169.412 Y145.871 Z-9.464
N6470 X169.164 Y145.868 Z-9.391
N6475 X168.909 Y145.866 Z-9.341
N6480 X168.649 Y145.864 Z-9.316
N6485 X168.384 Y145.861 Z-9.317
N6490 X168.133 Y145.859 Z-9.342
N6495 X167.841 Y145.857 Z-9.402
N6500 X167.329 Y145.852 Z-9.551
N6505 X166.633 Y145.846 Z-9.795
N6510 X166.194 Y145.842 Z-9.977
N6515 X165.738 Y145.838 Z-10.181
N6520 X165.2 Y145.833 Z-10.463
N6525 X164.878 Y145.83 Z-10.652
N6530 X164.489 Y145.827 Z-10.925
N6535 X164.276 Y145.825 Z-11.094
N6540 X164.099 Y145.824 Z-11.267
N6545 X164.019 Y145.823 Z-11.361
N6550 X163.94 Y145.822 Z-11.472
N6555 X163.812 Y145.821 Z-11.709
N6560 X163.795 Z-11.75
N6565 X152.262 Y145.719 Z-11.746
N6570 X150.609 Y145.704 Z-11.712
N6575 X150.585 Z-11.535
N6580 X150.552 Z-11.365
N6585 X150.485 Y145.703 Z-11.121
N6590 X150.384 Y145.702 Z-10.855
N6595 X150.239 Y145.701 Z-10.566
N6600 X150.108 Y145.7 Z-10.359
N6605 X149.959 Y145.698 Z-10.16
N6610 X149.792 Y145.697 Z-9.973
N6615 X149.61 Y145.695 Z-9.799
N6620 X149.412 Y145.694 Z-9.639
N6625 X149.201 Y145.692 Z-9.495
N6630 X149.059 Y145.691 Z-9.411
N6635 X148.944 Y145.693 Z-9.35
N6640 X148.829 Y145.698 Z-9.294
N6645 X148.71 Y145.708 Z-9.241
N6650 X148.592 Y145.723 Z-9.194
N6655 X148.47 Y145.741 Z-9.151
N6660 X148.349 Y145.765 Z-9.114
N6665 X148.226 Y145.793 Z-9.081
N6670 X148.104 Y145.826 Z-9.054
N6675 X147.981 Y145.864 Z-9.032
N6680 X147.859 Y145.907 Z-9.016
N6685 X147.737 Y145.955 Z-9.005
N6690 X147.574 Y146.029 Z-9.
N6695 X147.337 Y146.154
N6700 X147.111 Y146.298
N6705 X146.896 Y146.458
N6710 X146.695 Y146.636
N6715 X146.508 Y146.828
N6720 X146.337 Y147.034
N6725 X146.182 Y147.254
N6730 X146.045 Y147.484
N6735 X145.927 Y147.725
N6740 X145.827 Y147.974
N6745 X145.748 Y148.23
N6750 X145.688 Y148.491
N6755 X145.65 Y148.757
N6760 X145.632 Y149.024
N6765 X145.624 Y149.894 Z-9.001
N6770 X145.619 Y150.363 Z-9.021
N6775 X145.614 Y150.951 Z-9.076
N6780 X145.609 Y151.536 Z-9.163
N6785 X145.604 Y152.116 Z-9.274
N6790 X145.598 Y152.831 Z-9.449
N6795 X145.594 Y153.342 Z-9.602
N6800 X145.591 Y153.619 Z-9.716
N6805 X145.589 Y153.831 Z-9.831
N6810 X145.588 Y154.032 Z-9.967
N6815 X145.586 Y154.221 Z-10.123
N6820 X145.584 Y154.395 Z-10.298
N6825 X145.583 Y154.553 Z-10.491
N6830 X145.582 Y154.693 Z-10.701
N6835 X145.581 Y154.814 Z-10.928
N6840 X145.58 Y154.912 Z-11.173
N6845 X145.579 Y154.988 Z-11.44
N6850 Y155.032 Z-11.687
N6855 Y155.039 Z-11.75
N6860 X145.493 Y164.91
N6865 Y164.945 Z-11.507
N6870 X145.492 Y165.018 Z-11.218
N6875 Y165.071 Z-11.064
N6880 X145.491 Y165.178 Z-10.822
N6885 X145.49 Y165.297 Z-10.612
N6890 X145.488 Y165.436 Z-10.411
N6895 X145.487 Y165.596 Z-10.222
N6900 X145.485 Y165.775 Z-10.046
N6905 X145.484 Y165.971 Z-9.888
N6910 X145.482 Y166.183 Z-9.748
N6915 X145.48 Y166.41 Z-9.629
N6920 X145.478 Y166.648 Z-9.532
N6925 X145.475 Y167.023 Z-9.421
N6930 X145.47 Y167.532 Z-9.297
N6935 X145.465 Y168.175 Z-9.168
N6940 X145.459 Y168.824 Z-9.073
N6945 X145.454 Y169.347 Z-9.024
N6950 X145.45 Y169.875 Z-9.001
N6955 X145.439 Y171.188 Z-9.
N6960 X145.449 Y171.456
N6965 X145.48 Y171.723
N6970 X145.532 Y171.986
N6975 X145.605 Y172.244
N6980 X145.697 Y172.496
N6985 X145.809 Y172.74
N6990 X145.94 Y172.974
N6995 X146.088 Y173.197
N7000 X146.253 Y173.408
N7005 X146.435 Y173.606
N7010 X146.631 Y173.789
N7015 X146.841 Y173.956
N7020 X147.063 Y174.106
N7025 X147.296 Y174.238
N7030 X147.539 Y174.352 Z-9.001
N7035 X147.71 Y174.419 Z-9.012
N7040 X147.822 Y174.456 Z-9.025
N7045 X147.934 Y174.49 Z-9.042
N7050 X148.047 Y174.52 Z-9.065
N7055 X148.16 Y174.546 Z-9.091
N7060 X148.273 Y174.568 Z-9.122
N7065 X148.497 Y174.6 Z-9.198
N7070 X148.717 Y174.617 Z-9.29
N7075 X148.947 Y174.621 Z-9.405
N7080 X149.153 Y174.623 Z-9.53
N7085 X149.35 Y174.625 Z-9.671
N7090 X149.537 Y174.626 Z-9.827
N7095 X149.711 Y174.628 Z-9.999
N7100 X149.872 Y174.629 Z-10.185
N7105 X150.019 Y174.631 Z-10.386
N7110 X150.15 Y174.632 Z-10.601
N7115 X150.264 Y174.633 Z-10.829
N7120 X150.359 Z-11.072
N7125 X150.434 Y174.634 Z-11.333
N7130 X150.486 Y174.635 Z-11.602
N7135 X150.497 Z-11.691
N7140 X153.85 Y174.663 Z-11.75
N7145 X161.164 Y174.726
N7150 X161.227 Z-11.566
N7155 X161.283 Y174.727 Z-11.454
N7160 X161.337 Z-11.372
N7165 X161.414 Y174.728 Z-11.277
N7170 X161.491 Y174.729 Z-11.2
N7175 X161.588 Z-11.122
N7180 X161.757 Y174.731 Z-11.023
N7185 X162.158 Y174.734 Z-10.858
N7190 X162.59 Y174.738 Z-10.703
N7195 X162.993 Y174.741 Z-10.545
N7200 X163.364 Y174.745 Z-10.411
N7205 X163.83 Y174.749 Z-10.239
N7210 X164.672 Y174.756 Z-9.949
N7215 X165.396 Y174.762 Z-9.72
N7220 X166.128 Y174.768 Z-9.512
N7225 X166.867 Y174.775 Z-9.333
N7230 X167.64 Y174.781 Z-9.181
N7235 X168.225 Y174.786 Z-9.096
N7240 X168.421 Y174.788 Z-9.081
N7245 X168.686 Y174.79 Z-9.082
N7250 X168.996 Y174.793 Z-9.114
N7255 X169.403 Y174.796 Z-9.192
N7260 X169.863 Y174.8 Z-9.308
N7265 X170.314 Y174.804 Z-9.453
N7270 X170.646 Y174.807 Z-9.584
N7275 X170.97 Y174.81 Z-9.735
N7280 X171.285 Y174.812 Z-9.907
N7285 X171.437 Y174.814 Z-10.002
N7290 X171.536 Y174.812 Z-10.071
N7295 X171.634 Y174.808 Z-10.146
N7300 X171.726 Y174.801 Z-10.224
N7305 X171.817 Y174.792 Z-10.31
N7310 X171.901 Y174.782 Z-10.397
N7315 X171.984 Y174.77 Z-10.494
N7320 X172.057 Y174.757 Z-10.591
N7325 X172.194 Y174.729 Z-10.804
N7330 X172.308 Y174.701 Z-11.036
N7335 X172.359 Y174.687 Z-11.167
N7340 X172.398 Y174.676 Z-11.288
N7345 X172.46 Y174.658 Z-11.544
N7350 X172.466 Y174.656 Z-11.575
N7355 X172.715 Y174.567 Z-11.566
N7360 X172.96 Y174.458 Z-11.558
N7365 X173.195 Y174.33 Z-11.551
N7370 X173.42 Y174.183 Z-11.545
N7375 X173.633 Y174.02 Z-11.54
N7380 X173.832 Y173.841 Z-11.536
N7385 X174.017 Y173.646 Z-11.534
N7390 X174.186 Y173.438 Z-11.533
N7395 X174.338 Y173.217 Z-11.534
N7400 X174.473 Y172.985 Z-11.535
N7405 X174.589 Y172.744 Z-11.538
N7410 X174.686 Y172.494 Z-11.543
N7415 X174.763 Y172.237 Z-11.548
N7420 X174.82 Y171.975 Z-11.555
N7425 X174.856 Y171.709 Z-11.563
N7430 X174.872 Y171.408 Z-11.573
N7435 X174.912 Y166.627 Z-11.747
N7440 X174.925 Y165.081 Z-11.75
N7445 Y165.041 Z-11.549
N7450 X174.926 Y164.975 Z-11.346
N7455 Y164.878 Z-11.141
N7460 X174.928 Y164.751 Z-10.943
N7465 X174.929 Y164.595 Z-10.758
N7470 X174.93 Y164.412 Z-10.594
N7475 X174.931 Y164.309 Z-10.519
N7480 X174.932 Y164.205 Z-10.455
N7485 X174.933 Y164.091 Z-10.395
N7490 X174.934 Y163.977 Z-10.344
N7495 X174.935 Y163.855 Z-10.301
N7500 X174.936 Y163.733 Z-10.267
N7505 X174.937 Y163.605 Z-10.241
N7510 X174.938 Y163.477 Z-10.225
N7515 X174.939 Y163.346 Z-10.218
N7520 X174.94 Y163.215 Z-10.221
N7525 X174.942 Y163.084 Z-10.233
N7530 X174.944 Y162.837 Z-10.281
N7535 X174.95 Y162.091 Z-10.458
N7540 X174.956 Y161.399 Z-10.59
N7545 X174.962 Y160.699 Z-10.675
N7550 X174.968 Y159.979 Z-10.696
N7555 X174.974 Y159.265 Z-10.647
N7560 X174.98 Y158.544 Z-10.537
N7565 X174.986 Y157.799 Z-10.375
N7570 X174.992 Y157.028 Z-10.184
N7575 X174.994 Y156.867 Z-10.158
N7580 X174.995 Y156.737 Z-10.146
N7585 X174.996 Y156.606 Z-10.144
N7590 X174.998 Y156.357 Z-10.166
N7595 X175. Y156.125 Z-10.218
N7600 X175.002 Y155.898 Z-10.3
N7605 X175.004 Y155.683 Z-10.412
N7610 X175.005 Y155.481 Z-10.553
N7615 X175.007 Y155.298 Z-10.721
N7620 X175.008 Y155.211 Z-10.819
N7625 Y155.136 Z-10.917
N7630 X175.009 Y155.061 Z-11.03
N7635 X175.01 Y154.999 Z-11.139
N7640 Y154.938 Z-11.268
N7645 Y154.891 Z-11.388
N7650 X175.011 Y154.845 Z-11.543
N7655 Y154.804 Z-11.75
N7660 X175.022 Y153.463 Z-11.744
N7665 X175.066 Y148.297 Z-11.552
N7670 X175.055 Y148.032 Z-11.543
N7675 X175.024 Y147.766 Z-11.535
N7680 X174.972 Y147.503 Z-11.528
N7685 X174.9 Y147.245 Z-11.522
N7690 X174.807 Y146.993 Z-11.518
N7695 X174.695 Y146.749 Z-11.514
N7700 X174.565 Y146.515 Z-11.504
N7705 X174.434 Y146.317 Z-11.5
N7710 X174.27 Y146.105 Z-11.501
N7715 X174.091 Y145.906 Z-11.507
N7720 X173.894 Y145.72 Z-11.516
N7725 X173.795 Y145.637 Z-11.512
N7730 X173.689 Y145.555 Z-11.513
N7735 X173.489 Y145.416 Z-11.526
N7740 X173.317 Y145.314 Z-11.531
N7745 X173.078 Y145.192 Z-11.539
N7750 X172.816 Y145.084 Z-11.548
N7755 X172.769 Y145.067 Z-11.331
N7760 X172.702 Y145.045 Z-11.117
N7765 X172.613 Y145.017 Z-10.903
N7770 X172.5 Y144.986 Z-10.694
N7775 X172.365 Y144.954 Z-10.495
N7780 X172.206 Y144.923 Z-10.308
N7785 X172.116 Y144.91 Z-10.218
N7790 X172.026 Y144.898 Z-10.137
N7795 X171.926 Y144.889 Z-10.056
N7800 X171.75 Y144.879 Z-9.932
N7805 X171.448 Y144.876 Z-9.758
N7810 X171.097 Y144.873 Z-9.588
N7815 X170.735 Y144.87 Z-9.443
N7820 X170.362 Y144.867 Z-9.32
N7825 X169.984 Y144.863 Z-9.218
N7830 X169.6 Y144.86 Z-9.136
N7835 X169.212 Y144.857 Z-9.074
N7840 X168.755 Y144.853 Z-9.026
N7845 X168.558 Y144.852 Z-9.018
N7850 X168.161 Y144.848 Z-9.035
N7855 X167.573 Y144.844 Z-9.089
N7860 X166.87 Y144.838 Z-9.179
N7865 X166.027 Y144.831 Z-9.317
N7870 X165.074 Y144.823 Z-9.504
N7875 X163.289 Y144.808 Z-9.882
N7880 X162.569 Y144.802 Z-10.022
N7885 X161.728 Y144.795 Z-10.167
N7890 X161.499 Y144.793 Z-10.238
N7895 X161.278 Y144.791 Z-10.339
N7900 X161.07 Y144.79 Z-10.468
N7905 X160.878 Y144.788 Z-10.626
N7910 X160.706 Y144.787 Z-10.811
N7915 X160.632 Y144.786 Z-10.909
N7920 X160.557 Z-11.022
N7925 X160.496 Y144.785 Z-11.131
N7930 X160.435 Z-11.261
N7935 X160.389 Y144.784 Z-11.381
N7940 X160.342 Z-11.534
N7945 X160.3 Y144.783 Z-11.75
N7950 X155.336 Y144.742 Z-11.747
N7955 X150.275 Y144.701 Z-11.644
N7960 X150.239 Y144.7 Z-11.426
N7965 X150.172 Z-11.163
N7970 X150.105 Y144.699 Z-10.969
N7975 X150.007 Y144.698 Z-10.745
N7980 X149.893 Y144.697 Z-10.531
N7985 X149.759 Y144.696 Z-10.325
N7990 X149.606 Y144.695 Z-10.129
N7995 X149.437 Y144.694 Z-9.943
N8000 X149.252 Y144.692 Z-9.772
N8005 X149.052 Y144.69 Z-9.614
N8010 X148.839 Y144.689 Z-9.473
N8015 X148.614 Y144.687 Z-9.349
N8020 X148.379 Y144.685 Z-9.242
N8025 X148.088 Y144.682 Z-9.139
N8030 X147.933 Y144.685 Z-9.097
N8035 X147.807 Y144.692 Z-9.068
N8040 X147.679 Y144.703 Z-9.043
N8045 X147.551 Y144.72 Z-9.024
N8050 X147.423 Y144.742 Z-9.011
N8055 X147.295 Y144.768 Z-9.003
N8060 X147.041 Y144.837 Z-9.
N8065 X146.793 Y144.924
N8070 X146.548 Y145.033
N8075 X146.312 Y145.16
N8080 X146.086 Y145.306
N8085 X145.873 Y145.468
N8090 X145.673 Y145.647
N8095 X145.488 Y145.841
N8100 X145.318 Y146.049
N8105 X145.165 Y146.269
N8110 X145.03 Y146.5
N8115 X144.913 Y146.742
N8120 X144.815 Y146.992
N8125 X144.737 Y147.248
N8130 X144.68 Y147.51
N8135 X144.643 Y147.776
N8140 X144.632 Y147.91
N8145 X144.624 Y148.356
N8150 X144.598 Y151.613 Z-9.003
N8155 X144.591 Y152.355 Z-9.036
N8160 X144.588 Y152.826 Z-9.076
N8165 X144.586 Y153.06 Z-9.112
N8170 X144.584 Y153.292 Z-9.166
N8175 X144.582 Y153.52 Z-9.239
N8180 X144.58 Y153.741 Z-9.331
N8185 X144.578 Y153.955 Z-9.441
N8190 X144.577 Y154.161 Z-9.569
N8195 X144.575 Y154.356 Z-9.714
N8200 X144.574 Y154.539 Z-9.876
N8205 X144.572 Y154.71 Z-10.053
N8210 X144.571 Y154.866 Z-10.246
N8215 X144.57 Y155.007 Z-10.454
N8220 X144.569 Y155.131 Z-10.675
N8225 X144.568 Y155.237 Z-10.911
N8230 X144.567 Y155.325 Z-11.163
N8235 Y155.392 Z-11.437
N8240 X144.566 Y155.436 Z-11.75
N8245 X144.492 Y164.551
N8250 Y164.589 Z-11.467
N8255 X144.491 Y164.655 Z-11.186
N8260 Y164.754 Z-10.897
N8265 X144.49 Y164.875 Z-10.632
N8270 X144.489 Y164.996 Z-10.422
N8275 X144.488 Y165.136 Z-10.219
N8280 X144.486 Y165.293 Z-10.027
N8285 X144.485 Y165.468 Z-9.847
N8290 X144.483 Y165.659 Z-9.681
N8295 X144.482 Y165.864 Z-9.532
N8300 X144.48 Y166.083 Z-9.4
N8305 X144.478 Y166.313 Z-9.287
N8310 X144.476 Y166.554 Z-9.193
N8315 X144.474 Y166.802 Z-9.121
N8320 X144.472 Y167.057 Z-9.071
N8325 X144.469 Y167.448 Z-9.033
N8330 X144.463 Y168.107 Z-9.003
N8335 X144.43 Y172.168 Z-9.
N8340 X144.441 Y172.464
N8345 X144.472 Y172.73
N8350 X144.524 Y172.993
N8355 X144.597 Y173.251
N8360 X144.689 Y173.503
N8365 X144.801 Y173.747
N8370 X144.932 Y173.981
N8375 X145.08 Y174.204
N8380 X145.246 Y174.415
N8385 X145.427 Y174.613
N8390 X145.623 Y174.796
N8395 X145.833 Y174.962
N8400 X146.056 Y175.112
N8405 X146.289 Y175.244
N8410 X146.532 Y175.358
N8415 X146.783 Y175.452
N8420 X147.067 Y175.532
N8425 X147.238 Y175.568 Z-9.005
N8430 X147.447 Y175.6 Z-9.024
N8435 X147.564 Y175.612 Z-9.041
N8440 X147.797 Y175.624 Z-9.088
N8445 X148.061 Y175.627 Z-9.163
N8450 X148.286 Y175.629 Z-9.245
N8455 X148.504 Y175.63 Z-9.345
N8460 X148.715 Y175.632 Z-9.461
N8465 X148.917 Y175.634 Z-9.593
N8470 X149.11 Y175.635 Z-9.741
N8475 X149.291 Y175.637 Z-9.905
N8480 X149.46 Y175.638 Z-10.084
N8485 X149.615 Y175.639 Z-10.277
N8490 X149.755 Y175.64 Z-10.485
N8495 X149.878 Y175.641 Z-10.707
N8500 X149.984 Y175.642 Z-10.944
N8505 X150.071 Y175.643 Z-11.197
N8510 X150.137 Z-11.474
N8515 X150.162 Y175.644 Z-11.624
N8520 X157.005 Y175.698 Z-11.75
N8525 X159.812 Y175.721
N8530 X159.854 Z-11.488
N8535 X159.919 Y175.722 Z-11.251
N8540 X160.016 Z-11.003
N8545 X160.142 Y175.723 Z-10.763
N8550 X160.277 Y175.724 Z-10.562
N8555 X160.433 Y175.726 Z-10.373
N8560 X160.611 Y175.727 Z-10.199
N8565 X160.807 Y175.729 Z-10.043
N8570 X161.021 Y175.73 Z-9.907
N8575 X161.249 Y175.732 Z-9.793
N8580 X161.49 Y175.734 Z-9.704
N8585 X161.741 Y175.736 Z-9.641
N8590 X162.129 Y175.739 Z-9.588
N8595 X162.913 Y175.746 Z-9.497
N8600 X164.423 Y175.758 Z-9.297
N8605 X165.674 Y175.768 Z-9.141
N8610 X166.589 Y175.775 Z-9.055
N8615 X167.377 Y175.781 Z-9.01
N8620 X168.044 Y175.787 Z-9.
N8625 X169.247 Y175.796 Z-9.004
N8630 X169.728 Y175.8 Z-9.032
N8635 X170.198 Y175.804 Z-9.085
N8640 X170.664 Y175.808 Z-9.164
N8645 X171.126 Y175.811 Z-9.272
N8650 X171.58 Y175.815 Z-9.409
N8655 X171.914 Y175.818 Z-9.532
N8660 X172.241 Y175.82 Z-9.675
N8665 X172.452 Y175.822 Z-9.781
N8670 X172.556 Y175.82 Z-9.84
N8675 X172.66 Y175.815 Z-9.904
N8680 X172.759 Y175.808 Z-9.972
N8685 X172.857 Y175.798 Z-10.046
N8690 X172.949 Y175.786 Z-10.123
N8695 X173.04 Y175.771 Z-10.208
N8700 X173.124 Y175.755 Z-10.294
N8705 X173.281 Y175.72 Z-10.484
N8710 X173.355 Y175.701 Z-10.59
N8715 X173.419 Y175.683 Z-10.694
N8720 X173.534 Y175.647 Z-10.924
N8725 X173.626 Y175.614 Z-11.172
N8730 X173.689 Y175.591 Z-11.418
N8735 X173.706 Y175.584 Z-11.504
N8740 X173.946 Y175.479 Z-11.518
N8745 X174.155 Y175.369 Z-11.526
N8750 X174.382 Y175.226 Z-11.533
N8755 X174.598 Y175.066 Z-11.539
N8760 X174.8 Y174.89 Z-11.543
N8765 X175.01 Y174.674 Z-11.546
N8770 X175.16 Y174.493 Z-11.548
N8775 X175.316 Y174.275 Z-11.545
N8780 X175.475 Y174.007 Z-11.537
N8785 X175.571 Y173.811 Z-11.534
N8790 X175.672 Y173.563 Z-11.531
N8795 X175.753 Y173.307 Z-11.526
N8800 X175.814 Y173.046 Z-11.521
N8805 X175.855 Y172.781 Z-11.512
N8810 X175.873 Y172.546 Z-11.499
N8815 X175.877 Y172.291 Z-11.497
N8820 X175.884 Y171.407 Z-11.522
N8825 X175.927 Y165.993 Z-11.719
N8830 Y165.96 Z-11.514
N8835 Y165.909 Z-11.306
N8840 X175.928 Y165.857 Z-11.149
N8845 X175.929 Y165.754 Z-10.904
N8850 Y165.64 Z-10.692
N8855 X175.93 Y165.506 Z-10.487
N8860 X175.932 Y165.299 Z-10.23
N8865 X175.934 Y165.088 Z-10.02
N8870 X175.935 Y164.892 Z-9.862
N8875 X175.937 Y164.68 Z-9.722
N8880 X175.939 Y164.455 Z-9.602
N8885 X175.941 Y164.217 Z-9.504
N8890 X175.943 Y163.97 Z-9.429
N8895 X175.945 Y163.715 Z-9.378
N8900 X175.947 Y163.456 Z-9.353
N8905 X175.949 Y163.191
N8910 X175.957 Y162.116 Z-9.444
N8915 X175.963 Y161.383 Z-9.491
N8920 X175.969 Y160.648 Z-9.519
N8925 X175.974 Y159.922 Z-9.524
N8930 X175.98 Y159.195 Z-9.507
N8935 X175.987 Y158.317 Z-9.457
N8940 X175.993 Y157.557 Z-9.395
N8945 X175.999 Y156.786 Z-9.325
N8950 X176.001 Y156.521
N8955 X176.003 Y156.269 Z-9.35
N8960 X176.005 Y156.036 Z-9.394
N8965 X176.007 Y155.806 Z-9.459
N8970 X176.009 Y155.582 Z-9.545
N8975 X176.01 Y155.366 Z-9.651
N8980 X176.012 Y155.16 Z-9.777
N8985 X176.014 Y154.964 Z-9.922
N8990 X176.015 Y154.781 Z-10.085
N8995 X176.016 Y154.611 Z-10.262
N9000 X176.018 Y154.455 Z-10.454
N9005 X176.019 Y154.315 Z-10.66
N9010 X176.02 Y154.191 Z-10.882
N9015 Y154.086 Z-11.12
N9020 X176.021 Y154.003 Z-11.378
N9025 Y153.95 Z-11.633
N9030 X176.022 Y153.939 Z-11.711
N9035 X176.066 Y148.233 Z-11.501
N9040 X176.072 Y147.563 Z-11.489
N9045 X176.071 Y147.173 Z-11.464
N9050 X176.053 Y146.925 Z-11.445
N9055 X176.016 Y146.679 Z-11.425
N9060 X175.959 Y146.424 Z-11.404
N9065 X175.886 Y146.186 Z-11.382
N9070 X175.802 Y145.967 Z-11.358
N9075 X175.698 Y145.742 Z-11.331
N9080 X175.577 Y145.526 Z-11.304
N9085 X175.441 Y145.319 Z-11.277
N9090 X175.269 Y145.096 Z-11.247
N9095 X175.135 Y144.946 Z-11.227
N9100 X174.933 Y144.75 Z-11.202
N9105 X174.758 Y144.602 Z-11.187
N9110 X174.545 Y144.449 Z-11.175
N9115 X174.434 Y144.378 Z-11.171
N9120 X174.2 Y144.247
N9125 X173.957 Y144.135 Z-11.178
N9130 X173.91 Y144.115 Z-11.18
N9135 X173.836 Y144.087 Z-10.957
N9140 X173.744 Y144.054 Z-10.741
N9145 X173.63 Y144.018 Z-10.532
N9150 X173.495 Y143.98 Z-10.333
N9155 X173.416 Y143.961 Z-10.235
N9160 X173.336 Y143.944 Z-10.148
N9165 X173.246 Y143.926 Z-10.059
N9170 X173.155 Y143.911 Z-9.981
N9175 X173.003 Y143.892 Z-9.868
N9180 X172.841 Y143.878 Z-9.769
N9185 X172.669 Y143.873 Z-9.678
N9190 X172.311 Y143.87 Z-9.519
N9195 X171.945 Y143.867 Z-9.384
N9200 X171.569 Y143.864 Z-9.271
N9205 X171.188 Y143.861 Z-9.179
N9210 X170.802 Y143.858 Z-9.106
N9215 X170.282 Y143.854 Z-9.039
N9220 X169.758 Y143.85 Z-9.005
N9225 X168.13 Y143.838 Z-9.
N9230 X166.584 Y143.826 Z-9.007
N9235 X165.617 Y143.818 Z-9.048
N9240 X164.151 Y143.807 Z-9.154
N9245 X162.581 Y143.795 Z-9.276
N9250 X161.861 Y143.789 Z-9.328
N9255 X161.627 Y143.787 Z-9.366
N9260 X161.396 Y143.785 Z-9.425
N9265 X161.17 Y143.784 Z-9.505
N9270 X160.952 Y143.782 Z-9.605
N9275 X160.742 Y143.78 Z-9.725
N9280 X160.542 Y143.779 Z-9.863
N9285 X160.355 Y143.777 Z-10.021
N9290 X160.182 Y143.776 Z-10.196
N9295 X160.024 Y143.775 Z-10.387
N9300 X159.883 Y143.774 Z-10.595
N9305 X159.76 Y143.773 Z-10.819
N9310 X159.657 Y143.772 Z-11.059
N9315 X159.576 Y143.771 Z-11.316
N9320 X159.517 Z-11.602
N9325 X159.498 Z-11.75
N9330 X158.152 Y143.76 Z-11.743
N9335 X149.94 Y143.697 Z-11.581
N9340 X149.904 Y143.696 Z-11.383
N9345 X149.837 Z-11.134
N9350 X149.754 Y143.695 Z-10.908
N9355 X149.614 Y143.694 Z-10.615
N9360 X149.488 Y143.693 Z-10.406
N9365 X149.343 Y143.692 Z-10.206
N9370 X149.181 Y143.691 Z-10.016
N9375 X149.003 Y143.689 Z-9.839
N9380 X148.809 Y143.688 Z-9.676
N9385 X148.601 Y143.686 Z-9.528
N9390 X148.381 Y143.684 Z-9.397
N9395 X148.151 Y143.683 Z-9.283
N9400 X147.911 Y143.681 Z-9.188
N9405 X147.663 Y143.679 Z-9.112
N9410 X147.409 Y143.677 Z-9.055
N9415 X147.071 Y143.674 Z-9.01
N9420 X146.913 Y143.677 Z-9.002
N9425 X146.663 Y143.695 Z-9.
N9430 X146.413 Y143.733
N9435 X146.152 Y143.793
N9440 X145.896 Y143.873
N9445 X145.647 Y143.972
N9450 X145.406 Y144.091
N9455 X145.176 Y144.229
N9460 X144.957 Y144.384
N9465 X144.751 Y144.556
N9470 X144.559 Y144.743
N9475 X144.383 Y144.945
N9480 X144.222 Y145.16
N9485 X144.079 Y145.387
N9490 X143.955 Y145.624
N9495 X143.849 Y145.871
N9500 X143.763 Y146.124
N9505 X143.697 Y146.384
N9510 X143.651 Y146.649
N9515 X143.626 Y146.916
N9520 X143.618 Y147.607
N9525 X143.579 Y152.602 Z-9.002
N9530 X143.577 Y152.886 Z-9.025
N9535 X143.576 Y153.12 Z-9.065
N9540 X143.574 Y153.351 Z-9.123
N9545 X143.572 Y153.577 Z-9.2
N9550 X143.57 Y153.797 Z-9.295
N9555 X143.569 Y154.009 Z-9.407
N9560 X143.567 Y154.213 Z-9.537
N9565 X143.566 Y154.407 Z-9.684
N9570 X143.564 Y154.589 Z-9.847
N9575 X143.563 Y154.758 Z-10.025
N9580 X143.562 Y154.913 Z-10.218
N9585 X143.561 Y155.053 Z-10.425
N9590 X143.56 Y155.177 Z-10.645
N9595 X143.559 Y155.283 Z-10.879
N9600 X143.558 Y155.37 Z-11.128
N9605 Y155.438 Z-11.394
N9610 X143.557 Y155.483 Z-11.683
N9615 Y155.487 Z-11.716
N9620 X143.489 Y164.514 Z-11.709
N9625 X143.488 Y164.545 Z-11.485
N9630 Y164.612 Z-11.189
N9635 X143.487 Y164.679 Z-10.98
N9640 Y164.746 Z-10.811
N9645 X143.486 Y164.85 Z-10.594
N9650 X143.485 Y164.973 Z-10.383
N9655 X143.484 Y165.115 Z-10.18
N9660 X143.483 Y165.274 Z-9.988
N9665 X143.481 Y165.451 Z-9.809
N9670 X143.48 Y165.643 Z-9.644
N9675 X143.478 Y165.849 Z-9.495
N9680 X143.477 Y166.068 Z-9.364
N9685 X143.475 Y166.3 Z-9.251
N9690 X143.473 Y166.54 Z-9.158
N9695 X143.471 Y166.79 Z-9.085
N9700 X143.469 Y167.045 Z-9.035
N9705 X143.467 Y167.305 Z-9.006
N9710 X143.464 Y167.768 Z-9.
N9715 X143.422 Y173.202
N9720 X143.433 Y173.47
N9725 X143.464 Y173.737
N9730 X143.516 Y174.
N9735 X143.589 Y174.258
N9740 X143.681 Y174.51
N9745 X143.793 Y174.753
N9750 X143.924 Y174.988
N9755 X144.073 Y175.211
N9760 X144.238 Y175.422
N9765 X144.42 Y175.619
N9770 X144.616 Y175.802
N9775 X144.826 Y175.969
N9780 X145.049 Y176.118
N9785 X145.282 Y176.25
N9790 X145.571 Y176.382
N9795 X145.887 Y176.492
N9800 X146.213 Y176.57
N9805 X146.412 Y176.602
N9810 X146.717 Y176.627
N9815 X146.958 Y176.631 Z-9.009
N9820 X147.209 Y176.632 Z-9.038
N9825 X147.558 Y176.635 Z-9.111
N9830 X147.897 Y176.638 Z-9.221
N9835 X148.117 Y176.639 Z-9.316
N9840 X148.33 Y176.641 Z-9.428
N9845 X148.535 Y176.642 Z-9.555
N9850 X148.73 Y176.644 Z-9.699
N9855 X148.914 Y176.645 Z-9.858
N9860 X149.087 Y176.647 Z-10.033
N9865 X149.245 Y176.648 Z-10.222
N9870 X149.389 Y176.649 Z-10.425
N9875 X149.517 Y176.65 Z-10.642
N9880 X149.627 Y176.651 Z-10.873
N9885 X149.719 Z-11.119
N9890 X149.791 Y176.652 Z-11.384
N9895 X149.823 Z-11.558
N9900 X159.31 Y176.723 Z-11.737
N9905 X159.346 Y176.724 Z-11.475
N9910 X159.413 Z-11.194
N9915 X159.48 Y176.725 Z-10.993
N9920 X159.578 Z-10.762
N9925 X159.724 Y176.727 Z-10.492
N9930 X159.898 Y176.728 Z-10.238
N9935 X160.058 Y176.729 Z-10.048
N9940 X160.235 Y176.73 Z-9.87
N9945 X160.428 Y176.732 Z-9.707
N9950 X160.636 Y176.733 Z-9.561
N9955 X160.857 Y176.735 Z-9.433
N9960 X161.09 Y176.737 Z-9.325
N9965 X161.333 Y176.739 Z-9.237
N9970 X161.583 Y176.741 Z-9.171
N9975 X161.84 Y176.742 Z-9.128
N9980 X162.101 Y176.744 Z-9.107
N9985 X164.592 Y176.763 Z-9.014
N9990 X165.631 Y176.771 Z-9.
N9995 X170.641 Y176.809 Z-9.004
N10000 X171.121 Y176.812 Z-9.032
N10005 X171.591 Y176.816 Z-9.085
N10010 X172.058 Y176.819 Z-9.165
N10015 X172.519 Y176.823 Z-9.272
N10020 X172.747 Y176.824 Z-9.344
N10025 X172.969 Y176.826 Z-9.436
N10030 X173.183 Y176.828 Z-9.547
N10035 X173.45 Y176.83 Z-9.717
N10040 X173.644 Y176.824 Z-9.863
N10045 X173.827 Y176.809 Z-10.023
N10050 X173.997 Y176.786 Z-10.198
N10055 X174.153 Y176.757 Z-10.389
N10060 X174.292 Y176.725 Z-10.594
N10065 X174.414 Y176.691 Z-10.814
N10070 X174.475 Y176.673 Z-10.94
N10075 X174.519 Y176.659 Z-10.8
N10080 X174.579 Y176.639 Z-10.65
N10085 X174.685 Y176.6 Z-10.447
N10090 X174.751 Y176.573 Z-10.345
N10095 X174.885 Y176.515 Z-10.172
N10100 X174.971 Y176.474 Z-10.079
N10105 X175.058 Y176.43 Z-9.997
N10110 X175.143 Y176.383 Z-9.925
N10115 X175.236 Y176.328 Z-9.855
N10120 X175.328 Y176.27 Z-9.794
N10125 X175.491 Y176.157 Z-9.701
N10130 X175.614 Y176.061 Z-9.644
N10135 X175.708 Y175.982 Z-9.607
N10140 X175.802 Y175.897 Z-9.576
N10145 X175.892 Y175.808 Z-9.551
N10150 X175.982 Y175.715 Z-9.532
N10155 X176.067 Y175.617 Z-9.519
N10160 X176.15 Y175.516 Z-9.512
N10165 X176.268 Y175.356 Z-9.513
N10170 X176.378 Y175.188 Z-9.528
N10175 X176.437 Y175.087 Z-9.543
N10180 X176.493 Y174.984 Z-9.563
N10185 X176.545 Y174.88 Z-9.588
N10190 X176.593 Y174.774 Z-9.618
N10195 X176.637 Y174.67 Z-9.653
N10200 X176.677 Y174.564 Z-9.694
N10205 X176.713 Y174.46 Z-9.74
N10210 X176.745 Y174.355 Z-9.793
N10215 X176.773 Y174.253 Z-9.851
N10220 X176.797 Y174.151 Z-9.916
N10225 X176.818 Y174.055 Z-9.985
N10230 X176.835 Y173.958 Z-10.064
N10235 X176.849 Y173.869 Z-10.145
N10240 X176.86 Y173.78 Z-10.237
N10245 X176.868 Y173.701 Z-10.33
N10250 X176.874 Y173.621 Z-10.437
N10255 X176.877 Y173.554 Z-10.541
N10260 X176.88 Y173.487 Z-10.664
N10265 X176.881 Y173.424 Z-10.803
N10270 Y173.381 Z-10.924
N10275 Y173.337 Z-11.08
N10280 X176.882 Y173.31 Z-11.219
N10285 Y173.29 Z-11.454
N10290 Y173.289 Z-11.539
N10295 X176.889 Y172.292 Z-11.481
N10300 X176.891 Y172.03 Z-11.476
N10305 X176.896 Y171.314 Z-11.484
N10310 X176.899 Y170.937 Z-11.477
N10315 X176.909 Y169.639 Z-11.535
N10320 X176.93 Y166.712 Z-11.642
N10325 X176.931 Y166.685 Z-11.493
N10330 Y166.619 Z-11.243
N10335 X176.932 Y166.519 Z-10.981
N10340 X176.933 Y166.415 Z-10.772
N10345 X176.934 Y166.289 Z-10.565
N10350 X176.935 Y166.143 Z-10.366
N10355 X176.936 Y165.98 Z-10.178
N10360 X176.937 Y165.8 Z-10.001
N10365 X176.939 Y165.606 Z-9.837
N10370 X176.94 Y165.399 Z-9.687
N10375 X176.942 Y165.181 Z-9.551
N10380 X176.944 Y164.837 Z-9.376
N10385 X176.947 Y164.475 Z-9.233
N10390 X176.95 Y164.1 Z-9.124
N10395 X176.952 Y163.845 Z-9.071
N10400 X176.954 Y163.586 Z-9.037
N10405 X176.956 Y163.265 Z-9.027
N10410 X176.971 Y161.222 Z-9.071
N10415 X176.981 Y159.881 Z-9.08
N10420 X176.992 Y158.374 Z-9.061
N10425 X177.005 Y156.672 Z-9.02
N10430 X177.007 Y156.42 Z-9.03
N10435 X177.008 Y156.185 Z-9.058
N10440 X177.011 Y155.836 Z-9.129
N10445 X177.014 Y155.493 Z-9.227
N10450 X177.016 Y155.159 Z-9.355
N10455 X177.018 Y154.836 Z-9.511
N10460 X177.021 Y154.527 Z-9.698
N10465 X177.023 Y154.238 Z-9.914
N10470 X177.024 Y154.056 Z-10.076
N10475 X177.025 Y153.887 Z-10.253
N10480 X177.027 Y153.73 Z-10.443
N10485 X177.028 Y153.588 Z-10.649
N10490 X177.029 Y153.463 Z-10.87
N10495 Y153.358 Z-11.107
N10500 X177.03 Y153.273 Z-11.365
N10505 Y153.216 Z-11.634
N10510 X177.057 Y149.636 Z-11.502
N10515 X177.061 Y149.063 Z-11.508
N10520 X177.064 Y148.643 Z-11.509
N10525 X177.074 Y147.301 Z-11.477
N10530 X177.077 Y146.978 Z-11.456
N10535 Y146.961 Z-11.256
N10540 Y146.919 Z-11.044
N10545 Y146.889 Z-10.943
N10550 X177.078 Y146.83 Z-10.784
N10555 Y146.743 Z-10.6
N10560 X177.079 Y146.618 Z-10.395
N10565 X177.08 Y146.471 Z-10.198
N10570 X177.082 Y146.3 Z-10.009
N10575 X177.08 Y146.208 Z-9.921
N10580 X177.077 Y146.115 Z-9.843
N10585 X177.07 Y146.013 Z-9.765
N10590 X177.059 Y145.911 Z-9.696
N10595 X177.045 Y145.801 Z-9.63
N10600 X177.027 Y145.691 Z-9.571
N10605 X177.004 Y145.576 Z-9.516
N10610 X176.977 Y145.461 Z-9.468
N10615 X176.945 Y145.343 Z-9.424
N10620 X176.909 Y145.226 Z-9.385
N10625 X176.867 Y145.107 Z-9.352
N10630 X176.821 Y144.989 Z-9.324
N10635 X176.77 Y144.871 Z-9.3
N10640 X176.714 Y144.755 Z-9.281
N10645 X176.653 Y144.64 Z-9.266
N10650 X176.588 Y144.527 Z-9.256
N10655 X176.518 Y144.416 Z-9.25
N10660 X176.404 Y144.253
N10665 X176.28 Y144.095 Z-9.259
N10670 X176.122 Y143.92 Z-9.283
N10675 X175.954 Y143.757 Z-9.322
N10680 X175.778 Y143.608 Z-9.376
N10685 X175.594 Y143.472 Z-9.446
N10690 X175.502 Y143.411 Z-9.488
N10695 X175.407 Y143.352 Z-9.535
N10700 X175.313 Y143.298 Z-9.586
N10705 X175.218 Y143.248 Z-9.642
N10710 X175.126 Y143.202 Z-9.703
N10715 X175.032 Y143.159 Z-9.77
N10720 X174.943 Y143.121 Z-9.841
N10725 X174.852 Y143.086 Z-9.92
N10730 X174.768 Y143.055 Z-10.001
N10735 X174.683 Y143.027 Z-10.091
N10740 X174.605 Y143.004 Z-10.182
N10745 X174.528 Y142.982 Z-10.284
N10750 X174.459 Y142.965 Z-10.385
N10755 X174.386 Y142.948 Z-10.509
N10760 X174.257 Y142.922 Z-10.304
N10765 X174.106 Y142.899 Z-10.11
N10770 X173.936 Y142.88 Z-9.93
N10775 X173.84 Y142.873 Z-9.844
N10780 X173.674 Y142.868 Z-9.713
N10785 X173.461 Y142.866 Z-9.571
N10790 X173.236 Y142.865 Z-9.446
N10795 X173.002 Y142.863 Z-9.338
N10800 X172.759 Y142.861 Z-9.247
N10805 X172.446 Y142.859 Z-9.158
N10810 X172.126 Y142.857 Z-9.097
N10815 X171.605 Y142.853 Z-9.034
N10820 X171.081 Y142.849 Z-9.003
N10825 X163.355 Y142.793
N10830 X162.014 Y142.783 Z-9.022
N10835 X161.762 Y142.781 Z-9.047
N10840 X161.529 Y142.779 Z-9.09
N10845 X161.213 Y142.777 Z-9.18
N10850 X160.962 Y142.775 Z-9.278
N10855 X160.746 Y142.774 Z-9.383
N10860 X160.538 Y142.772 Z-9.504
N10865 X160.338 Y142.771 Z-9.642
N10870 X160.149 Y142.769 Z-9.795
N10875 X159.971 Y142.768 Z-9.963
N10880 X159.806 Y142.767 Z-10.146
N10885 X159.656 Y142.766 Z-10.344
N10890 X159.521 Y142.765 Z-10.556
N10895 X159.403 Y142.764 Z-10.783
N10900 X159.303 Y142.763 Z-11.024
N10905 X159.222 Z-11.284
N10910 X159.163 Y142.762 Z-11.573
N10915 X159.146 Z-11.703
N10920 X150.131 Y142.696 Z-11.525
N10925 X149.596 Y142.692 Z-11.475
N10930 X149.545 Z-11.251
N10935 X149.476 Y142.691 Z-11.032
N10940 X149.387 Z-10.813
N10945 X149.278 Y142.69 Z-10.598
N10950 X149.15 Y142.689 Z-10.389
N10955 X149.004 Y142.688 Z-10.189
N10960 X148.84 Y142.687 Z-10.
N10965 X148.611 Y142.685 Z-9.781
N10970 X148.359 Y142.683 Z-9.586
N10975 X148.143 Y142.682 Z-9.45
N10980 X147.915 Y142.68 Z-9.333
N10985 X147.677 Y142.678 Z-9.236
N10990 X147.306 Y142.676 Z-9.116
N10995 X146.925 Y142.673 Z-9.023
N11000 X146.538 Y142.67 Z-8.959
N11005 X146.176 Y142.667 Z-8.924
N11010 X145.917 Y142.669 Z-8.915
N11015 X145.65 Y142.69 Z-8.914
N11020 X145.385 Y142.731
N11025 X145.125 Y142.793 Z-8.916
N11030 X144.869 Y142.876 Z-8.919
N11035 X144.621 Y142.978 Z-8.924
N11040 X144.382 Y143.099 Z-8.932
N11045 X144.153 Y143.238 Z-8.94
N11050 X143.948 Y143.385 Z-8.949
N11055 X143.754 Y143.547 Z-8.955
N11060 X143.562 Y143.734 Z-8.962
N11065 X143.385 Y143.935 Z-8.97
N11070 X143.224 Y144.15 Z-8.979
N11075 X143.082 Y144.374 Z-8.989
N11080 X142.958 Y144.607 Z-9.
N11085 X142.852 Y144.851
N11090 X142.764 Y145.104
N11095 X142.696 Y145.364
N11100 X142.649 Y145.628
N11105 X142.623 Y145.895
N11110 X142.615 Y146.343
N11115 X142.57 Y152.64 Z-9.003
N11120 X142.568 Y152.886 Z-9.025
N11125 X142.566 Y153.12 Z-9.065
N11130 X142.564 Y153.351 Z-9.123
N11135 X142.563 Y153.577 Z-9.2
N11140 X142.561 Y153.797 Z-9.295
N11145 X142.56 Y154.009 Z-9.407
N11150 X142.558 Y154.213 Z-9.537
N11155 X142.557 Y154.407 Z-9.684
N11160 X142.556 Y154.589 Z-9.847
N11165 X142.554 Y154.758 Z-10.025
N11170 X142.553 Y154.913 Z-10.218
N11175 X142.552 Y155.053 Z-10.425
N11180 X142.551 Y155.177 Z-10.645
N11185 Y155.283 Z-10.879
N11190 X142.55 Y155.37 Z-11.128
N11195 X142.549 Y155.438 Z-11.394
N11200 Y155.48 Z-11.653
N11205 X142.484 Y164.521 Z-11.646
N11210 Y164.569 Z-11.362
N11215 X142.483 Y164.634 Z-11.115
N11220 Y164.711 Z-10.894
N11225 X142.482 Y164.808 Z-10.676
N11230 X142.481 Y164.924 Z-10.462
N11235 X142.48 Y165.059 Z-10.256
N11240 X142.479 Y165.212 Z-10.06
N11245 X142.478 Y165.382 Z-9.876
N11250 X142.477 Y165.568 Z-9.705
N11255 X142.475 Y165.769 Z-9.55
N11260 X142.474 Y165.984 Z-9.411
N11265 X142.472 Y166.211 Z-9.291
N11270 X142.47 Y166.448 Z-9.19
N11275 X142.468 Y166.694 Z-9.11
N11280 X142.467 Y166.947 Z-9.051
N11285 X142.465 Y167.206 Z-9.014
N11290 X142.462 Y167.529 Z-9.
N11295 X142.415 Y174.203
N11300 X142.425 Y174.471
N11305 X142.456 Y174.737
N11310 X142.508 Y175.
N11315 X142.581 Y175.258
N11320 X142.673 Y175.51 Z-9.002
N11325 X142.777 Y175.738 Z-9.014
N11330 X142.889 Y175.945 Z-9.034
N11335 X143.016 Y176.143 Z-9.054
N11340 X143.164 Y176.343 Z-9.074
N11345 X143.335 Y176.541 Z-9.092
N11350 X143.521 Y176.726 Z-9.108
N11355 X143.72 Y176.897 Z-9.122
N11360 X143.933 Y177.051 Z-9.133
N11365 X144.158 Y177.191 Z-9.142
N11370 X144.397 Y177.313 Z-9.148
N11375 X144.644 Y177.417 Z-9.151
N11380 X144.899 Y177.501
N11385 X145.159 Y177.565 Z-9.148
N11390 X145.424 Y177.608 Z-9.143
N11395 X145.69 Y177.631 Z-9.134
N11400 X145.822 Y177.634 Z-9.129
N11405 X146.348 Y177.638 Z-9.109
N11410 X146.616 Y177.64 Z-9.113
N11415 X146.969 Y177.643 Z-9.149
N11420 X147.319 Y177.645 Z-9.219
N11425 X147.667 Y177.647 Z-9.326
N11430 X147.881 Y177.649 Z-9.416
N11435 X148.095 Y177.651 Z-9.526
N11440 X148.3 Y177.652 Z-9.655
N11445 X148.494 Y177.653 Z-9.802
N11450 X148.675 Y177.655 Z-9.965
N11455 X148.844 Y177.656 Z-10.145
N11460 X148.997 Y177.657 Z-10.34
N11465 X149.134 Y177.658 Z-10.551
N11470 X149.254 Y177.659 Z-10.776
N11475 X149.354 Z-11.015
N11480 X149.435 Y177.66 Z-11.271
N11485 X149.486 Z-11.499
N11490 X151.11 Y177.672 Z-11.522
N11495 X158.99 Y177.728 Z-11.671
N11500 X159.024 Z-11.455
N11505 X159.083 Z-11.21
N11510 X159.141 Y177.729 Z-11.028
N11515 X159.2 Z-10.878
N11520 X159.316 Y177.73 Z-10.636
N11525 X159.439 Y177.731 Z-10.426
N11530 X159.582 Y177.732 Z-10.225
N11535 X159.742 Y177.733 Z-10.034
N11540 X159.918 Y177.734 Z-9.855
N11545 X160.11 Y177.736 Z-9.69
N11550 X160.316 Y177.737 Z-9.541
N11555 X160.535 Y177.739 Z-9.408
N11560 X160.764 Y177.74 Z-9.292
N11565 X161.004 Y177.742 Z-9.195
N11570 X161.251 Y177.744 Z-9.116
N11575 X161.504 Y177.746 Z-9.058
N11580 X161.762 Y177.747 Z-9.019
N11585 X162.005 Y177.749 Z-9.002
N11590 X171.901 Y177.819 Z-9.003
N11595 X172.143 Y177.821 Z-9.023
N11600 X172.494 Y177.824 Z-9.086
N11605 X172.838 Y177.826 Z-9.174
N11610 X173.178 Y177.828 Z-9.283
N11615 X173.509 Y177.831 Z-9.413
N11620 X173.899 Y177.834 Z-9.6
N11625 X174.219 Y177.836 Z-9.781
N11630 X174.432 Y177.837 Z-9.545
N11635 X174.597 Y177.835 Z-9.393
N11640 X174.746 Y177.825 Z-9.275
N11645 X174.848 Y177.815 Z-9.204
N11650 X174.956 Y177.801 Z-9.134
N11655 X175.064 Y177.783 Z-9.071
N11660 X175.177 Y177.761 Z-9.011
N11665 X175.391 Y177.708 Z-8.911
N11670 X175.52 Y177.668 Z-8.86
N11675 X175.637 Y177.628 Z-8.819
N11680 X175.753 Y177.583 Z-8.782
N11685 X175.869 Y177.533 Z-8.749
N11690 X175.983 Y177.479 Z-8.719
N11695 X176.181 Y177.372 Z-8.676
N11700 X176.319 Y177.287 Z-8.652
N11705 X176.532 Y177.138 Z-8.623
N11710 X176.734 Y176.972 Z-8.604
N11715 X176.924 Y176.79 Z-8.592
N11720 X177.1 Y176.592 Z-8.587
N11725 X177.263 Y176.379 Z-8.588
N11730 X177.403 Y176.163 Z-8.596
N11735 X177.519 Y175.952 Z-8.608
N11740 X177.617 Y175.738 Z-8.627
N11745 X177.701 Y175.518 Z-8.651
N11750 X177.769 Y175.294 Z-8.683
N11755 X177.822 Y175.067 Z-8.723
N11760 X177.859 Y174.838 Z-8.774
N11765 X177.88 Y174.61 Z-8.836
N11770 X177.886 Y174.432 Z-8.894
N11775 X177.888 Y174.1 Z-9.021
N11780 X177.89 Y173.773 Z-9.167
N11785 X177.892 Y173.457 Z-9.334
N11790 X177.895 Y173.152 Z-9.525
N11795 X177.897 Y172.863 Z-9.739
N11800 X177.898 Y172.591 Z-9.984
N11805 X177.9 Y172.424 Z-10.165
N11810 X177.901 Y172.272 Z-10.363
N11815 X177.902 Y172.136 Z-10.579
N11820 Y172.021 Z-10.818
N11825 X177.903 Y171.977 Z-10.939
N11830 Y171.933 Z-11.094
N11835 Y171.906 Z-11.232
N11840 Y171.885 Z-11.425
N11845 X177.908 Y171.224 Z-11.403
N11850 X177.913 Y170.553 Z-11.4
N11855 X177.919 Y169.697 Z-11.414
N11860 X177.925 Y168.832 Z-11.503
N11865 X177.927 Y168.453 Z-11.527
N11870 X177.935 Y167.429 Z-11.564
N11875 Y167.379 Z-11.345
N11880 Y167.309 Z-11.13
N11885 X177.936 Y167.217 Z-10.913
N11890 X177.937 Y167.104 Z-10.701
N11895 X177.938 Y166.97 Z-10.495
N11900 X177.939 Y166.818 Z-10.299
N11905 X177.94 Y166.648 Z-10.114
N11910 X177.941 Y166.462 Z-9.942
N11915 X177.943 Y166.263 Z-9.783
N11920 X177.944 Y166.052 Z-9.637
N11925 X177.946 Y165.83 Z-9.507
N11930 X177.948 Y165.48 Z-9.338
N11935 X177.951 Y165.115 Z-9.204
N11940 X177.953 Y164.737 Z-9.103
N11945 X177.956 Y164.351 Z-9.036
N11950 X177.959 Y163.96 Z-9.004
N11955 X177.966 Y162.974 Z-9.
N11960 X178.015 Y155.999 Z-9.004
N11965 X178.017 Y155.679 Z-9.028
N11970 X178.019 Y155.328 Z-9.08
N11975 X178.022 Y154.981 Z-9.16
N11980 X178.024 Y154.641 Z-9.269
N11985 X178.026 Y154.31 Z-9.406
N11990 X178.029 Y153.993 Z-9.573
N11995 X178.031 Y153.689 Z-9.771
N12000 X178.033 Y153.407 Z-9.998
N12005 X178.034 Y153.232 Z-10.168
N12010 X178.035 Y153.069 Z-10.352
N12015 X178.036 Y152.92 Z-10.55
N12020 X178.037 Y152.787 Z-10.764
N12025 X178.038 Y152.672 Z-10.993
N12030 Y152.577 Z-11.241
N12035 X178.039 Y152.513 Z-11.477
N12040 Y152.497 Z-11.556
N12045 X178.049 Y151.039 Z-11.503
N12050 X178.053 Y150.55 Z-11.504
N12055 X178.065 Y148.795 Z-11.556
N12060 X178.068 Y148.343
N12065 Y148.336 Z-11.319
N12070 Y148.31 Z-11.139
N12075 X178.069 Y148.258 Z-10.935
N12080 Y148.224 Z-10.834
N12085 Y148.152 Z-10.667
N12090 X178.07 Y148.08 Z-10.53
N12095 X178.071 Y147.95 Z-10.327
N12100 X178.072 Y147.798 Z-10.132
N12105 X178.073 Y147.627 Z-9.95
N12110 X178.074 Y147.439 Z-9.779
N12115 X178.076 Y147.238 Z-9.621
N12120 X178.078 Y146.915 Z-9.407
N12125 X178.08 Y146.576 Z-9.221
N12130 X178.083 Y146.22 Z-9.06
N12135 X178.085 Y145.855 Z-8.923
N12140 X178.088 Y145.48 Z-8.808
N12145 X178.089 Y145.288 Z-8.758
N12150 X178.087 Y145.16 Z-8.729
N12155 X178.08 Y145.033 Z-8.704
N12160 X178.068 Y144.904 Z-8.681
N12165 X178.029 Y144.648 Z-8.646
N12170 X177.97 Y144.393 Z-8.62
N12175 X177.892 Y144.143 Z-8.603
N12180 X177.795 Y143.899 Z-8.592
N12185 X177.678 Y143.661 Z-8.586
N12190 X177.542 Y143.43 Z-8.585
N12195 X177.387 Y143.211 Z-8.587
N12200 X177.219 Y143.007 Z-8.594
N12205 X177.048 Y142.828 Z-8.603
N12210 X176.872 Y142.67 Z-8.616
N12215 X176.687 Y142.524 Z-8.634
N12220 X176.493 Y142.392 Z-8.657
N12225 X176.29 Y142.274 Z-8.687
N12230 X176.081 Y142.17 Z-8.724
N12235 X175.867 Y142.081 Z-8.772
N12240 X175.649 Y142.008 Z-8.83
N12245 X175.429 Y141.95 Z-8.902
N12250 X175.211 Y141.907 Z-8.988
N12255 X174.996 Y141.879 Z-9.09
N12260 X174.789 Y141.865 Z-9.208
N12265 X174.59 Y141.863 Z-9.342
N12270 X174.307 Y141.861 Z-9.573
N12275 X174.269 Y141.86 Z-9.608
N12280 X174.055 Y141.859 Z-9.468
N12285 X173.829 Y141.857 Z-9.344
N12290 X173.594 Y141.856 Z-9.237
N12295 X173.351 Y141.854 Z-9.147
N12300 X173.102 Y141.852 Z-9.074
N12305 X172.847 Y141.85 Z-9.019
N12310 X172.588 Y141.849 Z-8.98
N12315 X172.327 Y141.847 Z-8.96
N12320 X172.064 Y141.845 Z-8.956
N12325 X171.678 Y141.842 Z-8.98
N12330 X171.299 Y141.84 Z-9.
N12335 X161.803 Y141.774 Z-9.004
N12340 X161.461 Y141.772 Z-9.038
N12345 X161.112 Y141.77 Z-9.111
N12350 X160.772 Y141.767 Z-9.222
N12355 X160.551 Y141.766 Z-9.316
N12360 X160.338 Y141.764 Z-9.427
N12365 X160.133 Y141.763 Z-9.555
N12370 X159.937 Y141.761 Z-9.698
N12375 X159.752 Y141.76 Z-9.857
N12380 X159.579 Y141.759 Z-10.031
N12385 X159.42 Y141.758 Z-10.22
N12390 X159.275 Y141.757 Z-10.423
N12395 X159.146 Y141.756 Z-10.641
N12400 X159.035 Y141.755 Z-10.873
N12405 X158.942 Z-11.12
N12410 X158.869 Y141.754 Z-11.389
N12415 X158.826 Z-11.637
N12420 X152.117 Y141.708 Z-11.501
N12425 X151.876 Y141.706 Z-11.493
N12430 X151.242 Y141.701 Z-11.428
N12435 X150.849 Y141.699 Z-11.403
N12440 X150.353 Y141.695 Z-11.341
N12445 X149.627 Y141.69 Z-11.225
N12450 X149.057 Y141.686 Z-11.111
N12455 X148.962 Z-10.892
N12460 X148.847 Y141.685 Z-10.682
N12465 X148.709 Y141.684 Z-10.48
N12470 X148.551 Y141.683 Z-10.286
N12475 X148.378 Y141.682 Z-10.102
N12480 X148.191 Y141.68 Z-9.93
N12485 X147.887 Y141.678 Z-9.692
N12490 X147.563 Y141.676 Z-9.484
N12495 X147.219 Y141.674 Z-9.303
N12500 X146.862 Y141.671 Z-9.15
N12505 X146.491 Y141.669 Z-9.025
N12510 X146.112 Y141.666 Z-8.928
N12515 X145.725 Y141.663 Z-8.859
N12520 X145.335 Y141.661 Z-8.818
N12525 X144.964 Y141.659 Z-8.805
N12530 X144.763 Y141.669 Z-8.803
N12535 X144.497 Y141.701 Z-8.802
N12540 X144.234 Y141.753 Z-8.803
N12545 X143.976 Y141.826 Z-8.809
N12550 X143.736 Y141.913 Z-8.816
N12555 X143.492 Y142.025 Z-8.822
N12560 X143.258 Y142.155 Z-8.833
N12565 X143.06 Y142.284 Z-8.844
N12570 X142.849 Y142.445 Z-8.854
N12575 X142.654 Y142.621 Z-8.868
N12580 X142.49 Y142.79 Z-8.88
N12585 X142.322 Y142.992 Z-8.893
N12590 X142.17 Y143.206 Z-8.909
N12595 X142.035 Y143.431 Z-8.919
N12600 X141.915 Y143.671 Z-8.928
N12605 X141.825 Y143.89 Z-8.939
N12610 X141.751 Y144.113 Z-8.95
N12615 X141.687 Y144.368 Z-8.963
N12620 X141.642 Y144.626 Z-8.977
N12625 X141.617 Y144.888 Z-8.992
N12630 X141.611 Y145.189 Z-9.
N12635 X141.561 Y152.566 Z-9.001
N12640 X141.559 Y152.886 Z-9.025
N12645 X141.557 Y153.12 Z-9.065
N12650 X141.556 Y153.351 Z-9.123
N12655 X141.554 Y153.577 Z-9.2
N12660 X141.552 Y153.797 Z-9.295
N12665 X141.551 Y154.009 Z-9.407
N12670 X141.55 Y154.213 Z-9.537
N12675 X141.548 Y154.407 Z-9.684
N12680 X141.547 Y154.589 Z-9.847
N12685 X141.546 Y154.758 Z-10.025
N12690 X141.545 Y154.913 Z-10.218
N12695 X141.544 Y155.053 Z-10.425
N12700 X141.543 Y155.177 Z-10.645
N12705 X141.542 Y155.283 Z-10.879
N12710 Y155.37 Z-11.128
N12715 X141.541 Y155.438 Z-11.394
N12720 Y155.472 Z-11.59
N12725 X141.479 Y164.529 Z-11.586
N12730 Y164.559 Z-11.408
N12735 Y164.593 Z-11.26
N12740 Y164.643 Z-11.084
N12745 X141.478 Y164.745 Z-10.812
N12750 X141.477 Y164.853 Z-10.588
N12755 X141.476 Y164.976 Z-10.378
N12760 X141.475 Y165.118 Z-10.177
N12765 X141.474 Y165.277 Z-9.985
N12770 X141.473 Y165.453 Z-9.807
N12775 X141.472 Y165.645 Z-9.642
N12780 X141.47 Y165.852 Z-9.493
N12785 X141.469 Y166.071 Z-9.362
N12790 X141.467 Y166.302 Z-9.25
N12795 X141.466 Y166.543 Z-9.157
N12800 X141.464 Y166.791 Z-9.085
N12805 X141.462 Y167.047 Z-9.034
N12810 X141.461 Y167.306 Z-9.006
N12815 X141.457 Y167.902 Z-9.
N12820 X141.408 Y175.011
N12825 X141.409 Y175.327 Z-9.012
N12830 X141.427 Y175.576 Z-9.022
N12835 X141.462 Y175.823 Z-9.037
N12840 X141.512 Y176.053 Z-9.059
N12845 X141.578 Y176.278 Z-9.088
N12850 X141.658 Y176.497 Z-9.128
N12855 X141.754 Y176.713 Z-9.18
N12860 X141.878 Y176.944 Z-9.204
N12865 X142.019 Y177.165 Z-9.225
N12870 X142.177 Y177.374 Z-9.243
N12875 X142.331 Y177.552 Z-9.258
N12880 X142.518 Y177.736 Z-9.272
N12885 X142.697 Y177.89 Z-9.283
N12890 X142.886 Y178.03 Z-9.293
N12895 X143.111 Y178.173 Z-9.301
N12900 X143.348 Y178.299 Z-9.306
N12905 X143.594 Y178.406 Z-9.31
N12910 X143.847 Y178.493
N12915 X144.107 Y178.561 Z-9.308
N12920 X144.371 Y178.608 Z-9.304
N12925 X144.682 Y178.636 Z-9.295
N12930 X144.815 Y178.639 Z-9.291
N12935 X145.849 Y178.646 Z-9.255
N12940 X146.117 Y178.648 Z-9.265
N12945 X146.469 Y178.65 Z-9.307
N12950 X146.818 Y178.653 Z-9.384
N12955 X147.157 Y178.655 Z-9.496
N12960 X147.485 Y178.657 Z-9.643
N12965 X147.695 Y178.659 Z-9.762
N12970 X147.896 Y178.66 Z-9.897
N12975 X148.087 Y178.661 Z-10.049
N12980 X148.265 Y178.663 Z-10.217
N12985 X148.43 Y178.664 Z-10.401
N12990 X148.579 Y178.665 Z-10.602
N12995 X148.711 Y178.666 Z-10.82
N13000 X148.824 Z-11.054
N13005 X148.916 Y178.667 Z-11.307
N13010 X148.976 Z-11.54
N13015 X149.783 Y178.673 Z-11.554
N13020 X152.496 Y178.691 Z-11.502
N13025 X153.481 Y178.698 Z-11.507
N13030 X158.673 Y178.732 Z-11.605
N13035 X158.711 Y178.733 Z-11.388
N13040 X158.768 Z-11.171
N13045 X158.843 Y178.734 Z-10.952
N13050 X158.939 Z-10.734
N13055 X159.055 Y178.735 Z-10.52
N13060 X159.189 Y178.736 Z-10.314
N13065 X159.342 Y178.737 Z-10.118
N13070 X159.511 Y178.738 Z-9.933
N13075 X159.697 Y178.739 Z-9.762
N13080 X159.897 Y178.741 Z-9.605
N13085 X160.111 Y178.742 Z-9.464
N13090 X160.336 Y178.744 Z-9.341
N13095 X160.571 Y178.745 Z-9.235
N13100 X160.815 Y178.747 Z-9.148
N13105 X161.066 Y178.748 Z-9.081
N13110 X161.323 Y178.75 Z-9.034
N13115 X161.583 Y178.752 Z-9.007
N13120 X162.061 Y178.755 Z-9.
N13125 X171.182 Y178.816 Z-9.002
N13130 X171.555 Y178.819 Z-9.028
N13135 X172.952 Y178.828 Z-9.184
N13140 X173.303 Y178.831 Z-9.239
N13145 X173.65 Y178.833 Z-9.316
N13150 X173.946 Y178.835 Z-9.399
N13155 X174.171 Y178.836 Z-9.218
N13160 X174.382 Y178.838 Z-9.074
N13165 X174.721 Y178.84 Z-8.884
N13170 X175.076 Y178.842 Z-8.729
N13175 X175.445 Y178.845 Z-8.607
N13180 X175.595 Y178.843 Z-8.568
N13185 X175.818 Y178.827 Z-8.521
N13190 X175.977 Y178.807 Z-8.497
N13195 X176.106 Y178.785 Z-8.481
N13200 X176.36 Y178.727 Z-8.458
N13205 X176.611 Y178.649 Z-8.445
N13210 X176.857 Y178.551 Z-8.443
N13215 X177.098 Y178.432 Z-8.447
N13220 X177.346 Y178.284 Z-8.455
N13225 X177.518 Y178.163 Z-8.465
N13230 X177.702 Y178.015 Z-8.477
N13235 X177.875 Y177.855 Z-8.487
N13240 X178.039 Y177.682 Z-8.495
N13245 X178.198 Y177.487 Z-8.501
N13250 X178.35 Y177.269 Z-8.503
N13255 X178.517 Y176.979 Z-8.501
N13260 X178.654 Y176.673 Z-8.495
N13265 X178.761 Y176.355 Z-8.486
N13270 X178.824 Y176.095 Z-8.48
N13275 X178.866 Y175.83 Z-8.477
N13280 X178.889 Y175.537 Z-8.479
N13285 X178.892 Y175.202 Z-8.492
N13290 X178.895 Y174.731 Z-8.533
N13295 X178.898 Y174.262 Z-8.599
N13300 X178.902 Y173.798 Z-8.692
N13305 X178.905 Y173.34 Z-8.814
N13310 X178.908 Y172.89 Z-8.965
N13315 X178.91 Y172.56 Z-9.1
N13320 X178.912 Y172.238 Z-9.255
N13325 X178.914 Y171.926 Z-9.431
N13330 X178.916 Y171.626 Z-9.632
N13335 X178.918 Y171.345 Z-9.858
N13340 X178.919 Y171.168 Z-10.025
N13345 X178.92 Y171.003 Z-10.207
N13350 X178.921 Y170.853 Z-10.406
N13355 X178.922 Y170.72 Z-10.623
N13360 X178.923 Y170.609 Z-10.862
N13365 Y170.56 Z-11.004
N13370 Y170.502 Z-11.247
N13375 X178.927 Y169.899 Z-11.24
N13380 X178.932 Y169.132 Z-11.258
N13385 X178.936 Y168.572 Z-11.292
N13390 X178.939 Y168.106 Z-11.341
N13395 X178.94 Y168.034 Z-11.117
N13400 Y167.941 Z-10.902
N13405 X178.941 Y167.827 Z-10.69
N13410 X178.942 Y167.692 Z-10.485
N13415 X178.943 Y167.538 Z-10.289
N13420 X178.944 Y167.368 Z-10.105
N13425 X178.945 Y167.182 Z-9.933
N13430 X178.947 Y166.982 Z-9.775
N13435 X178.948 Y166.77 Z-9.63
N13440 X178.95 Y166.548 Z-9.5
N13445 X178.952 Y166.197 Z-9.333
N13450 X178.954 Y165.832 Z-9.2
N13455 X178.957 Y165.453 Z-9.1
N13460 X178.959 Y165.067 Z-9.035
N13465 X178.962 Y164.675 Z-9.003
N13470 X179.024 Y155.284
N13475 X179.026 Y154.946 Z-9.028
N13480 X179.029 Y154.594 Z-9.08
N13485 X179.031 Y154.247 Z-9.16
N13490 X179.033 Y153.908 Z-9.269
N13495 X179.035 Y153.576 Z-9.407
N13500 X179.038 Y153.259 Z-9.573
N13505 X179.04 Y152.955 Z-9.771
N13510 X179.041 Y152.674 Z-9.998
N13515 X179.043 Y152.499 Z-10.168
N13520 X179.044 Y152.336 Z-10.352
N13525 X179.045 Y152.151 Z-10.604
N13530 X179.046 Y152.054 Z-10.766
N13535 Y151.941 Z-10.999
N13540 X179.047 Y151.85 Z-11.25
N13545 Y151.786 Z-11.504
N13550 X179.061 Y149.711 Z-11.596
N13555 Y149.709 Z-11.398
N13560 Y149.685 Z-11.16
N13565 X179.062 Y149.635 Z-10.947
N13570 Y149.603 Z-10.846
N13575 Y149.537 Z-10.683
N13580 X179.063 Y149.412 Z-10.449
N13585 X179.064 Y149.276 Z-10.249
N13590 X179.065 Y149.119 Z-10.059
N13595 X179.066 Y148.943 Z-9.88
N13600 X179.067 Y148.752 Z-9.713
N13605 X179.069 Y148.443 Z-9.488
N13610 X179.072 Y148.11 Z-9.288
N13615 X179.074 Y147.763 Z-9.115
N13620 X179.076 Y147.401 Z-8.966
N13625 X179.079 Y147.031 Z-8.84
N13630 X179.081 Y146.652 Z-8.736
N13635 X179.084 Y146.269 Z-8.653
N13640 X179.086 Y145.881 Z-8.589
N13645 X179.09 Y145.359 Z-8.534
N13650 X179.093 Y144.831 Z-8.512
N13655 X179.097 Y144.312 Z-8.522
N13660 X179.089 Y144.054 Z-8.538
N13665 X179.065 Y143.82 Z-8.557
N13670 X179.024 Y143.588 Z-8.578
N13675 X178.968 Y143.36 Z-8.599
N13680 X178.897 Y143.136 Z-8.62
N13685 X178.81 Y142.917 Z-8.638
N13690 X178.709 Y142.704 Z-8.653
N13695 X178.593 Y142.499 Z-8.664
N13700 X178.422 Y142.246 Z-8.671
N13705 X178.21 Y141.987 Z-8.669
N13710 X177.973 Y141.75 Z-8.658
N13715 X177.822 Y141.621 Z-8.648
N13720 X177.612 Y141.463 Z-8.633
N13725 X177.39 Y141.323 Z-8.615
N13730 X177.159 Y141.2 Z-8.598
N13735 X176.919 Y141.095 Z-8.583
N13740 X176.67 Y141.008 Z-8.573
N13745 X176.413 Y140.94 Z-8.57
N13750 X176.158 Y140.893 Z-8.577
N13755 X175.916 Y140.867 Z-8.595
N13760 X175.688 Y140.858 Z-8.623
N13765 X175.339 Y140.856 Z-8.69
N13770 X174.995 Y140.854 Z-8.784
N13775 X174.66 Y140.851 Z-8.907
N13780 X174.334 Y140.849 Z-9.056
N13785 X174.186 Y140.848 Z-9.134
N13790 X173.864 Y140.846 Z-9.022
N13795 X173.58 Y140.844 Z-8.948
N13800 X173.323 Y140.843 Z-8.902
N13805 X173.063 Y140.841 Z-8.872
N13810 X172.802 Y140.839 Z-8.86
N13815 X172.536 Y140.837 Z-8.865
N13820 X171.146 Y140.828 Z-8.978
N13825 X170.486 Y140.824 Z-9.
N13830 X161.5 Y140.765 Z-9.003
N13835 X161.251 Y140.764 Z-9.022
N13840 X160.9 Y140.761 Z-9.083
N13845 X160.557 Y140.759 Z-9.181
N13850 X160.334 Y140.758 Z-9.267
N13855 X160.117 Y140.756 Z-9.369
N13860 X159.908 Y140.755 Z-9.488
N13865 X159.707 Y140.754 Z-9.624
N13870 X159.517 Y140.752 Z-9.774
N13875 X159.338 Y140.751 Z-9.941
N13880 X159.172 Y140.75 Z-10.122
N13885 X159.02 Y140.749 Z-10.317
N13890 X158.883 Y140.748 Z-10.527
N13895 X158.763 Y140.747 Z-10.75
N13900 X158.661 Z-10.988
N13905 X158.578 Y140.746 Z-11.242
N13910 X158.514 Z-11.531
N13915 X158.508 Z-11.571
N13920 X154.618 Y140.72 Z-11.499
N13925 X153.009 Y140.71 Z-11.48
N13930 X151.748 Y140.702 Z-11.385
N13935 X150.914 Y140.696 Z-11.284
N13940 X150.188 Y140.691 Z-11.162
N13945 X149.842 Y140.689 Z-11.092
N13950 X149.797 Z-11.008
N13955 X149.724 Y140.688 Z-10.896
N13960 X149.57 Y140.687 Z-10.711
N13965 X149.391 Y140.686 Z-10.539
N13970 X149.192 Y140.685 Z-10.382
N13975 X148.868 Y140.683 Z-10.17
N13980 X148.527 Y140.681 Z-9.985
N13985 X148.172 Y140.678 Z-9.821
N13990 X147.686 Y140.675 Z-9.63
N13995 X147.189 Y140.672 Z-9.465
N14000 X146.527 Y140.667 Z-9.28
N14005 X146.076 Y140.665 Z-9.074
N14010 X145.71 Y140.662 Z-8.94
N14015 X145.333 Y140.66 Z-8.834
N14020 X144.949 Y140.657 Z-8.755
N14025 X144.559 Y140.655 Z-8.705
N14030 X144.166 Y140.652 Z-8.681
N14035 X143.893 Y140.654 Z-8.679
N14040 X143.626 Y140.675 Z-8.68
N14045 X143.361 Y140.717 Z-8.683
N14050 X143.102 Y140.779 Z-8.689
N14055 X142.862 Y140.856 Z-8.697
N14060 X142.628 Y140.95 Z-8.707
N14065 X142.392 Y141.067 Z-8.718
N14070 X142.177 Y141.194 Z-8.732
N14075 X141.973 Y141.337 Z-8.746
N14080 X141.769 Y141.502 Z-8.762
N14085 X141.589 Y141.673 Z-8.779
N14090 X141.421 Y141.857 Z-8.796
N14095 X141.259 Y142.063 Z-8.814
N14100 X141.113 Y142.281 Z-8.832
N14105 X140.984 Y142.51 Z-8.851
N14110 X140.874 Y142.747 Z-8.871
N14115 X140.781 Y142.993 Z-8.887
N14120 X140.708 Y143.245 Z-8.902
N14125 X140.655 Y143.501 Z-8.917
N14130 X140.621 Y143.762 Z-8.933
N14135 X140.607 Y144.049 Z-8.944
N14140 X140.599 Y145.198 Z-8.99
N14145 X140.595 Y145.82 Z-9.
N14150 X140.552 Y152.526
N14155 X140.551 Y152.768 Z-9.012
N14160 X140.549 Y153.003 Z-9.043
N14165 X140.548 Y153.236 Z-9.092
N14170 X140.546 Y153.465 Z-9.159
N14175 X140.545 Y153.688 Z-9.245
N14180 X140.543 Y153.905 Z-9.349
N14185 X140.542 Y154.114 Z-9.471
N14190 X140.541 Y154.313 Z-9.61
N14195 X140.539 Y154.501 Z-9.765
N14200 X140.538 Y154.677 Z-9.936
N14205 X140.537 Y154.839 Z-10.122
N14210 X140.536 Y154.987 Z-10.322
N14215 X140.535 Y155.119 Z-10.537
N14220 Y155.234 Z-10.765
N14225 X140.534 Y155.331 Z-11.008
N14230 Y155.409 Z-11.268
N14235 X140.533 Y155.463 Z-11.527
N14240 X140.475 Y164.538 Z-11.52
N14245 X140.474 Y164.602 Z-11.225
N14250 Y164.67 Z-11.005
N14255 X140.473 Y164.757 Z-10.785
N14260 Y164.864 Z-10.568
N14265 X140.472 Y164.989 Z-10.358
N14270 X140.471 Y165.133 Z-10.157
N14275 X140.47 Y165.294 Z-9.966
N14280 X140.469 Y165.473 Z-9.789
N14285 X140.467 Y165.666 Z-9.626
N14290 X140.466 Y165.875 Z-9.479
N14295 X140.465 Y166.096 Z-9.349
N14300 X140.463 Y166.328 Z-9.238
N14305 X140.462 Y166.57 Z-9.148
N14310 X140.46 Y166.82 Z-9.078
N14315 X140.458 Y167.076 Z-9.03
N14320 X140.457 Y167.336 Z-9.004
N14325 X140.45 Y168.439 Z-9.
N14330 X140.399 Y176.218
N14335 X140.41 Y176.486
N14340 X140.441 Y176.752
N14345 X140.493 Y177.015
N14350 X140.566 Y177.273 Z-9.001
N14355 X140.66 Y177.527 Z-9.009
N14360 X140.758 Y177.744 Z-9.026
N14365 X140.87 Y177.951 Z-9.054
N14370 X140.995 Y178.148 Z-9.094
N14375 X141.132 Y178.335 Z-9.149
N14380 X141.278 Y178.509 Z-9.22
N14385 X141.355 Y178.591 Z-9.262
N14390 X141.432 Y178.669 Z-9.307
N14395 X141.512 Y178.745 Z-9.358
N14400 X141.612 Y178.833 Z-9.428
N14405 X141.819 Y178.995 Z-9.438
N14410 X142.019 Y179.129 Z-9.446
N14415 X142.252 Y179.262 Z-9.452
N14420 X142.495 Y179.375 Z-9.455
N14425 X142.746 Y179.47 Z-9.457
N14430 X143.004 Y179.544 Z-9.456
N14435 X143.266 Y179.598 Z-9.452
N14440 X143.382 Y179.616 Z-9.45
N14445 X143.532 Y179.632 Z-9.361
N14450 X143.719 Y179.643 Z-9.269
N14455 X144.05 Y179.646 Z-9.142
N14460 X144.345 Y179.648 Z-9.055
N14465 X144.744 Y179.65 Z-8.971
N14470 X145.183 Y179.653 Z-8.918
N14475 X145.609 Y179.656 Z-8.902
N14480 X145.979 Y179.658 Z-8.915
N14485 X146.45 Y179.661 Z-8.956
N14490 X147.151 Y179.666 Z-9.065
N14495 X147.499 Y179.668 Z-9.134
N14500 X148.188 Y179.672 Z-9.307
N14505 X148.64 Y179.675 Z-9.451
N14510 X149.166 Y179.679 Z-9.649
N14515 X149.626 Y179.682 Z-9.861
N14520 X149.941 Y179.684 Z-10.031
N14525 X150.244 Y179.685 Z-10.222
N14530 X150.534 Y179.687 Z-10.442
N14535 X150.714 Y179.688 Z-10.61
N14540 X150.878 Y179.69 Z-10.801
N14545 X150.948 Z-10.904
N14550 X151.019 Z-11.03
N14555 X151.071 Y179.691 Z-11.153
N14560 X151.097 Z-11.237
N14565 X151.126 Z-11.409
N14570 X151.129 Z-11.591
N14575 X153.152 Y179.704 Z-11.501
N14580 X153.627 Y179.707 Z-11.478
N14585 X154.245 Y179.711 Z-11.483
N14590 X154.891 Y179.715 Z-11.455
N14595 X155.277 Y179.718 Z-11.461
N14600 X155.788 Y179.721 Z-11.473
N14605 X156.233 Y179.724 Z-11.464
N14610 X157.146 Y179.729 Z-11.514
N14615 X157.414 Y179.731 Z-11.513
N14620 X157.867 Y179.734 Z-11.53
N14625 X158.356 Y179.737 Z-11.539
N14630 X158.401 Z-11.317
N14635 X158.464 Y179.738 Z-11.099
N14640 X158.547 Z-10.879
N14645 X158.649 Y179.739 Z-10.662
N14650 X158.771 Y179.74 Z-10.451
N14655 X158.911 Y179.741 Z-10.248
N14660 X159.07 Y179.742 Z-10.055
N14665 X159.245 Y179.743 Z-9.875
N14670 X159.435 Y179.744 Z-9.708
N14675 X159.64 Y179.745 Z-9.557
N14680 X159.858 Y179.747 Z-9.421
N14685 X160.086 Y179.748 Z-9.304
N14690 X160.325 Y179.75 Z-9.204
N14695 X160.571 Y179.751 Z-9.124
N14700 X160.824 Y179.753 Z-9.063
N14705 X161.082 Y179.755 Z-9.022
N14710 X161.343 Y179.756 Z-9.002
N14715 X170.457 Y179.814
N14720 X170.83 Y179.817 Z-9.028
N14725 X173.156 Y179.831 Z-9.277
N14730 X173.574 Y179.834 Z-9.316
N14735 X173.885 Y179.836 Z-9.093
N14740 X174.163 Y179.838 Z-8.934
N14745 X174.455 Y179.84 Z-8.798
N14750 X174.698 Y179.841 Z-8.705
N14755 X174.946 Y179.843 Z-8.631
N14760 X175.33 Y179.845 Z-8.549
N14765 X175.589 Y179.847 Z-8.516
N14770 X175.982 Y179.849 Z-8.497
N14775 X176.346 Y179.852 Z-8.513
N14780 X176.58 Y179.85 Z-8.54
N14785 X176.814 Y179.834 Z-8.577
N14790 X177.044 Y179.803 Z-8.621
N14795 X177.271 Y179.756 Z-8.672
N14800 X177.492 Y179.695 Z-8.729
N14805 X177.708 Y179.619 Z-8.789
N14810 X177.969 Y179.504 Z-8.864
N14815 X178.22 Y179.369 Z-8.94
N14820 X178.412 Y179.245 Z-8.995
N14825 X178.597 Y179.109 Z-9.046
N14830 X178.773 Y178.959 Z-9.091
N14835 X179. Y178.733 Z-9.136
N14840 X179.17 Y178.531 Z-9.155
N14845 X179.354 Y178.271 Z-9.156
N14850 X179.456 Y178.101 Z-9.144
N14855 X179.576 Y177.868 Z-9.114
N14860 X179.676 Y177.628 Z-9.071
N14865 X179.758 Y177.383 Z-9.017
N14870 X179.821 Y177.134 Z-8.955
N14875 X179.864 Y176.883 Z-8.889
N14880 X179.889 Y176.63 Z-8.82
N14885 X179.897 Y176.314 Z-8.736
N14890 X179.899 Y175.931 Z-8.651
N14895 X179.902 Y175.414 Z-8.568
N14900 X179.906 Y174.891 Z-8.518
N14905 X179.909 Y174.363 Z-8.499
N14910 X179.912 Y173.839 Z-8.512
N14915 X179.915 Y173.368 Z-8.55
N14920 X179.918 Y172.9 Z-8.614
N14925 X179.921 Y172.435 Z-8.705
N14930 X179.924 Y171.977 Z-8.824
N14935 X179.927 Y171.526 Z-8.973
N14940 X179.929 Y171.195 Z-9.106
N14945 X179.931 Y170.872 Z-9.258
N14950 X179.933 Y170.558 Z-9.432
N14955 X179.935 Y170.258 Z-9.629
N14960 X179.936 Y169.972 Z-9.854
N14965 X179.938 Y169.794 Z-10.019
N14970 X179.939 Y169.626 Z-10.2
N14975 X179.94 Y169.473 Z-10.396
N14980 Y169.337 Z-10.611
N14985 X179.941 Y169.221 Z-10.849
N14990 X179.942 Y169.168 Z-10.989
N14995 X179.946 Y168.443 Z-10.999
N15000 X179.947 Y168.352 Z-10.777
N15005 Y168.243 Z-10.562
N15010 X179.948 Y168.114 Z-10.354
N15015 X179.949 Y167.966 Z-10.155
N15020 X179.95 Y167.8 Z-9.968
N15025 X179.951 Y167.618 Z-9.794
N15030 X179.953 Y167.421 Z-9.635
N15035 X179.954 Y167.209 Z-9.493
N15040 X179.955 Y166.984 Z-9.37
N15045 X179.957 Y166.748 Z-9.266
N15050 X179.958 Y166.503 Z-9.182
N15055 X179.961 Y166.123 Z-9.088
N15060 X179.963 Y165.736 Z-9.028
N15065 X179.966 Y165.356 Z-9.002
N15070 X180.033 Y154.611 Z-9.001
N15075 X180.036 Y154.212 Z-9.028
N15080 X180.038 Y153.861 Z-9.08
N15085 X180.04 Y153.514 Z-9.161
N15090 X180.041 Y153.287 Z-9.234
N15095 X180.043 Y153.065 Z-9.327
N15100 X180.044 Y152.851 Z-9.437
N15105 X180.045 Y152.646 Z-9.565
N15110 X180.047 Y152.405 Z-9.748
N15115 X180.048 Y152.181 Z-9.953
N15120 X180.049 Y152.015 Z-10.132
N15125 X180.05 Y151.86 Z-10.324
N15130 X180.051 Y151.719 Z-10.529
N15135 X180.052 Y151.593 Z-10.746
N15140 X180.053 Y151.484 Z-10.976
N15145 Y151.391 Z-11.22
N15150 X180.054 Y151.314 Z-11.503
N15155 Y151.304 Z-11.545
N15160 X180.055 Y151.079 Z-11.559
N15165 Z-11.405
N15170 Y151.067 Z-11.229
N15175 X180.056 Y151.043 Z-11.08
N15180 Y150.993 Z-10.889
N15185 Y150.918 Z-10.691
N15190 X180.057 Y150.844 Z-10.538
N15195 X180.058 Y150.72 Z-10.333
N15200 X180.059 Y150.572 Z-10.136
N15205 X180.06 Y150.359 Z-9.904
N15210 X180.061 Y150.122 Z-9.694
N15215 X180.063 Y149.814 Z-9.468
N15220 X180.065 Y149.481 Z-9.268
N15225 X180.068 Y149.133 Z-9.095
N15230 X180.07 Y148.772 Z-8.946
N15235 X180.072 Y148.402 Z-8.82
N15240 X180.075 Y148.023 Z-8.716
N15245 X180.077 Y147.64 Z-8.632
N15250 X180.079 Y147.252 Z-8.569
N15255 X180.083 Y146.73 Z-8.513
N15260 X180.086 Y146.202 Z-8.491
N15265 X180.089 Y145.681 Z-8.501
N15270 X180.092 Y145.208 Z-8.538
N15275 X180.095 Y144.739 Z-8.601
N15280 X180.098 Y144.275 Z-8.692
N15285 X180.101 Y143.816 Z-8.812
N15290 X180.104 Y143.385 Z-8.956
N15295 X180.103 Y143.161 Z-9.043
N15300 X180.088 Y142.942 Z-9.129
N15305 X180.06 Y142.724 Z-9.215
N15310 X180.018 Y142.507 Z-9.298
N15315 X179.962 Y142.293 Z-9.376
N15320 X179.89 Y142.08 Z-9.446
N15325 X179.804 Y141.871 Z-9.505
N15330 X179.703 Y141.664 Z-9.552
N15335 X179.587 Y141.463 Z-9.583
N15340 X179.456 Y141.268 Z-9.596
N15345 X179.301 Y141.069 Z-9.589
N15350 X179.123 Y140.874 Z-9.559
N15355 X178.934 Y140.696 Z-9.509
N15360 X178.735 Y140.535 Z-9.443
N15365 X178.527 Y140.391 Z-9.365
N15370 X178.312 Y140.264 Z-9.279
N15375 X178.09 Y140.154 Z-9.189
N15380 X177.861 Y140.061 Z-9.097
N15385 X177.627 Y139.985 Z-9.006
N15390 X177.387 Y139.925 Z-8.918
N15395 X177.142 Y139.883 Z-8.836
N15400 X176.892 Y139.859 Z-8.762
N15405 X176.708 Y139.853 Z-8.714
N15410 X176.323 Y139.851 Z-8.638
N15415 X175.916 Y139.848 Z-8.595
N15420 X175.604 Y139.846 Z-8.581
N15425 X175.218 Y139.844 Z-8.594
N15430 X174.865 Y139.842 Z-8.633
N15435 X174.516 Y139.839 Z-8.701
N15440 X174.172 Y139.837 Z-8.797
N15445 X174.089 Z-8.823
N15450 X173.834 Y139.835 Z-8.784
N15455 X173.573 Y139.834 Z-8.763
N15460 X173.311 Y139.832 Z-8.758
N15465 X172.925 Y139.829 Z-8.782
N15470 X171.054 Y139.818 Z-8.943
N15475 X170.004 Y139.811 Z-8.997
N15480 X161.158 Y139.756 Z-9.003
N15485 X160.805 Y139.754 Z-9.038
N15490 X160.457 Y139.752 Z-9.111
N15495 X160.116 Y139.75 Z-9.222
N15500 X159.896 Y139.749 Z-9.316
N15505 X159.682 Y139.747 Z-9.428
N15510 X159.477 Y139.746 Z-9.555
N15515 X159.282 Y139.745 Z-9.698
N15520 X159.097 Y139.744 Z-9.857
N15525 X158.924 Y139.743 Z-10.031
N15530 X158.764 Y139.742 Z-10.22
N15535 X158.62 Y139.741 Z-10.424
N15540 X158.491 Y139.74 Z-10.641
N15545 X158.379 Y139.739 Z-10.873
N15550 X158.287 Z-11.121
N15555 X158.214 Y139.738 Z-11.389
N15560 X158.191 Z-11.505
N15565 X157.247 Y139.732 Z-11.503
N15570 X154.922 Y139.718 Z-11.542
N15575 X153.606 Y139.709 Z-11.502
N15580 X152.983 Y139.706 Z-11.463
N15585 X152.964 Z-11.321
N15590 X152.918 Y139.705 Z-11.163
N15595 X152.872 Z-11.058
N15600 X152.821 Z-10.963
N15605 X152.685 Y139.704 Z-10.772
N15610 X152.518 Y139.703 Z-10.593
N15615 X152.329 Y139.702 Z-10.428
N15620 X152.123 Y139.7 Z-10.277
N15625 X151.792 Y139.698 Z-10.074
N15630 X151.447 Y139.696 Z-9.897
N15635 X151.089 Y139.694 Z-9.739
N15640 X150.6 Y139.691 Z-9.554
N15645 X150.101 Y139.688 Z-9.395
N15650 X149.468 Y139.684 Z-9.224
N15655 X148.828 Y139.68 Z-9.08
N15660 X148.053 Y139.675 Z-8.939
N15665 X147.273 Y139.67 Z-8.826
N15670 X146.359 Y139.664 Z-8.727
N15675 X145.077 Y139.657 Z-8.613
N15680 X144.186 Y139.651 Z-8.551
N15685 X143.605 Y139.647 Z-8.559
N15690 X143.253 Y139.645 Z-8.54
N15695 X142.889 Y139.646 Z-8.539
N15700 X142.621 Y139.667 Z-8.542
N15705 X142.356 Y139.709 Z-8.547
N15710 X142.111 Y139.768 Z-8.556
N15715 X141.872 Y139.843 Z-8.566
N15720 X141.628 Y139.941 Z-8.579
N15725 X141.405 Y140.051 Z-8.595
N15730 X141.19 Y140.176 Z-8.612
N15735 X140.974 Y140.325 Z-8.631
N15740 X140.77 Y140.49 Z-8.652
N15745 X140.58 Y140.67 Z-8.674
N15750 X140.404 Y140.864 Z-8.696
N15755 X140.251 Y141.06 Z-8.718
N15760 X140.113 Y141.266 Z-8.741
N15765 X139.984 Y141.494 Z-8.763
N15770 X139.878 Y141.718 Z-8.786
N15775 X139.788 Y141.95 Z-8.806
N15780 X139.712 Y142.201 Z-8.826
N15785 X139.656 Y142.457 Z-8.847
N15790 X139.619 Y142.717 Z-8.865
N15795 X139.604 Y142.946 Z-8.881
N15800 X139.598 Y143.569 Z-8.92
N15805 X139.589 Y145.12 Z-8.999
N15810 X139.578 Y146.936 Z-9.004
N15815 X139.576 Y147.232 Z-9.03
N15820 X139.543 Y152.656 Z-9.039
N15825 X139.541 Y152.891 Z-9.061
N15830 X139.54 Y153.125 Z-9.102
N15835 X139.538 Y153.356 Z-9.162
N15840 X139.537 Y153.582 Z-9.24
N15845 X139.536 Y153.802 Z-9.337
N15850 X139.534 Y154.014 Z-9.452
N15855 X139.533 Y154.217 Z-9.584
N15860 X139.532 Y154.409 Z-9.733
N15865 X139.531 Y154.589 Z-9.899
N15870 X139.53 Y154.757 Z-10.08
N15875 X139.529 Y154.909 Z-10.276
N15880 X139.528 Y155.047 Z-10.486
N15885 X139.527 Y155.167 Z-10.711
N15890 Y155.27 Z-10.949
N15895 X139.526 Y155.354 Z-11.205
N15900 Y155.421 Z-11.506
N15905 Y155.422 Z-11.513
N15910 X139.522 Y155.958 Z-11.526
N15915 X139.505 Y158.834 Z-11.522
N15920 X139.499 Y159.822 Z-11.484
N15925 X139.493 Y160.701 Z-11.479
N15930 X139.489 Y161.437 Z-11.434
N15935 X139.486 Y161.971 Z-11.424
N15940 X139.479 Y162.969 Z-11.352
N15945 X139.478 Y163.218 Z-11.337
N15950 X139.471 Y164.303 Z-11.24
N15955 X139.469 Y164.659 Z-11.197
N15960 X139.468 Y164.755 Z-10.912
N15965 Y164.893 Z-10.615
N15970 X139.467 Y165.016 Z-10.404
N15975 X139.466 Y165.158 Z-10.202
N15980 X139.465 Y165.319 Z-10.011
N15985 X139.464 Y165.496 Z-9.833
N15990 X139.462 Y165.741 Z-9.63
N15995 X139.461 Y166.007 Z-9.452
N16000 X139.459 Y166.231 Z-9.327
N16005 X139.458 Y166.465 Z-9.218
N16010 X139.456 Y166.707 Z-9.127
N16015 X139.455 Y166.956 Z-9.053
N16020 X139.453 Y167.211 Z-8.997
N16025 X139.452 Y167.469 Z-8.96
N16030 X139.45 Y167.731 Z-8.942
N16035 X139.436 Y170.072 Z-8.961
N16040 X139.414 Y173.559 Z-8.965
N16045 X139.408 Y174.632 Z-8.981
N16050 X139.406 Y174.868 Z-9.
N16055 X139.392 Y177.226
N16060 X139.403 Y177.494
N16065 X139.434 Y177.76
N16070 X139.486 Y178.023
N16075 X139.559 Y178.282
N16080 X139.651 Y178.533
N16085 X139.763 Y178.777
N16090 X139.918 Y179.049
N16095 X140.043 Y179.234 Z-9.005
N16100 X140.141 Y179.364 Z-9.016
N16105 X140.294 Y179.542 Z-9.044
N16110 X140.458 Y179.708 Z-9.087
N16115 X140.543 Y179.787 Z-9.115
N16120 X140.63 Y179.861 Z-9.147
N16125 X140.719 Y179.933 Z-9.184
N16130 X140.808 Y180. Z-9.225
N16135 X140.9 Y180.063 Z-9.272
N16140 X140.99 Y180.123 Z-9.322
N16145 X141.083 Y180.179 Z-9.377
N16150 X141.265 Y180.278 Z-9.502
N16155 X141.384 Y180.336 Z-9.589
N16160 X141.627 Y180.437 Z-9.591
N16165 X141.882 Y180.52
N16170 X142.143 Y180.583 Z-9.589
N16175 X142.407 Y180.625 Z-9.585
N16180 X142.675 Y180.647 Z-9.579
N16185 X142.8 Y180.65 Z-9.575
N16190 X143.101 Y180.652 Z-9.353
N16195 X143.324 Y180.653 Z-9.213
N16200 X143.788 Y180.656 Z-8.983
N16205 X144.214 Y180.658 Z-8.827
N16210 X144.655 Y180.661 Z-8.707
N16215 X145.161 Y180.664 Z-8.616
N16220 X145.561 Y180.666 Z-8.575
N16225 X146.119 Y180.67 Z-8.55
N16230 X147.039 Y180.675 Z-8.567
N16235 X147.968 Y180.681 Z-8.641
N16240 X148.868 Y180.686 Z-8.765
N16245 X149.709 Y180.692 Z-8.925
N16250 X150.515 Y180.696 Z-9.113
N16255 X151.199 Y180.701 Z-9.304
N16260 X151.761 Y180.704 Z-9.489
N16265 X152.313 Y180.707 Z-9.702
N16270 X152.746 Y180.71 Z-9.9
N16275 X153.061 Y180.712 Z-10.067
N16280 X153.367 Y180.714 Z-10.256
N16285 X153.657 Y180.716 Z-10.471
N16290 X153.838 Y180.717 Z-10.634
N16295 X154.005 Y180.718 Z-10.819
N16300 X154.085 Z-10.926
N16305 X154.151 Y180.719 Z-11.034
N16310 X154.217 Z-11.171
N16315 X154.261 Z-11.305
N16320 X154.284 Z-11.42
N16325 X155.569 Y180.727 Z-11.341
N16330 X156.357 Y180.732 Z-11.305
N16335 X157.152 Y180.737 Z-11.281
N16340 X157.938 Y180.741 Z-11.268
N16345 X158.105 Y180.742
N16350 X158.173 Y180.743 Z-11.04
N16355 X158.259 Z-10.821
N16360 X158.364 Y180.744 Z-10.604
N16365 X158.489 Y180.745 Z-10.394
N16370 X158.632 Y180.746 Z-10.193
N16375 X158.794 Y180.747 Z-10.003
N16380 X158.972 Y180.748 Z-9.825
N16385 X159.166 Y180.749 Z-9.663
N16390 X159.375 Y180.75 Z-9.516
N16395 X159.596 Y180.752 Z-9.386
N16400 X159.828 Y180.753 Z-9.273
N16405 X160.068 Y180.754 Z-9.179
N16410 X160.317 Y180.756 Z-9.104
N16415 X160.571 Y180.757 Z-9.049
N16420 X160.83 Y180.759 Z-9.015
N16425 X161.14 Y180.761 Z-9.
N16430 X169.724 Y180.813 Z-9.002
N16435 X170.104 Y180.815 Z-9.028
N16440 X172.169 Y180.828 Z-9.25
N16445 X173.339 Y180.835 Z-9.364
N16450 X173.604 Y180.836 Z-9.185
N16455 X173.886 Y180.838 Z-9.03
N16460 X174.121 Y180.84 Z-8.919
N16465 X174.362 Y180.841 Z-8.826
N16470 X174.611 Y180.842 Z-8.754
N16475 X175.01 Y180.845 Z-8.67
N16480 X175.253 Y180.846 Z-8.641
N16485 X175.515 Y180.848 Z-8.632
N16490 X175.901 Y180.85 Z-8.649
N16495 X176.136 Y180.852 Z-8.679
N16500 X176.484 Y180.854 Z-8.756
N16505 X176.824 Y180.856 Z-8.865
N16510 X177.044 Y180.857 Z-8.958
N16515 X177.364 Y180.859 Z-9.127
N16520 X177.612 Y180.857 Z-9.287
N16525 X177.77 Y180.847 Z-9.402
N16530 X177.957 Y180.826 Z-9.551
N16535 X178.136 Y180.796 Z-9.708
N16540 X178.307 Y180.757 Z-9.874
N16545 X178.507 Y180.701 Z-10.094
N16550 X178.618 Y180.664 Z-10.234
N16555 X178.756 Y180.612 Z-10.431
N16560 X178.879 Y180.559 Z-10.642
N16565 X178.936 Y180.533 Z-10.761
N16570 X178.983 Y180.51 Z-10.875
N16575 X179.03 Y180.487 Z-11.017
N16580 X179.062 Y180.47 Z-11.149
N16585 X179.086 Y180.458 Z-11.315
N16590 X179.092 Y180.455 Z-11.705
N16595 X179.31 Y180.327 Z-11.78
N16600 X179.518 Y180.184 Z-11.849
N16605 X179.716 Y180.025 Z-11.909
N16610 X179.904 Y179.85 Z-11.959
N16615 X180.08 Y179.66 Z-11.999
N16620 X180.241 Y179.455 Z-12.029
N16625 X180.388 Y179.238 Z-12.051
N16630 X180.517 Y179.01 Z-12.063
N16635 X180.631 Y178.767 Z-12.068
N16640 X180.726 Y178.517 Z-12.066
N16645 X180.812 Y178.21 Z-12.053
N16650 X180.847 Y178.039 Z-12.039
N16655 X180.848 Y178.038 Z-11.409
N16660 X180.849 Y178.03 Z-11.312
