%
(REFINO)
(T2  D=1.5 CR=0.75 - ZMIN=-18.15 - BALL END MILL)
N10 G90 G94 G17 G91.1
N15 G21
N20 G53 G0 Z0.
(MORPHED SPIRAL3)
N25 T2 M6
N30 S5000 M3
N35 G54
N40 M8
N45 G0 X163.375 Y157.473
N50 G43 Z15. H2
N55 G0 Z-6.263
N60 G1 Z-18. F1000.
N65 X163.371 Y157.467 Z-18.046
N70 X163.359 Y157.449 Z-18.088
N75 X163.341 Y157.421 Z-18.121
N80 X163.318 Y157.386 Z-18.143
N85 X163.292 Y157.348 Z-18.15
N90 X163.267 Y157.309 Z-18.143
N95 X163.244 Y157.274 Z-18.121
N100 X163.226 Y157.246 Z-18.088
N105 X163.214 Y157.228 Z-18.046
N110 X163.21 Y157.222 Z-18.
N115 Z-8.89
N120 X163.205 Y157.214 Z-8.858
N125 X163.186 Y157.186 Z-8.814
N130 X163.167 Y157.159 Z-8.791
N135 X163.103 Y157.076 Z-8.751
N140 X163.051 Y157.016 Z-8.721
N145 X163.012 Y156.974 Z-8.71
N150 X162.972 Y156.934 Z-8.707
N155 X162.923 Y156.888 Z-8.713
N160 X162.851 Y156.826 Z-8.74
N165 X162.784 Y156.775 Z-8.757
N170 X162.733 Y156.739 Z-8.784
N175 X162.707 Y156.722 Z-8.807
N180 X162.68 Y156.705 Z-8.846
N185 X162.668 Y156.698 Z-8.9
N190 Z-18.
N195 X162.661 Y156.694 Z-18.033
N200 X162.643 Y156.683 Z-18.059
N205 X162.618 Y156.667 Z-18.073
N210 X162.589 Y156.65
N215 X162.564 Y156.634 Z-18.059
N220 X162.546 Y156.623 Z-18.033
N225 X162.539 Y156.62 Z-18.
N230 X162.534 Y156.619 Z-17.971
N235 X162.517 Z-17.947
N240 X162.493 Y156.617 Z-17.931
N245 X162.465 Y156.616 Z-17.925
N250 X157.959 Y156.386
N255 X157.93 Y156.385 Z-17.931
N260 X157.906 Y156.383 Z-17.947
N265 X157.889 Z-17.971
N270 X157.884 Y156.382 Z-18.
N275 X157.876 Y156.384 Z-18.033
N280 X157.856 Y156.387 Z-18.059
N285 X157.826 Y156.393 Z-18.073
N290 X157.793 Y156.398
N295 X157.764 Y156.404 Z-18.059
N300 X157.743 Y156.407 Z-18.033
N305 X157.736 Y156.409 Z-18.
N310 Z-8.896
N315 X157.72 Y156.412 Z-8.807
N320 X157.672 Y156.421 Z-8.716
N325 X157.593 Y156.441 Z-8.636
N330 X157.508 Y156.466 Z-8.567
N335 X157.414 Y156.499 Z-8.514
N340 X157.304 Y156.547 Z-8.471
N345 X157.143 Y156.634 Z-8.426
N350 X157.042 Y156.701 Z-8.405
N355 X156.939 Y156.781 Z-8.395
N360 X156.797 Y156.913 Z-8.387
N365 X156.709 Y157.013 Z-8.391
N370 X156.604 Y157.156 Z-8.41
N375 X156.54 Y157.261 Z-8.428
N380 X156.484 Y157.37 Z-8.458
N385 X156.421 Y157.525 Z-8.518
N390 X156.402 Y157.583 Z-8.546
N395 X156.384 Y157.642 Z-8.58
N400 X156.372 Y157.69 Z-8.616
N405 X156.361 Y157.738 Z-8.662
N410 X156.353 Y157.778 Z-8.711
N415 X156.346 Y157.818 Z-8.788
N420 X156.343 Y157.838 Z-8.898
N425 Z-18.
N430 X156.341 Y157.845 Z-18.033
N435 X156.338 Y157.866 Z-18.059
N440 X156.334 Y157.896 Z-18.073
N445 X156.329 Y157.929
N450 X156.324 Y157.958 Z-18.059
N455 X156.321 Y157.979 Z-18.033
N460 X156.32 Y157.986 Z-18.
N465 Y157.992 Z-17.971
N470 Y158.008 Z-17.947
N475 X156.319 Y158.033 Z-17.931
N480 Y158.061 Z-17.925
N485 X156.26 Y161.777
N490 Y161.805 Z-17.931
N495 X156.259 Y161.83 Z-17.947
N500 Y161.846 Z-17.971
N505 Y161.852 Z-18.
N510 Y161.859 Z-18.033
N515 Y161.88 Z-18.059
N520 X156.258 Y161.91 Z-18.073
N525 X156.257 Y161.943
N530 Y161.974 Z-18.059
N535 Y161.994 Z-18.033
N540 X156.256 Y162.002 Z-18.
N545 Z-8.897
N550 Y162.007 Z-8.84
N555 Y162.033 Z-8.75
N560 X156.255 Y162.089 Z-8.653
N565 X156.257 Y162.167 Z-8.569
N570 X156.264 Y162.266 Z-8.49
N575 X156.277 Y162.362 Z-8.433
N580 X156.3 Y162.477 Z-8.383
N585 X156.342 Y162.627 Z-8.337
N590 X156.396 Y162.77 Z-8.3
N595 X156.449 Y162.88 Z-8.281
N600 X156.549 Y163.048 Z-8.261
N605 X156.618 Y163.143 Z-8.252
N610 X156.734 Y163.277 Z-8.249
N615 X156.864 Y163.398 Z-8.248
N620 X156.969 Y163.48 Z-8.254
N625 X157.121 Y163.578 Z-8.269
N630 X157.231 Y163.635 Z-8.282
N635 X157.344 Y163.684 Z-8.303
N640 X157.508 Y163.739 Z-8.345
N645 X157.632 Y163.768 Z-8.384
N650 X157.741 Y163.787 Z-8.432
N655 X157.845 Y163.797 Z-8.496
N660 X157.94 Y163.802 Z-8.57
N665 X157.99 Z-8.618
N670 X158.039 Y163.803 Z-8.677
N675 X158.09 Y163.804 Z-8.769
N680 X158.108 Z-8.823
N685 X158.117 Y163.805 Z-8.9
N690 Z-18.
N695 X158.12 Y163.798 Z-18.033
N700 X158.129 Y163.779 Z-18.059
N705 X158.143 Y163.752 Z-18.073
N710 X158.158 Y163.723
N715 X158.171 Y163.696 Z-18.059
N720 X158.181 Y163.677 Z-18.033
N725 X158.184 Y163.67 Z-18.
N730 X158.19 Y163.671 Z-17.971
N735 X158.206 Y163.672 Z-17.947
N740 X158.23 Y163.673 Z-17.931
N745 X158.259 Y163.675 Z-17.925
N750 X161.533 Y163.858
N755 X161.561 Y163.859 Z-17.931
N760 X161.586 Y163.861 Z-17.947
N765 X161.602 Z-17.971
N770 X161.608 Y163.862 Z-18.
N775 X161.615 Z-18.033
N780 X161.636 Z-18.059
N785 X161.666 Y163.863 Z-18.073
N790 X161.699
N795 X161.729 Y163.864 Z-18.059
N800 X161.75 Z-18.033
N805 X161.758 Z-18.
N810 Z-8.893
N815 X161.772 Y163.865 Z-8.804
N820 X161.82 Z-8.702
N825 X161.892 Y163.866 Z-8.614
N830 X162.028 Y163.869 Z-8.491
N835 X162.183 Y163.871 Z-8.391
N840 X162.27 Y163.87 Z-8.349
N845 X162.391 Y163.862 Z-8.305
N850 X162.508 Y163.846 Z-8.269
N855 X162.625 Y163.821 Z-8.242
N860 X162.749 Y163.785 Z-8.221
N865 X162.931 Y163.713 Z-8.198
N870 X163.094 Y163.627 Z-8.186
N875 X163.26 Y163.514 Z-8.178
N880 X163.411 Y163.382 Z-8.175
N885 X163.547 Y163.233 Z-8.177
N890 X163.629 Y163.122 Z-8.179
N895 X163.7 Y163.009 Z-8.185
N900 X163.783 Y162.844 Z-8.198
N905 X163.831 Y162.722 Z-8.211
N910 X163.88 Y162.553 Z-8.238
N915 X163.904 Y162.433 Z-8.263
N920 X163.92 Y162.313 Z-8.296
N925 X163.927 Y162.183 Z-8.344
N930 X163.93 Y161.956 Z-8.458
N935 X163.933 Y161.806 Z-8.559
N940 X163.934 Y161.715 Z-8.646
N945 X163.935 Y161.64 Z-8.753
N950 X163.936 Y161.607 Z-8.825
N955 Y161.596 Z-8.9
N960 Z-18.
N965 Y161.588 Z-18.033
N970 Y161.568 Z-18.059
N975 X163.937 Y161.538 Z-18.073
N980 Y161.504
N985 X163.938 Y161.474 Z-18.059
N990 Y161.453 Z-18.033
N995 Y161.446 Z-18.
N1000 Y161.44 Z-17.971
N1005 X163.939 Y161.424 Z-17.947
N1010 Y161.4 Z-17.931
N1015 Y161.371 Z-17.925
N1020 X163.981 Y158.761
N1025 Y158.732 Z-17.931
N1030 X163.982 Y158.707 Z-17.947
N1035 Y158.691 Z-17.971
N1040 Y158.686 Z-18.
N1045 Y158.678 Z-18.033
N1050 X163.983 Y158.657 Z-18.059
N1055 Y158.627 Z-18.073
N1060 X163.984 Y158.594
N1065 Y158.564 Z-18.059
N1070 Y158.543 Z-18.033
N1075 X163.985 Y158.536 Z-18.
N1080 Z-8.9
N1085 Y158.52 Z-8.81
N1090 Y158.487 Z-8.739
N1095 X163.986 Y158.444 Z-8.68
N1100 X163.988 Y158.33 Z-8.575
N1105 X163.99 Y158.217 Z-8.487
N1110 X163.992 Y158.05 Z-8.393
N1115 X163.997 Y157.763 Z-8.276
N1120 Y157.599 Z-8.228
N1125 X163.984 Y157.439 Z-8.198
N1130 X163.955 Y157.28 Z-8.176
N1135 X163.921 Y157.154 Z-8.165
N1140 X163.85 Y156.966 Z-8.156
N1145 X163.758 Y156.787 Z-8.152
N1150 X163.635 Y156.607 Z-8.15
N1155 X163.514 Y156.469
N1160 X163.366 Y156.333
N1165 X163.203 Y156.215 Z-8.151
N1170 X163.028 Y156.118 Z-8.154
N1175 X162.842 Y156.041 Z-8.16
N1180 X162.656 Y155.989 Z-8.173
N1185 X162.482 Y155.96 Z-8.196
N1190 X162.311 Y155.948 Z-8.227
N1195 X162.032 Y155.944 Z-8.31
N1200 X161.792 Y155.94 Z-8.399
N1205 X161.529 Y155.936 Z-8.535
N1210 X161.414 Y155.935 Z-8.608
N1215 X161.319 Y155.933 Z-8.691
N1220 X161.279 Z-8.741
N1225 X161.239 Y155.932 Z-8.817
N1230 X161.224 Z-8.9
N1235 Z-18.
N1240 X161.217 Z-18.033
N1245 X161.196 Y155.931 Z-18.059
N1250 X161.166 Z-18.073
N1255 X161.132 Y155.93
N1260 X161.102 Z-18.059
N1265 X161.082 Z-18.033
N1270 X161.074 Y155.929 Z-18.
N1275 X161.068 Z-17.971
N1280 X161.052 Z-17.947
N1285 X161.028 Z-17.931
N1290 X160.999 Y155.928 Z-17.925
N1295 X159.133 Y155.9
N1300 X159.104 Y155.899 Z-17.931
N1305 X159.08 Z-17.947
N1310 X159.064 Z-17.971
N1315 X159.058 Y155.898 Z-18.
N1320 X159.05 Z-18.033
N1325 X159.03 Z-18.059
N1330 X159. Z-18.073
N1335 X158.966 Y155.897
N1340 X158.936 Z-18.059
N1345 X158.915 Y155.896 Z-18.033
N1350 X158.908 Z-18.
N1355 Z-8.895
N1360 X158.887 Z-8.805
N1365 X158.854 Y155.895 Z-8.745
N1370 X158.774 Y155.894 Z-8.658
N1375 X158.675 Y155.893 Z-8.585
N1380 X158.408 Y155.888 Z-8.432
N1385 X158.137 Y155.884 Z-8.324
N1390 X157.869 Y155.88 Z-8.241
N1395 X157.539 Y155.875 Z-8.175
N1400 X157.409 Y155.88 Z-8.161
N1405 X157.221 Y155.905 Z-8.152
N1410 X157.095 Y155.934 Z-8.15
N1415 X156.907 Y155.996
N1420 X156.725 Y156.081
N1425 X156.554 Y156.186
N1430 X156.396 Y156.311
N1435 X156.255 Y156.454
N1440 X156.13 Y156.611
N1445 X156.026 Y156.783
N1450 X155.941 Y156.965
N1455 X155.898 Y157.092
N1460 X155.854 Y157.269 Z-8.151
N1465 X155.829 Y157.449 Z-8.158
N1470 X155.822 Y157.683 Z-8.182
N1475 X155.817 Y158.002 Z-8.244
N1480 X155.812 Y158.33 Z-8.33
N1485 X155.806 Y158.735 Z-8.471
N1490 X155.801 Y159.071 Z-8.617
N1495 X155.799 Y159.226 Z-8.713
N1500 X155.797 Y159.332 Z-8.783
N1505 X155.796 Y159.39 Z-8.839
N1510 Y159.411 Z-8.9
N1515 Z-18.
N1520 X155.803 Y159.412 Z-18.033
N1525 X155.824 Y159.414 Z-18.059
N1530 X155.854 Y159.418 Z-18.073
N1535 X155.887 Y159.423
N1540 X155.917 Y159.427 Z-18.059
N1545 X155.937 Y159.43 Z-18.033
N1550 X155.945 Y159.431 Z-18.
N1555 X155.944 Y159.436 Z-17.971
N1560 X155.941 Y159.452 Z-17.947
N1565 X155.936 Y159.476 Z-17.931
N1570 X155.931 Y159.504 Z-17.925
N1575 X155.796 Y160.247
N1580 X155.791 Y160.275 Z-17.931
N1585 X155.786 Y160.299 Z-17.947
N1590 X155.783 Y160.315 Z-17.971
N1595 X155.782 Y160.321 Z-18.
N1600 Y160.328 Z-18.033
N1605 Y160.349 Z-18.059
N1610 X155.781 Y160.379 Z-18.073
N1615 Y160.412
N1620 X155.78 Y160.443 Z-18.059
N1625 Y160.463 Z-18.033
N1630 Y160.471 Z-18.
N1635 Z-8.896
N1640 Y160.495 Z-8.826
N1645 X155.779 Y160.567 Z-8.755
N1650 X155.776 Y160.716 Z-8.67
N1655 Y160.776 Z-8.64
N1660 X155.773 Y160.939 Z-8.554
N1665 X155.767 Y161.351 Z-8.392
N1670 X155.761 Y161.777 Z-8.264
N1675 X155.755 Y162.149 Z-8.189
N1680 X155.75 Y162.475 Z-8.154
N1685 X155.749 Y162.627 Z-8.15
N1690 X155.765 Y162.826
N1695 X155.805 Y163.023
N1700 X155.868 Y163.214
N1705 X155.952 Y163.396
N1710 X156.057 Y163.567
N1715 X156.181 Y163.725
N1720 X156.323 Y163.867
N1725 X156.481 Y163.992
N1730 X156.652 Y164.097
N1735 X156.834 Y164.182
N1740 X157.025 Y164.245
N1745 X157.222 Y164.285
N1750 X157.355 Y164.298
N1755 X157.626 Y164.304 Z-8.155
N1760 X157.96 Y164.309 Z-8.186
N1765 X158.381 Y164.315 Z-8.257
N1770 X158.912 Y164.323 Z-8.381
N1775 X159.326 Y164.329 Z-8.475
N1780 X159.717 Y164.335 Z-8.535
N1785 X160.109 Y164.34 Z-8.539
N1790 X160.486 Y164.346 Z-8.487
N1795 X160.921 Y164.352 Z-8.389
N1800 X161.536 Y164.361 Z-8.249
N1805 X161.975 Y164.367 Z-8.178
N1810 X162.303 Y164.372 Z-8.152
N1815 X162.711 Y164.378 Z-8.15
N1820 X162.912 Y164.366
N1825 X163.109 Y164.331
N1830 X163.302 Y164.273
N1835 X163.486 Y164.193
N1840 X163.66 Y164.092
N1845 X163.82 Y163.971
N1850 X163.966 Y163.832
N1855 X164.094 Y163.678
N1860 X164.203 Y163.509
N1865 X164.292 Y163.329
N1870 X164.359 Y163.139
N1875 X164.404 Y162.943
N1880 X164.425 Y162.748
N1885 X164.434 Y162.178 Z-8.152
N1890 X164.44 Y161.746 Z-8.185
N1895 X164.45 Y161.032 Z-8.286
N1900 X164.457 Y160.551 Z-8.347
N1905 X164.462 Y160.197 Z-8.373
N1910 X164.467 Y159.798 Z-8.367
N1915 X164.474 Y159.353 Z-8.322
N1920 X164.487 Y158.418 Z-8.189
N1925 X164.492 Y158.024 Z-8.155
N1930 X164.504 Y157.185 Z-8.15
N1935 X164.499 Y157.027
N1940 X164.472 Y156.828
N1945 X164.421 Y156.634
N1950 X164.348 Y156.447
N1955 X164.254 Y156.269
N1960 X164.139 Y156.104
N1965 X164.006 Y155.954
N1970 X163.857 Y155.82
N1975 X163.692 Y155.704
N1980 X163.515 Y155.609
N1985 X163.329 Y155.535
N1990 X163.134 Y155.483
N1995 X162.936 Y155.454
N2000 X162.546 Y155.445
N2005 X161.799 Y155.434 Z-8.156
N2010 X161.208 Y155.426 Z-8.198
N2015 X160.509 Y155.417 Z-8.258
N2020 X160.06 Y155.41 Z-8.271
N2025 X159.632 Y155.405 Z-8.258
N2030 X158.384 Y155.388 Z-8.158
N2035 X157.89 Y155.381 Z-8.15
N2040 X157.035 Y155.369
N2045 X156.835 Y155.381
N2050 X156.637 Y155.416
N2055 X156.444 Y155.474
N2060 X156.26 Y155.555
N2065 X156.087 Y155.656
N2070 X155.926 Y155.777
N2075 X155.781 Y155.916
N2080 X155.653 Y156.071
N2085 X155.544 Y156.24
N2090 X155.456 Y156.42
N2095 X155.389 Y156.61
N2100 X155.345 Y156.806
N2105 X155.325 Y156.999
N2110 X155.305 Y158.411 Z-8.151
N2115 X155.288 Y159.665 Z-8.202
N2120 X155.282 Y160.134 Z-8.203
N2125 X155.275 Y160.664 Z-8.184
N2130 X155.264 Y161.522 Z-8.15
N2135 X155.243 Y163.089
N2140 X155.255 Y163.29
N2145 X155.29 Y163.488
N2150 X155.348 Y163.68
N2155 X155.428 Y163.864
N2160 X155.529 Y164.038
N2165 X155.65 Y164.198
N2170 X155.789 Y164.343
N2175 X155.944 Y164.471
N2180 X156.113 Y164.58
N2185 X156.293 Y164.669
N2190 X156.483 Y164.736
N2195 X156.679 Y164.78
N2200 X156.873 Y164.8
N2205 X158.836 Y164.827 Z-8.151
N2210 X159.975 Y164.842 Z-8.166
N2215 X161.368 Y164.86 Z-8.15
N2220 X163.211 Y164.884
N2225 X163.412 Y164.872
N2230 X163.61 Y164.837
N2235 X163.802 Y164.779
N2240 X163.986 Y164.699
N2245 X164.16 Y164.597
N2250 X164.321 Y164.477
N2255 X164.466 Y164.338
N2260 X164.594 Y164.183
N2265 X164.704 Y164.015
N2270 X164.792 Y163.835
N2275 X164.86 Y163.645
N2280 X164.904 Y163.449
N2285 X164.925 Y163.253
N2290 X164.958 Y160.777
N2295 X165.01 Y156.66
N2300 X164.998 Y156.459
N2305 X164.963 Y156.261
N2310 X164.905 Y156.069
N2315 X164.825 Y155.885
N2320 X164.723 Y155.711
N2325 X164.602 Y155.551
N2330 X164.463 Y155.406
N2335 X164.309 Y155.278
N2340 X164.14 Y155.169
N2345 X163.959 Y155.08
N2350 X163.77 Y155.014
N2355 X163.574 Y154.97
N2360 X163.38 Y154.949
N2365 X160.571 Y154.913
N2370 X156.538 Y154.864
N2375 X156.337 Y154.876
N2380 X156.14 Y154.911
N2385 X155.947 Y154.969
N2390 X155.763 Y155.049
N2395 X155.589 Y155.15
N2400 X155.429 Y155.271
N2405 X155.283 Y155.409
N2410 X155.155 Y155.564
N2415 X155.046 Y155.733
N2420 X154.957 Y155.913
N2425 X154.89 Y156.102
N2430 X154.845 Y156.298
N2435 X154.824 Y156.495
N2440 X154.794 Y158.904
N2445 X154.737 Y163.591
N2450 X154.749 Y163.791
N2455 X154.784 Y163.989
N2460 X154.843 Y164.182
N2465 X154.923 Y164.366
N2470 X155.024 Y164.539
N2475 X155.145 Y164.7
N2480 X155.284 Y164.845
N2485 X155.439 Y164.973
N2490 X155.608 Y165.082
N2495 X155.788 Y165.17
N2500 X155.978 Y165.237
N2505 X156.174 Y165.281
N2510 X156.368 Y165.301
N2515 X159.11 Y165.335
N2520 X163.717 Y165.389
N2525 X163.917 Y165.377
N2530 X164.115 Y165.342
N2535 X164.307 Y165.284
N2540 X164.492 Y165.203
N2545 X164.665 Y165.102
N2550 X164.826 Y164.981
N2555 X164.971 Y164.842
N2560 X165.099 Y164.687
N2565 X165.207 Y164.518
N2570 X165.296 Y164.338
N2575 X165.362 Y164.148
N2580 X165.406 Y163.952
N2585 X165.427 Y163.758
N2590 X165.459 Y161.016
N2595 X165.515 Y156.161
N2600 X165.503 Y155.96
N2605 X165.468 Y155.763
N2610 X165.41 Y155.57
N2615 X165.33 Y155.386
N2620 X165.229 Y155.212
N2625 X165.108 Y155.052
N2630 X164.969 Y154.906
N2635 X164.814 Y154.778
N2640 X164.646 Y154.669
N2645 X164.465 Y154.58
N2650 X164.276 Y154.513
N2655 X164.08 Y154.469
N2660 X163.883 Y154.448
N2665 X161.407 Y154.419
N2670 X156.037 Y154.359
N2675 X155.836 Y154.371
N2680 X155.638 Y154.406
N2685 X155.446 Y154.464
N2690 X155.262 Y154.544
N2695 X155.088 Y154.645
N2700 X154.927 Y154.766
N2705 X154.782 Y154.904
N2710 X154.654 Y155.059
N2715 X154.544 Y155.228
N2720 X154.456 Y155.408
N2725 X154.389 Y155.597
N2730 X154.344 Y155.793
N2735 X154.323 Y155.991
N2740 X154.296 Y158.334
N2745 X154.233 Y164.089
N2750 X154.244 Y164.29
N2755 X154.279 Y164.488
N2760 X154.338 Y164.68
N2765 X154.418 Y164.864
N2770 X154.519 Y165.038
N2775 X154.639 Y165.198
N2780 X154.778 Y165.344
N2785 X154.933 Y165.472
N2790 X155.102 Y165.581
N2795 X155.282 Y165.67
N2800 X155.471 Y165.737
N2805 X155.667 Y165.782
N2810 X155.865 Y165.803
N2815 X158.208 Y165.829
N2820 X164.217 Y165.894
N2825 X164.417 Y165.882
N2830 X164.615 Y165.847
N2835 X164.808 Y165.789
N2840 X164.992 Y165.708
N2845 X165.165 Y165.607
N2850 X165.326 Y165.486
N2855 X165.471 Y165.347
N2860 X165.599 Y165.193
N2865 X165.708 Y165.024
N2870 X165.797 Y164.843
N2875 X165.863 Y164.654
N2880 X165.907 Y164.458
N2885 X165.928 Y164.262
N2890 X165.956 Y161.719
N2895 X166.02 Y155.66
N2900 X166.008 Y155.459
N2905 X165.973 Y155.261
N2910 X165.915 Y155.069
N2915 X165.835 Y154.885
N2920 X165.734 Y154.711
N2925 X165.613 Y154.55
N2930 X165.474 Y154.405
N2935 X165.319 Y154.277
N2940 X165.151 Y154.168
N2945 X164.97 Y154.079
N2950 X164.781 Y154.012
N2955 X164.585 Y153.968
N2960 X164.387 Y153.946
N2965 X162.044 Y153.921
N2970 X155.535 Y153.854
N2975 X155.334 Y153.866
N2980 X155.136 Y153.901
N2985 X154.944 Y153.959
N2990 X154.76 Y154.039
N2995 X154.586 Y154.14
N3000 X154.425 Y154.261
N3005 X154.28 Y154.4
N3010 X154.152 Y154.554
N3015 X154.042 Y154.723
N3020 X153.954 Y154.903
N3025 X153.887 Y155.093
N3030 X153.842 Y155.289
N3035 X153.821 Y155.487
N3040 X153.797 Y157.764
N3045 X153.728 Y164.592
N3050 X153.74 Y164.793
N3055 X153.775 Y164.99
N3060 X153.833 Y165.183
N3065 X153.913 Y165.367
N3070 X154.014 Y165.541
N3075 X154.135 Y165.701
N3080 X154.274 Y165.846
N3085 X154.429 Y165.975
N3090 X154.597 Y166.084
N3095 X154.778 Y166.172
N3100 X154.967 Y166.239
N3105 X155.163 Y166.283
N3110 X155.361 Y166.304
N3115 X157.704 Y166.329
N3120 X164.72 Y166.398
N3125 X164.921 Y166.386
N3130 X165.118 Y166.351
N3135 X165.311 Y166.293
N3140 X165.495 Y166.213
N3145 X165.668 Y166.111
N3150 X165.829 Y165.991
N3155 X165.974 Y165.852
N3160 X166.102 Y165.697
N3165 X166.211 Y165.528
N3170 X166.299 Y165.347
N3175 X166.366 Y165.158
N3180 X166.41 Y164.962
N3185 X166.43 Y164.766
N3190 X166.456 Y162.224
N3195 X166.524 Y155.157
N3200 X166.513 Y154.956
N3205 X166.477 Y154.758
N3210 X166.419 Y154.566
N3215 X166.339 Y154.382
N3220 X166.238 Y154.208
N3225 X166.117 Y154.048
N3230 X165.978 Y153.902
N3235 X165.824 Y153.774
N3240 X165.655 Y153.665
N3245 X165.474 Y153.577
N3250 X165.285 Y153.51
N3255 X165.089 Y153.466
N3260 X164.891 Y153.445
N3265 X162.548 Y153.421
N3270 X155.032 Y153.35
N3275 X154.832 Y153.361
N3280 X154.634 Y153.397
N3285 X154.442 Y153.455
N3290 X154.257 Y153.535
N3295 X154.084 Y153.636
N3300 X153.923 Y153.757
N3305 X153.778 Y153.895
N3310 X153.65 Y154.05
N3315 X153.54 Y154.219
N3320 X153.452 Y154.399
N3325 X153.385 Y154.588
N3330 X153.34 Y154.784
N3335 X153.319 Y154.983
N3340 X153.297 Y157.26
N3345 X153.223 Y165.093
N3350 X153.235 Y165.294
N3355 X153.27 Y165.492
N3360 X153.328 Y165.684
N3365 X153.409 Y165.868
N3370 X153.51 Y166.042
N3375 X153.631 Y166.202
N3380 X153.769 Y166.348
N3385 X153.924 Y166.476
N3390 X154.093 Y166.585
N3395 X154.273 Y166.674
N3400 X154.462 Y166.741
N3405 X154.658 Y166.785
N3410 X154.857 Y166.806
N3415 X157.134 Y166.828
N3420 X165.22 Y166.903
N3425 X165.421 Y166.891
N3430 X165.619 Y166.856
N3435 X165.811 Y166.798
N3440 X165.995 Y166.717
N3445 X166.169 Y166.616
N3450 X166.329 Y166.495
N3455 X166.475 Y166.356
N3460 X166.603 Y166.202
N3465 X166.712 Y166.033
N3470 X166.8 Y165.852
N3475 X166.867 Y165.663
N3480 X166.911 Y165.467
N3485 X166.932 Y165.269
N3490 X166.954 Y162.926
N3495 X167.029 Y154.652
N3500 X167.017 Y154.451
N3505 X166.982 Y154.253
N3510 X166.923 Y154.061
N3515 X166.843 Y153.877
N3520 X166.742 Y153.703
N3525 X166.621 Y153.543
N3530 X166.482 Y153.398
N3535 X166.327 Y153.27
N3540 X166.158 Y153.161
N3545 X165.977 Y153.073
N3550 X165.788 Y153.007
N3555 X165.592 Y152.963
N3560 X165.396 Y152.943
N3565 X162.853 Y152.919
N3570 X154.529 Y152.845
N3575 X154.329 Y152.857
N3580 X154.131 Y152.892
N3585 X153.939 Y152.95
N3590 X153.754 Y153.031
N3595 X153.581 Y153.132
N3600 X153.42 Y153.253
N3605 X153.275 Y153.391
N3610 X153.147 Y153.546
N3615 X153.038 Y153.715
N3620 X152.949 Y153.895
N3625 X152.882 Y154.085
N3630 X152.838 Y154.281
N3635 X152.817 Y154.479
N3640 X152.796 Y156.756
N3645 X152.719 Y165.594
N3650 X152.731 Y165.795
N3655 X152.766 Y165.993
N3660 X152.824 Y166.185
N3665 X152.904 Y166.369
N3670 X153.005 Y166.543
N3675 X153.126 Y166.704
N3680 X153.265 Y166.849
N3685 X153.419 Y166.977
N3690 X153.588 Y167.086
N3695 X153.768 Y167.175
N3700 X153.958 Y167.242
N3705 X154.154 Y167.287
N3710 X154.353 Y167.308
N3715 X156.431 Y167.327
N3720 X165.719 Y167.407
N3725 X165.919 Y167.395
N3730 X166.117 Y167.36
N3735 X166.309 Y167.302
N3740 X166.494 Y167.222
N3745 X166.667 Y167.121
N3750 X166.828 Y167.
N3755 X166.974 Y166.862
N3760 X167.102 Y166.707
N3765 X167.211 Y166.539
N3770 X167.3 Y166.358
N3775 X167.368 Y166.169
N3780 X167.412 Y165.973
N3785 X167.434 Y165.773
N3790 X167.452 Y163.828
N3795 X167.533 Y154.149
N3800 X167.521 Y153.948
N3805 X167.486 Y153.75
N3810 X167.428 Y153.558
N3815 X167.347 Y153.374
N3820 X167.246 Y153.2
N3825 X167.125 Y153.04
N3830 X166.986 Y152.895
N3835 X166.831 Y152.767
N3840 X166.662 Y152.659
N3845 X166.481 Y152.57
N3850 X166.291 Y152.504
N3855 X166.095 Y152.46
N3860 X165.9 Y152.44
N3865 X163.29 Y152.418
N3870 X154.03 Y152.341
N3875 X153.829 Y152.353
N3880 X153.631 Y152.388
N3885 X153.439 Y152.446
N3890 X153.255 Y152.526
N3895 X153.081 Y152.627
N3900 X152.92 Y152.748
N3905 X152.775 Y152.886
N3910 X152.646 Y153.041
N3915 X152.537 Y153.21
N3920 X152.448 Y153.39
N3925 X152.381 Y153.579
N3930 X152.336 Y153.775
N3935 X152.315 Y153.975
N3940 X152.297 Y155.987
N3945 X152.215 Y166.098
N3950 X152.227 Y166.298
N3955 X152.262 Y166.496
N3960 X152.32 Y166.689
N3965 X152.4 Y166.873
N3970 X152.501 Y167.046
N3975 X152.622 Y167.207
N3980 X152.761 Y167.352
N3985 X152.916 Y167.48
N3990 X153.084 Y167.59
N3995 X153.265 Y167.678
N4000 X153.454 Y167.745
N4005 X153.65 Y167.79
N4010 X153.85 Y167.811
N4015 X155.994 Y167.829
N4020 X166.226 Y167.911
N4025 X166.427 Y167.899
N4030 X166.625 Y167.864
N4035 X166.817 Y167.806
N4040 X167.001 Y167.725
N4045 X167.175 Y167.624
N4050 X167.335 Y167.503
N4055 X167.48 Y167.364
N4060 X167.608 Y167.209
N4065 X167.717 Y167.04
N4070 X167.805 Y166.86
N4075 X167.872 Y166.67
N4080 X167.916 Y166.474
N4085 X167.936 Y166.277
N4090 X167.956 Y163.867
N4095 X168.037 Y153.652
N4100 X168.025 Y153.452
N4105 X167.99 Y153.254
N4110 X167.932 Y153.061
N4115 X167.852 Y152.877
N4120 X167.751 Y152.704
N4125 X167.63 Y152.543
N4130 X167.491 Y152.397
N4135 X167.337 Y152.269
N4140 X167.168 Y152.16
N4145 X166.988 Y152.071
N4150 X166.798 Y152.004
N4155 X166.602 Y151.96
N4160 X166.403 Y151.938
N4165 X164.391 Y151.921
N4170 X153.522 Y151.837
N4175 X153.321 Y151.849
N4180 X153.124 Y151.884
N4185 X152.931 Y151.942
N4190 X152.747 Y152.023
N4195 X152.574 Y152.124
N4200 X152.413 Y152.245
N4205 X152.268 Y152.384
N4210 X152.14 Y152.539
N4215 X152.031 Y152.708
N4220 X151.943 Y152.888
N4225 X151.877 Y153.078
N4230 X151.833 Y153.274
N4235 X151.813 Y153.471
N4240 X151.793 Y155.881
N4245 X151.711 Y166.601
N4250 X151.723 Y166.802
N4255 X151.758 Y167.
N4260 X151.816 Y167.192
N4265 X151.896 Y167.376
N4270 X151.998 Y167.55
N4275 X152.118 Y167.71
N4280 X152.257 Y167.856
N4285 X152.412 Y167.984
N4290 X152.581 Y168.093
N4295 X152.761 Y168.181
N4300 X152.951 Y168.248
N4305 X153.147 Y168.292
N4310 X153.346 Y168.313
N4315 X155.556 Y168.331
N4320 X166.725 Y168.415
N4325 X166.926 Y168.403
N4330 X167.124 Y168.368
N4335 X167.316 Y168.31
N4340 X167.5 Y168.23
N4345 X167.674 Y168.129
N4350 X167.834 Y168.008
N4355 X167.98 Y167.869
N4360 X168.108 Y167.714
N4365 X168.217 Y167.546
N4370 X168.306 Y167.365
N4375 X168.373 Y167.176
N4380 X168.417 Y166.98
N4385 X168.439 Y166.78
N4390 X168.455 Y164.769
N4395 X168.541 Y153.15
N4400 X168.529 Y152.95
N4405 X168.494 Y152.752
N4410 X168.436 Y152.559
N4415 X168.356 Y152.375
N4420 X168.255 Y152.201
N4425 X168.134 Y152.041
N4430 X167.995 Y151.895
N4435 X167.841 Y151.767
N4440 X167.672 Y151.658
N4445 X167.492 Y151.569
N4450 X167.303 Y151.502
N4455 X167.107 Y151.457
N4460 X166.907 Y151.436
N4465 X165.028 Y151.421
N4470 X153.025 Y151.333
N4475 X152.824 Y151.345
N4480 X152.626 Y151.38
N4485 X152.434 Y151.438
N4490 X152.25 Y151.518
N4495 X152.076 Y151.619
N4500 X151.915 Y151.74
N4505 X151.77 Y151.879
N4510 X151.642 Y152.033
N4515 X151.532 Y152.202
N4520 X151.444 Y152.382
N4525 X151.376 Y152.571
N4530 X151.332 Y152.767
N4535 X151.31 Y152.967
N4540 X151.295 Y154.847
N4545 X151.207 Y167.101
N4550 X151.219 Y167.302
N4555 X151.254 Y167.5
N4560 X151.312 Y167.692
N4565 X151.392 Y167.876
N4570 X151.493 Y168.05
N4575 X151.614 Y168.211
N4580 X151.753 Y168.356
N4585 X151.907 Y168.484
N4590 X152.076 Y168.594
N4595 X152.256 Y168.682
N4600 X152.446 Y168.749
N4605 X152.642 Y168.794
N4610 X152.841 Y168.815
N4615 X154.787 Y168.831
N4620 X167.228 Y168.919
N4625 X167.429 Y168.907
N4630 X167.627 Y168.872
N4635 X167.819 Y168.814
N4640 X168.003 Y168.734
N4645 X168.177 Y168.632
N4650 X168.337 Y168.512
N4655 X168.483 Y168.373
N4660 X168.611 Y168.218
N4665 X168.72 Y168.049
N4670 X168.809 Y167.869
N4675 X168.876 Y167.68
N4680 X168.92 Y167.484
N4685 X168.941 Y167.284
N4690 X168.957 Y165.206
N4695 X169.045 Y152.644
N4700 X169.033 Y152.444
N4705 X168.998 Y152.246
N4710 X168.94 Y152.053
N4715 X168.859 Y151.869
N4720 X168.758 Y151.696
N4725 X168.637 Y151.535
N4730 X168.498 Y151.39
N4735 X168.343 Y151.262
N4740 X168.174 Y151.153
N4745 X167.994 Y151.065
N4750 X167.804 Y150.998
N4755 X167.608 Y150.954
N4760 X167.41 Y150.933
N4765 X165.132 Y150.916
N4770 X152.516 Y150.829
N4775 X152.315 Y150.841
N4780 X152.117 Y150.876
N4785 X151.925 Y150.935
N4790 X151.741 Y151.015
N4795 X151.567 Y151.116
N4800 X151.407 Y151.238
N4805 X151.262 Y151.377
N4810 X151.134 Y151.532
N4815 X151.026 Y151.701
N4820 X150.938 Y151.881
N4825 X150.871 Y152.071
N4830 X150.828 Y152.267
N4835 X150.808 Y152.464
N4840 X150.79 Y154.94
N4845 X150.703 Y167.604
N4850 X150.715 Y167.805
N4855 X150.75 Y168.003
N4860 X150.808 Y168.195
N4865 X150.889 Y168.379
N4870 X150.99 Y168.553
N4875 X151.11 Y168.714
N4880 X151.249 Y168.859
N4885 X151.404 Y168.987
N4890 X151.573 Y169.096
N4895 X151.753 Y169.185
N4900 X151.942 Y169.252
N4905 X152.138 Y169.297
N4910 X152.338 Y169.318
N4915 X154.284 Y169.332
N4920 X167.734 Y169.423
N4925 X167.935 Y169.411
N4930 X168.133 Y169.375
N4935 X168.325 Y169.317
N4940 X168.509 Y169.237
N4945 X168.683 Y169.136
N4950 X168.843 Y169.015
N4955 X168.988 Y168.876
N4960 X169.116 Y168.721
N4965 X169.225 Y168.552
N4970 X169.313 Y168.371
N4975 X169.379 Y168.182
N4980 X169.423 Y167.986
N4985 X169.444 Y167.788
N4990 X169.46 Y165.444
N4995 X169.548 Y152.145
N5000 X169.537 Y151.944
N5005 X169.502 Y151.746
N5010 X169.443 Y151.554
N5015 X169.363 Y151.37
N5020 X169.262 Y151.196
N5025 X169.142 Y151.035
N5030 X169.003 Y150.89
N5035 X168.848 Y150.762
N5040 X168.68 Y150.652
N5045 X168.499 Y150.564
N5050 X168.31 Y150.497
N5055 X168.114 Y150.452
N5060 X167.914 Y150.431
N5065 X166.035 Y150.417
N5070 X152.014 Y150.326
N5075 X151.813 Y150.337
N5080 X151.615 Y150.373
N5085 X151.423 Y150.431
N5090 X151.239 Y150.511
N5095 X151.065 Y150.613
N5100 X150.905 Y150.734
N5105 X150.76 Y150.873
N5110 X150.632 Y151.028
N5115 X150.523 Y151.197
N5120 X150.435 Y151.377
N5125 X150.369 Y151.567
N5130 X150.325 Y151.763
N5135 X150.305 Y151.96
N5140 X150.288 Y154.37
N5145 X150.2 Y168.109
N5150 X150.211 Y168.309
N5155 X150.247 Y168.507
N5160 X150.305 Y168.7
N5165 X150.385 Y168.884
N5170 X150.486 Y169.057
N5175 X150.607 Y169.218
N5180 X150.746 Y169.363
N5185 X150.901 Y169.491
N5190 X151.07 Y169.6
N5195 X151.25 Y169.689
N5200 X151.439 Y169.755
N5205 X151.635 Y169.8
N5210 X151.835 Y169.82
N5215 X153.98 Y169.835
N5220 X168.232 Y169.926
N5225 X168.432 Y169.914
N5230 X168.63 Y169.879
N5235 X168.822 Y169.821
N5240 X169.007 Y169.741
N5245 X169.18 Y169.64
N5250 X169.341 Y169.519
N5255 X169.486 Y169.381
N5260 X169.615 Y169.226
N5265 X169.724 Y169.058
N5270 X169.813 Y168.877
N5275 X169.88 Y168.688
N5280 X169.925 Y168.492
N5285 X169.946 Y168.292
N5290 X169.958 Y166.545
N5295 X170.052 Y151.635
N5300 X170.04 Y151.435
N5305 X170.005 Y151.237
N5310 X169.947 Y151.045
N5315 X169.866 Y150.861
N5320 X169.765 Y150.687
N5325 X169.644 Y150.527
N5330 X169.505 Y150.382
N5335 X169.35 Y150.254
N5340 X169.18 Y150.146
N5345 X169. Y150.058
N5350 X168.81 Y149.991
N5355 X168.614 Y149.948
N5360 X168.417 Y149.928
N5365 X165.941 Y149.912
N5370 X151.511 Y149.822
N5375 X151.311 Y149.834
N5380 X151.113 Y149.869
N5385 X150.921 Y149.927
N5390 X150.737 Y150.007
N5395 X150.563 Y150.109
N5400 X150.403 Y150.23
N5405 X150.258 Y150.369
N5410 X150.13 Y150.524
N5415 X150.021 Y150.693
N5420 X149.933 Y150.873
N5425 X149.866 Y151.063
N5430 X149.823 Y151.259
N5435 X149.802 Y151.457
N5440 X149.787 Y153.8
N5445 X149.696 Y168.613
N5450 X149.708 Y168.814
N5455 X149.743 Y169.011
N5460 X149.801 Y169.204
N5465 X149.881 Y169.388
N5470 X149.983 Y169.561
N5475 X150.104 Y169.722
N5480 X150.243 Y169.867
N5485 X150.398 Y169.995
N5490 X150.566 Y170.104
N5495 X150.747 Y170.192
N5500 X150.937 Y170.259
N5505 X151.133 Y170.303
N5510 X151.331 Y170.323
N5515 X153.542 Y170.338
N5520 X168.738 Y170.43
N5525 X168.939 Y170.418
N5530 X169.136 Y170.383
N5535 X169.329 Y170.325
N5540 X169.513 Y170.245
N5545 X169.686 Y170.143
N5550 X169.847 Y170.022
N5555 X169.992 Y169.883
N5560 X170.12 Y169.729
N5565 X170.229 Y169.56
N5570 X170.317 Y169.379
N5575 X170.384 Y169.19
N5580 X170.428 Y168.994
N5585 X170.449 Y168.794
N5590 X170.463 Y166.65
N5595 X170.556 Y151.137
N5600 X170.544 Y150.936
N5605 X170.509 Y150.738
N5610 X170.451 Y150.546
N5615 X170.37 Y150.362
N5620 X170.269 Y150.188
N5625 X170.148 Y150.028
N5630 X170.009 Y149.882
N5635 X169.855 Y149.754
N5640 X169.686 Y149.645
N5645 X169.505 Y149.557
N5650 X169.316 Y149.49
N5655 X169.12 Y149.446
N5660 X168.92 Y149.426
N5665 X166.776 Y149.412
N5670 X151.011 Y149.318
N5675 X150.81 Y149.33
N5680 X150.612 Y149.365
N5685 X150.42 Y149.423
N5690 X150.236 Y149.504
N5695 X150.062 Y149.605
N5700 X149.902 Y149.726
N5705 X149.757 Y149.865
N5710 X149.629 Y150.02
N5715 X149.52 Y150.188
N5720 X149.431 Y150.369
N5725 X149.365 Y150.558
N5730 X149.321 Y150.755
N5735 X149.3 Y150.954
N5740 X149.286 Y153.098
N5745 X149.192 Y169.116
N5750 X149.204 Y169.316
N5755 X149.239 Y169.514
N5760 X149.298 Y169.706
N5765 X149.378 Y169.891
N5770 X149.479 Y170.064
N5775 X149.6 Y170.225
N5780 X149.739 Y170.37
N5785 X149.894 Y170.498
N5790 X150.063 Y170.607
N5795 X150.243 Y170.695
N5800 X150.433 Y170.761
N5805 X150.629 Y170.805
N5810 X150.828 Y170.826
N5815 X153.039 Y170.84
N5820 X169.243 Y170.934
N5825 X169.443 Y170.922
N5830 X169.641 Y170.886
N5835 X169.833 Y170.828
N5840 X170.017 Y170.748
N5845 X170.191 Y170.647
N5850 X170.351 Y170.526
N5855 X170.496 Y170.387
N5860 X170.624 Y170.232
N5865 X170.733 Y170.063
N5870 X170.821 Y169.882
N5875 X170.888 Y169.692
N5880 X170.931 Y169.496
N5885 X170.952 Y169.298
N5890 X170.966 Y167.021
N5895 X171.059 Y150.63
N5900 X171.048 Y150.429
N5905 X171.012 Y150.232
N5910 X170.954 Y150.039
N5915 X170.874 Y149.855
N5920 X170.772 Y149.682
N5925 X170.651 Y149.521
N5930 X170.512 Y149.376
N5935 X170.357 Y149.249
N5940 X170.188 Y149.14
N5945 X170.007 Y149.052
N5950 X169.817 Y148.986
N5955 X169.621 Y148.943
N5960 X169.424 Y148.923
N5965 X167.015 Y148.908
N5970 X150.513 Y148.815
N5975 X150.312 Y148.826
N5980 X150.115 Y148.862
N5985 X149.922 Y148.92
N5990 X149.738 Y149.
N5995 X149.564 Y149.101
N6000 X149.403 Y149.221
N6005 X149.258 Y149.36
N6010 X149.13 Y149.514
N6015 X149.02 Y149.683
N6020 X148.931 Y149.863
N6025 X148.864 Y150.052
N6030 X148.819 Y150.248
N6035 X148.797 Y150.448
N6040 X148.787 Y151.997
N6045 X148.689 Y169.615
N6050 X148.701 Y169.816
N6055 X148.736 Y170.014
N6060 X148.794 Y170.206
N6065 X148.874 Y170.39
N6070 X148.975 Y170.564
N6075 X149.096 Y170.725
N6080 X149.235 Y170.87
N6085 X149.389 Y170.998
N6090 X149.558 Y171.107
N6095 X149.738 Y171.196
N6100 X149.928 Y171.263
N6105 X150.124 Y171.307
N6110 X150.324 Y171.328
N6115 X152.137 Y171.34
N6120 X169.744 Y171.437
N6125 X169.945 Y171.425
N6130 X170.142 Y171.39
N6135 X170.335 Y171.332
N6140 X170.519 Y171.252
N6145 X170.692 Y171.15
N6150 X170.853 Y171.029
N6155 X170.998 Y170.891
N6160 X171.126 Y170.736
N6165 X171.235 Y170.567
N6170 X171.323 Y170.386
N6175 X171.39 Y170.197
N6180 X171.434 Y170.001
N6185 X171.454 Y169.801
N6190 X171.467 Y167.657
N6195 X171.563 Y150.127
N6200 X171.551 Y149.926
N6205 X171.516 Y149.728
N6210 X171.458 Y149.536
N6215 X171.377 Y149.352
N6220 X171.276 Y149.179
N6225 X171.155 Y149.018
N6230 X171.015 Y148.873
N6235 X170.86 Y148.746
N6240 X170.691 Y148.637
N6245 X170.51 Y148.549
N6250 X170.321 Y148.483
N6255 X170.124 Y148.44
N6260 X169.928 Y148.42
N6265 X167.451 Y148.405
N6270 X150.008 Y148.311
N6275 X149.808 Y148.323
N6280 X149.61 Y148.358
N6285 X149.418 Y148.416
N6290 X149.233 Y148.496
N6295 X149.06 Y148.597
N6300 X148.899 Y148.718
N6305 X148.754 Y148.857
N6310 X148.625 Y149.011
N6315 X148.516 Y149.18
N6320 X148.427 Y149.36
N6325 X148.36 Y149.55
N6330 X148.316 Y149.746
N6335 X148.295 Y149.945
N6340 X148.284 Y151.693
N6345 X148.185 Y170.122
N6350 X148.197 Y170.322
N6355 X148.232 Y170.52
N6360 X148.29 Y170.712
N6365 X148.371 Y170.897
N6370 X148.472 Y171.07
N6375 X148.593 Y171.231
N6380 X148.732 Y171.376
N6385 X148.887 Y171.504
N6390 X149.056 Y171.612
N6395 X149.236 Y171.701
N6400 X149.426 Y171.767
N6405 X149.622 Y171.811
N6410 X149.821 Y171.831
N6415 X152.032 Y171.844
N6420 X170.252 Y171.941
N6425 X170.453 Y171.929
N6430 X170.651 Y171.894
N6435 X170.843 Y171.835
N6440 X171.027 Y171.755
N6445 X171.2 Y171.653
N6450 X171.361 Y171.532
N6455 X171.505 Y171.393
N6460 X171.633 Y171.237
N6465 X171.741 Y171.068
N6470 X171.829 Y170.887
N6475 X171.895 Y170.697
N6480 X171.938 Y170.501
N6485 X171.957 Y170.306
N6490 X171.972 Y167.697
N6495 X172.067 Y149.628
N6500 X172.055 Y149.428
N6505 X172.02 Y149.23
N6510 X171.961 Y149.038
N6515 X171.881 Y148.853
N6520 X171.78 Y148.68
N6525 X171.659 Y148.519
N6530 X171.52 Y148.374
N6535 X171.365 Y148.246
N6540 X171.196 Y148.137
N6545 X171.016 Y148.049
N6550 X170.826 Y147.982
N6555 X170.63 Y147.938
N6560 X170.43 Y147.917
N6565 X168.352 Y147.905
N6570 X149.497 Y147.808
N6575 X149.296 Y147.819
N6580 X149.098 Y147.855
N6585 X148.906 Y147.913 Z-8.144
N6590 X148.722 Y147.994 Z-8.137
N6595 X148.549 Y148.095 Z-8.132
N6600 X148.389 Y148.216 Z-8.129
N6605 X148.244 Y148.356 Z-8.126
N6610 X148.116 Y148.511
N6615 X148.008 Y148.68
N6620 X147.92 Y148.861 Z-8.129
N6625 X147.854 Y149.051 Z-8.132
N6630 X147.811 Y149.247 Z-8.137
N6635 X147.791 Y149.443 Z-8.143
N6640 X147.786 Y150.243 Z-8.15
N6645 X147.683 Y170.347 Z-8.146
N6650 Y170.69 Z-8.133
N6655 X147.703 Y170.89 Z-8.127
N6660 X147.746 Y171.086 Z-8.122
N6665 X147.811 Y171.276 Z-8.118
N6670 X147.899 Y171.457 Z-8.116
N6675 X148.007 Y171.627 Z-8.115
N6680 X148.134 Y171.782 Z-8.116
N6685 X148.278 Y171.922 Z-8.118
N6690 X148.438 Y172.044 Z-8.121
N6695 X148.611 Y172.146 Z-8.126
N6700 X148.795 Y172.227 Z-8.133
N6705 X148.987 Y172.287 Z-8.14
N6710 X149.184 Y172.323 Z-8.149
N6715 X149.386 Y172.336 Z-8.15
N6720 X170.755 Y172.444
N6725 X170.956 Y172.432
N6730 X171.154 Y172.397
N6735 X171.346 Y172.339
N6740 X171.53 Y172.258
N6745 X171.704 Y172.157
N6750 X171.864 Y172.035
N6755 X172.008 Y171.896
N6760 X172.136 Y171.741
N6765 X172.244 Y171.571
N6770 X172.332 Y171.39
N6775 X172.398 Y171.201
N6780 X172.441 Y171.004
N6785 X172.46 Y170.809
N6790 X172.474 Y168.2
N6795 X172.57 Y149.124
N6800 X172.558 Y148.923
N6805 X172.523 Y148.726
N6810 X172.482 Y148.583
N6815 X172.481 Y148.581 Z-6.107
N6820 X172.476 Y148.565 Z-6.04
N6825 X172.465 Y148.533 Z-5.973
N6830 X172.44 Y148.471 Z-5.892
N6835 X172.415 Y148.413 Z-5.841
N6840 X172.368 Y148.317 Z-5.781
N6845 X172.308 Y148.215 Z-5.739
N6850 X172.238 Y148.11 Z-5.711
N6855 X172.162 Y148.014 Z-5.691
N6860 X172.077 Y147.922 Z-5.682
N6865 X171.98 Y147.831 Z-5.686
N6870 X171.882 Y147.752 Z-5.702
N6875 X171.787 Y147.686 Z-5.73
N6880 X171.69 Y147.628 Z-5.772
N6885 X171.596 Y147.58 Z-5.832
N6890 X171.549 Y147.558 Z-5.878
N6895 X171.5 Y147.537 Z-5.954
N6900 X171.475 Y147.528 Z-6.016
N6905 X171.462 Y147.523 Z-6.072
N6910 X171.455 Y147.52 Z-6.149
N6915 Z-8.15
N6920 X171.263 Y147.461
N6925 X171.066 Y147.425
N6930 X170.867 Y147.413
N6935 X149.423 Y147.306 Z-8.147
N6940 X149.003 Y147.304 Z-8.126
N6945 X148.802 Y147.316 Z-8.116
N6950 X148.605 Y147.351 Z-8.108
N6955 X148.412 Y147.409 Z-8.1
N6960 X148.228 Y147.489 Z-8.094
N6965 X148.054 Y147.59 Z-8.089
N6970 X147.894 Y147.711 Z-8.085
N6975 X147.748 Y147.85 Z-8.083
N6980 X147.62 Y148.004 Z-8.082
N6985 X147.511 Y148.173 Z-8.083
N6990 X147.422 Y148.353 Z-8.085
N6995 X147.355 Y148.543 Z-8.088
N7000 X147.31 Y148.738 Z-8.093
N7005 X147.289 Y148.938 Z-8.099
N7010 X147.28 Y150.419 Z-8.15
N7015 X147.185 Y169.652 Z-8.146
N7020 X147.178 Y171.13 Z-8.091
N7025 X147.19 Y171.331 Z-8.085
N7030 X147.225 Y171.529 Z-8.079
N7035 X147.284 Y171.721 Z-8.075
N7040 X147.364 Y171.905 Z-8.072
N7045 X147.466 Y172.079 Z-8.071
N7050 X147.587 Y172.239
N7055 X147.726 Y172.384 Z-8.073
N7060 X147.881 Y172.511 Z-8.076
N7065 X148.05 Y172.62 Z-8.081
N7070 X148.231 Y172.708 Z-8.087
N7075 X148.421 Y172.774 Z-8.094
N7080 X148.617 Y172.817 Z-8.102
N7085 X148.814 Y172.837 Z-8.111
N7090 X149.682 Y172.842 Z-8.15
N7095 X171.252 Y172.948
N7100 X171.329 Y172.946
N7105 X171.332 Z-6.077
N7110 X171.352 Y172.945 Z-5.963
N7115 X171.386 Y172.942 Z-5.862
N7120 X171.424 Y172.939 Z-5.783
N7125 X171.499 Y172.93 Z-5.673
N7130 X171.581 Y172.916 Z-5.588
N7135 X171.677 Y172.894 Z-5.516
N7140 X171.785 Y172.863 Z-5.46
N7145 X171.899 Y172.821 Z-5.426
N7150 X172.016 Y172.768 Z-5.413
N7155 X172.189 Y172.669 Z-5.405
N7160 X172.35 Y172.549 Z-5.402
N7165 X172.497 Y172.411
N7170 X172.626 Y172.257 Z-5.404
N7175 X172.736 Y172.089 Z-5.408
N7180 X172.824 Y171.914 Z-5.418
N7185 X172.886 Y171.746 Z-5.436
N7190 X172.917 Y171.634 Z-5.456
N7195 X172.94 Y171.52 Z-5.483
N7200 X172.956 Y171.408 Z-5.52
N7205 X172.963 Y171.297 Z-5.568
N7210 X172.964 Y171.193 Z-5.629
N7215 X172.965 Y171.048 Z-5.746
N7220 X172.966 Y170.964 Z-5.846
N7225 Y170.931 Z-5.9
N7230 Y170.897 Z-5.972
N7235 Y170.876 Z-6.041
N7240 Y170.864 Z-6.148
N7245 Z-8.15
N7250 X173.07 Y149.26
N7255 Z-6.133
N7260 Y149.252 Z-6.058
N7265 X173.071 Y149.218 Z-5.949
N7270 Y149.151 Z-5.832
N7275 Y149.043 Z-5.713
N7280 X173.072 Y148.892 Z-5.601
N7285 X173.073 Y148.722 Z-5.516
N7290 Y148.626 Z-5.481
N7295 X173.069 Y148.502 Z-5.447
N7300 X173.055 Y148.374 Z-5.424
N7305 X173.031 Y148.246 Z-5.409
N7310 X172.997 Y148.119 Z-5.402
N7315 X172.948 Y147.981 Z-5.4
N7320 X172.862 Y147.801
N7325 X172.755 Y147.631
N7330 X172.629 Y147.474
N7335 X172.486 Y147.333
N7340 X172.327 Y147.21
N7345 X172.155 Y147.107
N7350 X172.034 Y147.049 Z-5.402
N7355 X171.963 Y147.02 Z-5.412
N7360 X171.853 Y146.983 Z-5.443
N7365 X171.746 Y146.955 Z-5.492
N7370 X171.644 Y146.934 Z-5.56
N7375 X171.552 Y146.921 Z-5.646
N7380 X171.472 Y146.914 Z-5.748
N7385 X171.408 Y146.911 Z-5.87
N7390 X171.365 Y146.91 Z-6.01
N7395 X171.352 Z-6.147
N7400 Z-8.139
N7405 X171.2 Y146.909 Z-8.15
N7410 X149.755 Y146.807 Z-8.146
N7415 X148.492 Y146.801 Z-8.082
N7420 X148.291 Y146.812 Z-8.072
N7425 X148.093 Y146.848 Z-8.063
N7430 X147.901 Y146.906 Z-8.056
N7435 X147.717 Y146.987 Z-8.049
N7440 X147.543 Y147.088 Z-8.044
N7445 X147.383 Y147.209 Z-8.041
N7450 X147.238 Y147.349 Z-8.038
N7455 X147.111 Y147.504
N7460 X147.002 Y147.673
N7465 X146.915 Y147.854 Z-8.041
N7470 X146.849 Y148.044 Z-8.044
N7475 X146.806 Y148.24 Z-8.049
N7480 X146.786 Y148.436 Z-8.056
N7485 X146.773 Y150.845 Z-8.143
N7490 X146.769 Y151.649 Z-8.15
N7495 X146.688 Y168.939 Z-8.147
N7500 X146.675 Y171.631 Z-8.047
N7505 X146.687 Y171.831 Z-8.041
N7510 X146.722 Y172.029 Z-8.035
N7515 X146.78 Y172.222 Z-8.031
N7520 X146.86 Y172.406 Z-8.028
N7525 X146.962 Y172.579 Z-8.027
N7530 X147.083 Y172.74
N7535 X147.222 Y172.885 Z-8.029
N7540 X147.377 Y173.012 Z-8.032
N7545 X147.546 Y173.121 Z-8.037
N7550 X147.726 Y173.209 Z-8.043
N7555 X147.916 Y173.276 Z-8.05
N7560 X148.112 Y173.319 Z-8.058
N7565 X148.311 Y173.34 Z-8.067
N7570 X150.053 Y173.349 Z-8.15
N7575 X170.559 Y173.446 Z-8.145
N7580 X171.405 Y173.449 Z-8.129
N7585 X171.451 Y173.45 Z-7.928
N7590 X171.456 Z-7.385
N7595 X171.465 Z-7.321
N7600 X171.469 Z-6.104
N7605 X171.478 Z-6.029
N7610 X171.517 Z-5.889
N7615 X171.591 Z-5.747
N7620 X171.665 Y173.451 Z-5.654
N7625 X171.753 Z-5.572
N7630 X171.857 Y173.448 Z-5.503
N7635 X171.97 Y173.437 Z-5.45
N7640 X172.092 Y173.417 Z-5.414
N7645 X172.217 Y173.387 Z-5.4
N7650 X172.423 Y173.315
N7655 X172.603 Y173.225
N7660 X172.772 Y173.116
N7665 X172.926 Y172.987
N7670 X173.064 Y172.841
N7675 X173.184 Y172.68
N7680 X173.285 Y172.506
N7685 X173.364 Y172.322
N7690 X173.422 Y172.129
N7695 X173.456 Y171.931
N7700 X173.467 Y171.745
N7705 X173.469 Y171.297 Z-5.405
N7710 X173.47 Y171.062 Z-5.438
N7715 X173.471 Y170.89 Z-5.485
N7720 X173.472 Y170.669 Z-5.576
N7725 X173.473 Y170.513 Z-5.671
N7730 Y170.418 Z-5.751
N7735 X173.474 Y170.333 Z-5.847
N7740 Y170.298 Z-5.9
N7745 Y170.263 Z-5.97
N7750 Y170.241 Z-6.038
N7755 Y170.227 Z-6.147
N7760 Z-8.15
N7765 X173.569 Y149.897
N7770 Y149.896 Z-6.125
N7775 Y149.888 Z-6.059
N7780 Y149.854 Z-5.954
N7785 Y149.809 Z-5.871
N7790 X173.57 Y149.721 Z-5.763
N7795 Y149.58 Z-5.647
N7800 X173.571 Y149.413 Z-5.554
N7805 X173.572 Y149.234 Z-5.484
N7810 X173.573 Y148.981 Z-5.423
N7815 X173.574 Y148.786 Z-5.402
N7820 X173.577 Y148.124 Z-5.4
N7825 X173.565 Y147.923
N7830 X173.53 Y147.725
N7835 X173.472 Y147.533
N7840 X173.392 Y147.349
N7845 X173.291 Y147.175
N7850 X173.17 Y147.014
N7855 X173.032 Y146.869
N7860 X172.877 Y146.741
N7865 X172.708 Y146.631
N7870 X172.528 Y146.542
N7875 X172.344 Y146.477
N7880 X172.214 Y146.444 Z-5.404
N7885 X172.097 Y146.424 Z-5.425
N7890 X171.984 Y146.412 Z-5.463
N7895 X171.868 Y146.407 Z-5.524
N7900 X171.768 Z-5.598
N7905 X171.68 Y146.406 Z-5.69
N7910 X171.605 Z-5.8
N7915 X171.548 Z-5.933
N7920 X171.518 Z-6.08
N7925 X171.514 Z-8.021
N7930 X171.178 Y146.404 Z-8.102
N7935 X170.45 Y146.401 Z-8.131
N7940 X170.203 Y146.4 Z-8.143
N7945 X168.796 Y146.393 Z-8.15
N7950 X150.166 Y146.307 Z-8.148
N7955 X147.987 Y146.297 Z-8.038
N7960 X147.787 Y146.309 Z-8.028
N7965 X147.59 Y146.344 Z-8.019
N7970 X147.398 Y146.402 Z-8.012
N7975 X147.213 Y146.483 Z-8.005
N7980 X147.04 Y146.584 Z-8.
N7985 X146.88 Y146.706 Z-7.997
N7990 X146.735 Y146.845 Z-7.995
N7995 X146.607 Y147. Z-7.994
N8000 X146.499 Y147.169 Z-7.995
N8005 X146.411 Y147.35 Z-7.997
N8010 X146.346 Y147.54 Z-8.
N8015 X146.303 Y147.736 Z-8.005
N8020 X146.283 Y147.932 Z-8.012
N8025 X146.271 Y150.408 Z-8.102
N8030 X146.264 Y151.882 Z-8.15
N8035 X146.189 Y168.301 Z-8.145
N8040 X146.171 Y172.136 Z-8.003
N8045 X146.183 Y172.337 Z-7.997
N8050 X146.218 Y172.534 Z-7.991
N8055 X146.277 Y172.727 Z-7.987
N8060 X146.357 Y172.911 Z-7.984
N8065 X146.459 Y173.084 Z-7.983
N8070 X146.58 Y173.245
N8075 X146.719 Y173.389 Z-7.985
N8080 X146.874 Y173.517 Z-7.988
N8085 X147.043 Y173.626 Z-7.993
N8090 X147.224 Y173.713 Z-7.999
N8095 X147.414 Y173.779 Z-8.006
N8100 X147.61 Y173.823 Z-8.014
N8105 X147.807 Y173.843 Z-8.023
N8110 X148.469 Y173.847 Z-8.057
N8115 X150.412 Y173.856 Z-8.15
N8120 X169.042 Y173.94 Z-8.145
N8125 X171.524 Y173.951 Z-8.095
N8130 X171.589 Y173.952 Z-7.791
N8135 X171.599 Z-7.628
N8140 X171.63 Z-7.295
N8145 X171.631 Z-6.15
N8150 X171.635 Z-6.072
N8155 X171.664 Z-5.933
N8160 X171.727 Z-5.791
N8165 X171.792 Z-5.696
N8170 X171.874 Y173.953 Z-5.608
N8175 X171.971 Z-5.533
N8180 X172.081 Y173.954 Z-5.473
N8185 X172.201 Z-5.43
N8190 X172.324 Y173.953 Z-5.406
N8195 X172.418 Y173.947 Z-5.4
N8200 X172.551 Y173.93
N8205 X172.746 Y173.884
N8210 X172.935 Y173.815
N8215 X173.115 Y173.725
N8220 X173.283 Y173.615
N8225 X173.436 Y173.485
N8230 X173.574 Y173.339
N8235 X173.693 Y173.177
N8240 X173.793 Y173.003
N8245 X173.871 Y172.818
N8250 X173.927 Y172.625
N8255 X173.96 Y172.427
N8260 X173.97 Y172.252
N8265 X173.977 Y170.671 Z-5.404
N8270 X173.978 Y170.433 Z-5.434
N8275 X173.979 Y170.203 Z-5.494
N8280 X173.98 Y169.981 Z-5.582
N8285 X173.981 Y169.825 Z-5.672
N8290 Y169.728 Z-5.748
N8295 X173.982 Y169.641 Z-5.839
N8300 Y169.568 Z-5.952
N8305 Y169.529 Z-6.07
N8310 Y169.521 Z-6.15
N8315 Z-8.15
N8320 X174.067 Y150.602
N8325 Y150.598 Z-6.092
N8330 Y150.573 Z-5.993
N8335 Y150.522 Z-5.893
N8340 X174.068 Y150.425 Z-5.774
N8345 Y150.283 Z-5.66
N8350 X174.069 Y150.115 Z-5.567
N8355 X174.07 Y149.935 Z-5.497
N8360 X174.071 Y149.683 Z-5.433
N8365 X174.072 Y149.488 Z-5.407
N8370 X174.074 Y149.12 Z-5.4
N8375 X174.08 Y147.616
N8380 X174.069 Y147.416
N8385 X174.033 Y147.218
N8390 X173.975 Y147.026
N8395 X173.895 Y146.841
N8400 X173.794 Y146.668
N8405 X173.673 Y146.507
N8410 X173.534 Y146.362
N8415 X173.379 Y146.234
N8420 X173.21 Y146.125
N8425 X173.03 Y146.037
N8430 X172.84 Y145.971
N8435 X172.644 Y145.927
N8440 X172.465 Y145.907
N8445 X172.376 Y145.904 Z-5.405
N8450 X172.202 Z-5.443
N8455 X172.09 Y145.903 Z-5.491
N8460 X171.986 Z-5.555
N8465 X171.891 Y145.902 Z-5.637
N8470 X171.809 Z-5.736
N8475 X171.743 Z-5.853
N8480 X171.696 Y145.901 Z-5.994
N8485 X171.678 Z-6.148
N8490 X171.677 Z-7.938
N8495 X171.551 Z-7.977
N8500 X171.223 Y145.899 Z-8.05
N8505 X170.654 Y145.897 Z-8.103
N8510 X168.041 Y145.885 Z-8.15
N8515 X150.55 Y145.807 Z-8.147
N8520 X150.302 Y145.806 Z-8.127
N8525 X150.04 Y145.805 Z-8.123
N8530 X147.492 Y145.794 Z-7.994
N8535 X147.292 Y145.806 Z-7.984
N8540 X147.095 Y145.841 Z-7.976
N8545 X146.902 Y145.899 Z-7.968
N8550 X146.718 Y145.979 Z-7.962
N8555 X146.544 Y146.08 Z-7.957
N8560 X146.384 Y146.201 Z-7.953
N8565 X146.238 Y146.339 Z-7.951
N8570 X146.11 Y146.494 Z-7.95
N8575 X146.001 Y146.663 Z-7.951
N8580 X145.913 Y146.843 Z-7.953
N8585 X145.846 Y147.033 Z-7.956
N8590 X145.801 Y147.229 Z-7.961
N8595 X145.78 Y147.428 Z-7.968
N8600 X145.772 Y149.108 Z-8.029
N8605 X145.756 Y152.526 Z-8.15
N8610 X145.69 Y167.604 Z-8.146
N8615 X145.668 Y172.632 Z-7.96
N8620 X145.68 Y172.833 Z-7.953
N8625 X145.715 Y173.031 Z-7.948
N8630 X145.773 Y173.223 Z-7.943
N8635 X145.853 Y173.407 Z-7.941
N8640 X145.954 Y173.581 Z-7.939
N8645 X146.075 Y173.742 Z-7.94
N8650 X146.214 Y173.887 Z-7.941
N8655 X146.368 Y174.015 Z-7.944
N8660 X146.537 Y174.124 Z-7.949
N8665 X146.717 Y174.213 Z-7.955
N8670 X146.907 Y174.28 Z-7.962
N8675 X147.103 Y174.324 Z-7.97
N8680 X147.303 Y174.345 Z-7.98
N8685 X148.917 Y174.354 Z-8.061
N8690 X150.787 Y174.362 Z-8.15
N8695 X167.473 Y174.435 Z-8.146
N8700 X171.62 Y174.453 Z-8.062
N8705 X171.682 Z-7.895
N8710 X171.721 Z-7.758
N8715 X171.748 Y174.454 Z-7.641
N8720 X171.787 Z-7.398
N8725 X171.794 Z-7.31
N8730 X171.796 Z-6.088
N8735 X171.819 Z-5.961
N8740 X171.874 Z-5.821
N8745 X171.934 Z-5.724
N8750 X172.011 Y174.455 Z-5.633
N8755 X172.104 Z-5.554
N8760 X172.21 Y174.456 Z-5.489
N8765 X172.327 Z-5.441
N8770 X172.452 Y174.457 Z-5.41
N8775 X172.617 Z-5.4
N8780 X172.891 Y174.453
N8785 X173.09 Y174.425
N8790 X173.284 Y174.375
N8795 X173.472 Y174.302
N8800 X173.649 Y174.208
N8805 X173.814 Y174.093
N8810 X173.965 Y173.961
N8815 X174.099 Y173.811
N8820 X174.215 Y173.647
N8825 X174.311 Y173.47
N8830 X174.385 Y173.283
N8835 X174.437 Y173.089
N8840 X174.466 Y172.891
N8845 X174.473 Y172.615
N8850 X174.485 Y169.98 Z-5.404
N8855 X174.486 Y169.739 Z-5.431
N8860 X174.487 Y169.507 Z-5.483
N8865 X174.488 Y169.282 Z-5.558
N8870 X174.489 Y169.12 Z-5.636
N8875 Y168.967 Z-5.737
N8880 X174.49 Y168.875 Z-5.822
N8885 Y168.795 Z-5.929
N8890 Y168.747 Z-6.04
N8895 Y168.731 Z-6.15
N8900 Z-8.15
N8905 X174.565 Y151.389
N8910 Z-6.15
N8915 Y151.373 Z-6.036
N8920 X174.566 Y151.339 Z-5.952
N8925 Y151.306 Z-5.896
N8930 Y151.212 Z-5.786
N8935 X174.567 Y151.068 Z-5.673
N8940 Y150.899 Z-5.581
N8945 X174.568 Y150.719 Z-5.511
N8950 X174.569 Y150.467 Z-5.446
N8955 X174.57 Y150.208 Z-5.408
N8960 X174.572 Y149.878 Z-5.4
N8965 X174.584 Y147.118
N8970 X174.572 Y146.918
N8975 X174.537 Y146.72
N8980 X174.479 Y146.527
N8985 X174.399 Y146.343
N8990 X174.298 Y146.169
N8995 X174.177 Y146.009
N9000 X174.039 Y145.863
N9005 X173.884 Y145.735
N9010 X173.715 Y145.626
N9015 X173.535 Y145.537
N9020 X173.346 Y145.469
N9025 X173.15 Y145.425
N9030 X172.95 Y145.403
N9035 X172.606 Y145.4
N9040 X172.437 Z-5.423
N9045 X172.323 Y145.399 Z-5.459
N9050 X172.214 Z-5.513
N9055 X172.113 Y145.398 Z-5.584
N9060 X172.023 Z-5.672
N9065 X171.946 Y145.397 Z-5.778
N9070 X171.912 Z-5.842
N9075 X171.879 Z-5.924
N9080 X171.847 Z-6.069
N9085 X171.842 Z-6.15
N9090 Z-7.836
N9095 X171.752 Z-7.878
N9100 X171.604 Y145.396 Z-7.933
N9105 X171.467 Y145.395 Z-7.975
N9110 X171.288 Z-8.016
N9115 X171.13 Y145.394 Z-8.043
N9120 X170.869 Y145.393 Z-8.07
N9125 X166.446 Y145.374 Z-8.15
N9130 X150.99 Y145.308 Z-8.147
N9135 X150.876 Y145.307 Z-8.135
N9140 X150.742 Y145.306 Z-8.132
N9145 X150.125 Y145.304 Z-8.08
N9150 X149.688 Y145.302 Z-8.085
N9155 X146.993 Y145.29 Z-7.95
N9160 X146.792 Y145.302 Z-7.941
N9165 X146.594 Y145.337 Z-7.932
N9170 X146.402 Y145.395 Z-7.924
N9175 X146.218 Y145.475 Z-7.918
N9180 X146.044 Y145.576 Z-7.913
N9185 X145.883 Y145.697 Z-7.903
N9190 X145.786 Y145.786 Z-7.89
N9195 X145.695 Y145.883 Z-7.883
N9200 X145.612 Y145.987 Z-7.88
N9205 X145.536 Y146.098 Z-7.882
N9210 X145.47 Y146.215 Z-7.889
N9215 X145.413 Y146.334 Z-7.9
N9220 X145.381 Y146.417 Z-7.91
N9225 X145.339 Y146.544 Z-7.913
N9230 X145.297 Y146.74 Z-7.918
N9235 X145.277 Y146.94 Z-7.924
N9240 X145.263 Y149.882 Z-8.032
N9245 X145.249 Y153.233 Z-8.15
N9250 X145.191 Y166.904 Z-8.146
N9255 X145.165 Y173.132 Z-7.916
N9260 X145.174 Y173.309 Z-7.91
N9265 X145.191 Y173.436 Z-7.883
N9270 X145.236 Y173.624 Z-7.85
N9275 X145.303 Y173.807 Z-7.825
N9280 X145.358 Y173.925 Z-7.814
N9285 X145.425 Y174.042 Z-7.808
N9290 X145.5 Y174.152 Z-7.806
N9295 X145.584 Y174.257 Z-7.81
N9300 X145.718 Y174.395 Z-7.824
N9305 X145.864 Y174.516 Z-7.846
N9310 X146.028 Y174.622 Z-7.876
N9315 X146.084 Y174.654 Z-7.888
N9320 X146.201 Y174.709 Z-7.91
N9325 X146.367 Y174.771 Z-7.917
N9330 X146.562 Y174.82 Z-7.925
N9335 X146.761 Y174.846 Z-7.934
N9340 X147.21 Y174.851 Z-7.956
N9345 X150.992 Y174.867 Z-8.147
N9350 X151.012 Z-8.023
N9355 X151.019 Z-8.002
N9360 X151.025 Y174.868 Z-6.087
N9365 X151.034 Z-6.043
N9370 X151.062 Z-5.961
N9375 X151.12 Z-5.869
N9380 X151.202 Z-5.79
N9385 X151.308 Y174.869 Z-5.733
N9390 X151.37 Z-5.714
N9395 X151.431 Z-5.705
N9400 X151.497 Y174.87
N9405 X151.563 Z-5.714
N9410 X151.678 Z-5.757
N9415 X151.778 Y174.871 Z-5.83
N9420 X151.866 Z-5.935
N9425 X151.917 Z-6.043
N9430 X151.934 Z-6.15
N9435 Z-8.15
N9440 X166.009 Y174.931 Z-8.145
N9445 X171.728 Y174.955 Z-8.033
N9450 X171.819 Z-7.859
N9455 X171.896 Y174.956 Z-7.65
N9460 X171.926 Z-7.526
N9465 X171.957 Z-7.306
N9470 X171.96 Z-6.085
N9475 X171.983 Z-5.958
N9480 X172.039 Z-5.817
N9485 X172.099 Z-5.72
N9490 X172.177 Y174.957 Z-5.63
N9495 X172.271 Z-5.551
N9500 X172.377 Y174.958 Z-5.487
N9505 X172.495 Z-5.439
N9510 X172.62 Y174.959 Z-5.41
N9515 X172.75 Z-5.4
N9520 X173.258 Y174.961
N9525 X173.459 Y174.95
N9530 X173.657 Y174.914
N9535 X173.849 Y174.857
N9540 X174.033 Y174.776
N9545 X174.207 Y174.675
N9550 X174.368 Y174.555
N9555 X174.513 Y174.416
N9560 X174.642 Y174.262
N9565 X174.751 Y174.093
N9570 X174.84 Y173.913
N9575 X174.907 Y173.724
N9580 X174.952 Y173.528
N9585 X174.974 Y173.328
N9590 X174.981 Y171.911
N9595 X174.993 Y169.21 Z-5.403
N9600 X174.994 Y168.964 Z-5.427
N9605 X174.995 Y168.674 Z-5.484
N9610 X174.996 Y168.447 Z-5.553
N9615 X174.997 Y168.229 Z-5.651
N9620 Y168.075 Z-5.75
N9625 X174.998 Y167.981 Z-5.833
N9630 Y167.9 Z-5.935
N9635 Y167.863 Z-6.
N9640 Y167.835 Z-6.084
N9645 Y167.829 Z-6.146
N9650 Y167.826 Z-8.15
N9655 X175.063 Y152.302
N9660 Y152.298 Z-6.1
N9665 Y152.281 Z-6.033
N9670 X175.064 Y152.225 Z-5.924
N9675 Y152.168 Z-5.855
N9680 X175.065 Y152.025 Z-5.735
N9685 Y151.875 Z-5.641
N9690 X175.066 Y151.699 Z-5.561
N9695 X175.067 Y151.451 Z-5.483
N9700 X175.068 Y151.195 Z-5.432
N9705 X175.069 Y150.934 Z-5.404
N9710 X175.073 Y150.043 Z-5.4
N9715 X175.087 Y146.616
N9720 X175.075 Y146.415
N9725 X175.04 Y146.218
N9730 X174.982 Y146.025
N9735 X174.902 Y145.841
N9740 X174.801 Y145.667
N9745 X174.681 Y145.506
N9750 X174.542 Y145.361
N9755 X174.388 Y145.233
N9760 X174.219 Y145.123
N9765 X174.039 Y145.034
N9770 X173.85 Y144.967
N9775 X173.654 Y144.922
N9780 X173.454 Y144.901
N9785 X172.793 Y144.896
N9790 X172.659 Z-5.411
N9795 X172.487 Y144.895 Z-5.459
N9800 X172.378 Y144.894 Z-5.513
N9805 X172.277 Z-5.584
N9810 X172.187 Z-5.672
N9815 X172.11 Y144.893 Z-5.778
N9820 X172.075 Z-5.842
N9825 X172.042 Z-5.924
N9830 X172.011 Z-6.069
N9835 X172.006 Z-6.15
N9840 X172.005 Z-7.744
N9845 X171.875 Y144.892 Z-7.829
N9850 X171.734 Z-7.896
N9855 X171.554 Y144.891 Z-7.96
N9860 X171.301 Y144.89 Z-8.013
N9865 X171.041 Y144.889 Z-8.037
N9870 X164.875 Y144.863 Z-8.15
N9875 X152.542 Y144.812
N9880 X152.538 Z-6.098
N9885 X152.511 Z-6.005
N9890 X152.478 Z-5.941
N9895 X152.408 Z-5.851
N9900 X152.318 Y144.811 Z-5.769
N9905 X152.159 Z-5.665
N9910 X151.985 Y144.81 Z-5.583
N9915 X151.739 Y144.809 Z-5.501
N9920 X151.548 Y144.808 Z-5.459
N9925 X151.417 Y144.807 Z-5.456
N9930 X151.292 Z-5.476
N9935 X151.121 Y144.806 Z-5.533
N9940 X150.959 Z-5.611
N9945 X150.807 Y144.805 Z-5.714
N9950 X150.716 Z-5.801
N9955 X150.637 Y144.804 Z-5.908
N9960 X150.593 Z-6.002
N9965 X150.577 Z-6.06
N9970 X150.568 Z-6.15
N9975 Z-8.009
N9980 X149.718 Y144.8 Z-8.023
N9985 X149.084 Y144.798 Z-8.038
N9990 X146.556 Y144.787 Z-7.907
N9995 X146.367 Y144.791 Z-7.837
N10000 X146.189 Y144.814 Z-7.776
N10005 X146.012 Y144.855 Z-7.72
N10010 X145.833 Y144.917 Z-7.67
N10015 X145.661 Y145. Z-7.627
N10020 X145.497 Y145.103 Z-7.594
N10025 X145.394 Y145.182 Z-7.576
N10030 X145.297 Y145.269 Z-7.564
N10035 X145.205 Y145.365 Z-7.555
N10040 X145.12 Y145.469 Z-7.552
N10045 X145.044 Y145.579 Z-7.553
N10050 X144.976 Y145.694 Z-7.559
N10055 X144.918 Y145.813 Z-7.57
N10060 X144.87 Y145.935 Z-7.585
N10065 X144.816 Y146.122 Z-7.616
N10070 X144.783 Y146.313 Z-7.656
N10075 X144.773 Y146.497 Z-7.703
N10080 X144.77 Y147.258 Z-7.91
N10085 X144.742 Y153.959 Z-8.15
N10090 X144.692 Y166.223 Z-8.146
N10095 X144.665 Y172.609 Z-7.91
N10100 X144.661 Y173.637 Z-7.638
N10105 X144.672 Y173.827 Z-7.591
N10110 X144.704 Y174.017 Z-7.553
N10115 X144.758 Y174.204 Z-7.524
N10120 X144.805 Y174.325 Z-7.51
N10125 X144.863 Y174.443 Z-7.501
N10130 X144.93 Y174.559 Z-7.496
N10135 X145.006 Y174.669
N10140 X145.091 Y174.773 Z-7.501
N10145 X145.183 Y174.869 Z-7.511
N10150 X145.332 Y174.998 Z-7.533
N10155 X145.493 Y175.107 Z-7.564
N10160 X145.664 Y175.198 Z-7.601
N10165 X145.843 Y175.268 Z-7.646
N10170 X146.028 Y175.317 Z-7.698
N10175 X146.214 Y175.345 Z-7.757
N10180 X146.37 Y175.353 Z-7.81
N10185 X146.655 Y175.354 Z-7.91
N10190 X150.121 Y175.368 Z-8.081
N10195 X150.159 Z-8.02
N10200 X150.196 Y175.369 Z-7.947
N10205 X150.257 Z-7.779
N10210 X150.275 Z-7.66
N10215 X150.313 Z-7.459
N10220 X150.328 Z-7.317
N10225 X150.332 Z-6.112
N10230 X150.337 Z-6.07
N10235 X150.361 Z-5.986
N10240 X150.408 Z-5.892
N10245 X150.477 Y175.37 Z-5.8
N10250 X150.564 Z-5.716
N10255 X150.721 Y175.371 Z-5.609
N10260 X150.893 Z-5.527
N10265 X151.078 Y175.372 Z-5.466
N10270 X151.269 Y175.373 Z-5.426
N10275 X151.464 Y175.374 Z-5.406
N10280 X151.72 Y175.375 Z-5.429
N10285 X152.012 Y175.376 Z-5.481
N10290 X152.24 Y175.377 Z-5.545
N10295 X152.461 Y175.378 Z-5.634
N10300 X152.634 Z-5.721
N10305 X152.784 Y175.379 Z-5.829
N10310 X152.872 Z-5.923
N10315 X152.908 Y175.38 Z-5.976
N10320 X152.944 Z-6.059
N10325 X152.957 Z-6.15
N10330 Z-8.15
N10335 X164.485 Y175.427 Z-8.145
N10340 X171.826 Y175.457 Z-7.998
N10345 X171.921 Z-7.878
N10350 X171.97 Z-7.799
N10355 X172.05 Y175.458 Z-7.627
N10360 X172.092 Z-7.483
N10365 X172.118 Z-7.328
N10370 X172.123 Z-6.088
N10375 X172.14 Z-5.984
N10380 X172.194 Z-5.832
N10385 X172.285 Y175.459 Z-5.692
N10390 X172.367 Z-5.605
N10395 X172.465 Z-5.53
N10400 X172.576 Y175.46 Z-5.47
N10405 X172.696 Z-5.428
N10410 X172.823 Y175.461 Z-5.405
N10415 X173.245 Y175.463 Z-5.4
N10420 X173.83
N10425 X174.03 Y175.444
N10430 X174.227 Y175.401
N10435 X174.417 Y175.335
N10440 X174.597 Y175.248
N10445 X174.767 Y175.14
N10450 X174.923 Y175.013
N10455 X175.063 Y174.869
N10460 X175.185 Y174.71
N10465 X175.287 Y174.537
N10470 X175.369 Y174.353
N10475 X175.428 Y174.161
N10480 X175.465 Y173.964
N10485 X175.479 Y173.756
N10490 X175.501 Y168.342 Z-5.403
N10495 X175.502 Y168.032 Z-5.43
N10500 X175.503 Y167.741 Z-5.48
N10505 X175.504 Y167.456 Z-5.56
N10510 X175.505 Y167.235 Z-5.653
N10515 Y167.133 Z-5.722
N10520 X175.506 Y167.044 Z-5.818
N10525 Y166.985 Z-5.92
N10530 Y166.948 Z-6.033
N10535 Y166.935 Z-6.147
N10540 Z-8.15
N10545 X175.562 Y153.109
N10550 Y153.105 Z-6.084
N10555 Y153.08 Z-5.965
N10560 X175.563 Y153.03 Z-5.85
N10565 Y152.975 Z-5.768
N10570 Y152.893 Z-5.684
N10575 X175.564 Y152.793 Z-5.615
N10580 Y152.678 Z-5.565
N10585 X175.565 Y152.428 Z-5.491
N10590 X175.566 Y152.107 Z-5.431
N10595 X175.568 Y151.779 Z-5.403
N10600 X175.569 Y151.378 Z-5.4
N10605 X175.591 Y146.11
N10610 X175.579 Y145.909
N10615 X175.544 Y145.711
N10620 X175.486 Y145.519
N10625 X175.405 Y145.335
N10630 X175.304 Y145.161
N10635 X175.183 Y145.001
N10640 X175.045 Y144.855
N10645 X174.89 Y144.727
N10650 X174.721 Y144.618
N10655 X174.541 Y144.53
N10660 X174.351 Y144.463
N10665 X174.155 Y144.418
N10670 X173.955 Y144.397
N10675 X172.945 Y144.392
N10680 X172.823 Y144.391 Z-5.411
N10685 X172.651 Z-5.459
N10690 X172.542 Y144.39 Z-5.513
N10695 X172.441 Z-5.584
N10700 X172.35 Y144.389 Z-5.672
N10705 X172.274 Z-5.778
N10710 X172.239 Z-5.842
N10715 X172.206 Z-5.924
N10720 X172.174 Z-6.072
N10725 X172.169 Z-7.644
N10730 X172.086 Y144.388 Z-7.723
N10735 X171.983 Z-7.799
N10740 X171.859 Y144.387 Z-7.868
N10745 X171.742 Z-7.918
N10750 X171.62 Z-7.955
N10755 X171.366 Y144.386 Z-7.999
N10760 X163.328 Y144.353 Z-8.15
N10765 X153.667 Y144.314
N10770 Z-6.147
N10775 X153.661 Z-6.088
N10780 X153.644 Z-6.035
N10785 X153.61 Z-5.971
N10790 X153.533 Z-5.878
N10795 X153.439 Z-5.8
N10800 X153.276 Y144.313 Z-5.702
N10805 X153.045 Y144.312 Z-5.597
N10810 X152.804 Y144.311 Z-5.519
N10815 X152.485 Y144.31 Z-5.45
N10820 X152.16 Y144.308 Z-5.411
N10825 X151.826 Y144.307 Z-5.4
N10830 X151.023 Y144.304 Z-5.404
N10835 X150.783 Y144.303 Z-5.432
N10840 X150.553 Y144.302 Z-5.488
N10845 X150.385 Y144.301 Z-5.551
N10850 X150.224 Z-5.635
N10855 X150.078 Y144.3 Z-5.744
N10860 X149.991 Z-5.836
N10865 X149.92 Y144.299 Z-5.95
N10870 X149.881 Z-6.069
N10875 X149.874 Z-6.149
N10880 X149.873 Z-7.857
N10885 X149.031 Y144.296 Z-7.963
N10890 X148.666 Y144.294 Z-7.99
N10895 X148.425 Y144.293 Z-7.986
N10900 X146.927 Y144.287 Z-7.91
N10905 X145.983 Y144.284 Z-7.552
N10910 X145.798 Y144.294 Z-7.485
N10915 X145.614 Y144.324 Z-7.424
N10920 X145.433 Y144.374 Z-7.369
N10925 X145.256 Y144.445 Z-7.322
N10930 X145.087 Y144.537 Z-7.283
N10935 X144.927 Y144.647 Z-7.253
N10940 X144.828 Y144.731 Z-7.239
N10945 X144.735 Y144.823 Z-7.229
N10950 X144.647 Y144.924 Z-7.223
N10955 X144.567 Y145.032
N10960 X144.496 Y145.146 Z-7.227
N10965 X144.434 Y145.264 Z-7.236
N10970 X144.383 Y145.385 Z-7.25
N10975 X144.341 Y145.508 Z-7.268
N10980 X144.296 Y145.697 Z-7.303
N10985 X144.274 Y145.875 Z-7.344
N10990 X144.27 Y145.99 Z-7.373
N10995 X144.262 Y147.956 Z-7.91
N11000 X144.235 Y154.65 Z-8.15
N11005 X144.192 Y165.507 Z-8.147
N11010 X144.167 Y171.94 Z-7.905
N11015 X144.158 Y174.145 Z-7.321
N11020 X144.168 Y174.335 Z-7.276
N11025 X144.201 Y174.526 Z-7.24
N11030 X144.255 Y174.712 Z-7.212
N11035 X144.303 Y174.834 Z-7.198
N11040 X144.361 Y174.953 Z-7.19
N11045 X144.428 Y175.068 Z-7.186
N11050 X144.505 Y175.178
N11055 X144.59 Y175.282 Z-7.192
N11060 X144.682 Y175.378 Z-7.201
N11065 X144.832 Y175.506 Z-7.224
N11070 X144.993 Y175.615 Z-7.255
N11075 X145.165 Y175.704 Z-7.295
N11080 X145.343 Y175.773 Z-7.341
N11085 X145.528 Y175.821 Z-7.393
N11090 X145.714 Y175.849 Z-7.452
N11095 X145.862 Y175.856 Z-7.502
N11100 X147.023 Y175.86 Z-7.91
N11105 X149.229 Y175.869 Z-8.018
N11110 X149.289 Z-7.98
N11115 X149.362 Y175.87 Z-7.921
N11120 X149.473 Z-7.784
N11125 X149.533 Z-7.681
N11130 X149.577 Z-7.575
N11135 X149.625 Y175.871 Z-7.402
N11140 X149.64 Z-7.3
N11145 X149.644 Z-6.085
N11150 X149.677 Z-5.968
N11155 X149.727 Z-5.877
N11160 X149.798 Z-5.788
N11165 X149.934 Y175.872 Z-5.669
N11170 X150.099 Y175.873 Z-5.572
N11175 X150.277 Z-5.499
N11180 X150.465 Y175.874 Z-5.447
N11185 X150.723 Y175.875 Z-5.408
N11190 X150.922 Y175.876 Z-5.4
N11195 X152.455 Y175.882 Z-5.405
N11200 X152.82 Y175.883 Z-5.438
N11205 X153.168 Y175.885 Z-5.502
N11210 X153.454 Y175.886 Z-5.577
N11215 X153.678 Y175.887 Z-5.66
N11220 X153.838 Z-5.739
N11225 X153.99 Y175.888 Z-5.842
N11230 X154.097 Z-5.935
N11235 X154.136 Y175.889 Z-5.985
N11240 X154.176 Z-6.061
N11245 X154.192 Z-6.15
N11250 Z-8.15
N11255 X162.906 Y175.923 Z-8.146
N11260 X171.91 Y175.959 Z-7.969
N11265 X172.05 Z-7.846
N11270 X172.126 Y175.96 Z-7.749
N11275 X172.211 Z-7.595
N11280 X172.254 Z-7.47
N11285 X172.283 Z-7.319
N11290 X172.288 Z-6.066
N11295 X172.317 Z-5.933
N11300 X172.379 Y175.961 Z-5.791
N11305 X172.445 Z-5.695
N11310 X172.527 Z-5.608
N11315 X172.624 Y175.962 Z-5.533
N11320 X172.734 Z-5.473
N11325 X172.854 Y175.963 Z-5.429
N11330 X172.98 Z-5.405
N11335 X173.274 Y175.964 Z-5.4
N11340 X174.272 Y175.968
N11345 X174.473 Y175.956
N11350 X174.671 Y175.921
N11355 X174.863 Y175.863
N11360 X175.047 Y175.782
N11365 X175.221 Y175.681
N11370 X175.381 Y175.56
N11375 X175.526 Y175.421
N11380 X175.654 Y175.266
N11385 X175.762 Y175.097
N11390 X175.85 Y174.916
N11395 X175.916 Y174.726
N11400 X175.96 Y174.53
N11405 X175.98 Y174.331
N11410 X175.99 Y172.121
N11415 X176.008 Y167.43 Z-5.403
N11420 X176.009 Y167.308 Z-5.425
N11425 Y167.194 Z-5.465
N11430 X176.01 Y167.087 Z-5.524
N11435 Y166.989 Z-5.601
N11440 Y166.903 Z-5.696
N11445 X176.011 Y166.833 Z-5.808
N11450 Y166.786 Z-5.92
N11455 Y166.758 Z-6.038
N11460 Y166.75 Z-6.15
N11465 Z-8.126
N11470 X176.012 Y166.551 Z-8.132
N11475 Y166.476 Z-8.144
N11480 X176.064 Y153.273 Z-8.145
N11485 Y153.254 Z-7.982
N11490 Y153.248 Z-6.093
N11495 Y153.223 Z-5.949
N11500 Y153.161 Z-5.796
N11505 X176.065 Y153.065 Z-5.657
N11510 Y152.979 Z-5.573
N11515 Y152.878 Z-5.502
N11520 X176.066 Y152.764 Z-5.448
N11525 Y152.641 Z-5.413
N11530 X176.067 Y152.485 Z-5.4
N11535 X176.094 Y145.6
N11540 X176.082 Y145.399
N11545 X176.047 Y145.201
N11550 X175.989 Y145.009
N11555 X175.908 Y144.825
N11560 X175.806 Y144.652
N11565 X175.685 Y144.491
N11570 X175.546 Y144.347
N11575 X175.391 Y144.219
N11580 X175.222 Y144.111
N11585 X175.041 Y144.023
N11590 X174.851 Y143.957
N11595 X174.655 Y143.914
N11600 X174.458 Y143.894
N11605 X173.121 Y143.888
N11610 X172.987 Y143.887 Z-5.411
N11615 X172.815 Z-5.459
N11620 X172.706 Y143.886 Z-5.513
N11625 X172.604 Z-5.584
N11630 X172.514 Y143.885 Z-5.672
N11635 X172.437 Z-5.778
N11640 X172.403 Z-5.842
N11645 X172.37 Z-5.924
N11650 X172.338 Z-6.072
N11655 X172.33 Z-7.542
N11660 X172.265 Y143.884 Z-7.639
N11665 X172.173 Z-7.734
N11670 X172.083 Z-7.8
N11675 X171.971 Y143.883 Z-7.862
N11680 X171.852 Z-7.91
N11685 X171.729 Y143.882 Z-7.944
N11690 X171.601 Z-7.965
N11695 X161.754 Y143.844 Z-8.15
N11700 X155.073 Y143.818
N11705 X155.069 Z-6.109
N11710 X155.052 Y143.817 Z-6.055
N11715 X155.019 Z-5.997
N11720 X154.939 Z-5.912
N11725 X154.84 Z-5.839
N11730 X154.627 Y143.816 Z-5.721
N11735 X154.387 Y143.815 Z-5.624
N11740 X154.073 Y143.814 Z-5.535
N11745 X153.622 Y143.812 Z-5.449
N11750 X153.231 Y143.81 Z-5.409
N11755 X152.79 Y143.809 Z-5.4
N11760 X150.378 Y143.799 Z-5.402
N11765 X150.147 Y143.798 Z-5.423
N11770 X149.915 Y143.797 Z-5.471
N11775 X149.69 Z-5.551
N11780 X149.53 Y143.796 Z-5.635
N11785 X149.383 Y143.795 Z-5.744
N11790 X149.297 Z-5.836
N11795 X149.225 Z-5.951
N11800 X149.186 Z-6.069
N11805 X149.179 Z-6.15
N11810 Z-7.709
N11815 X148.79 Y143.793 Z-7.826
N11820 X148.422 Y143.792 Z-7.908
N11825 X148.162 Y143.791 Z-7.942
N11830 X148.031 Y143.79 Z-7.948
N11835 X147.291 Y143.787 Z-7.91
N11840 X145.472 Y143.78 Z-7.221
N11845 X145.294 Y143.79 Z-7.156
N11850 X145.116 Y143.818 Z-7.097
N11855 X144.934 Y143.867 Z-7.041
N11860 X144.757 Y143.937 Z-6.994
N11865 X144.587 Y144.027 Z-6.954
N11870 X144.428 Y144.137 Z-6.924
N11875 X144.328 Y144.221 Z-6.91
N11880 X144.234 Y144.312 Z-6.901
N11885 X144.146 Y144.413 Z-6.896
N11890 X144.066 Y144.521
N11895 X143.995 Y144.634 Z-6.901
N11900 X143.932 Y144.753 Z-6.911
N11905 X143.881 Y144.873 Z-6.925
N11910 X143.821 Y145.059 Z-6.954
N11915 X143.783 Y145.249 Z-6.992
N11920 X143.77 Y145.376 Z-7.023
N11925 X143.767 Y145.478 Z-7.049
N11930 X143.755 Y148.644 Z-7.91
N11935 X143.729 Y155.339 Z-8.15
N11940 X143.692 Y164.781 Z-8.145
N11945 X143.668 Y171.226 Z-7.91
N11950 X143.665 Y171.86 Z-7.742
N11955 X143.655 Y174.502 Z-7.047
N11960 X143.656 Y174.72 Z-6.992
N11965 X143.673 Y174.911 Z-6.95
N11970 X143.71 Y175.088 Z-6.918
N11975 X143.747 Y175.212 Z-6.901
N11980 X143.816 Y175.381 Z-6.884
N11985 X143.877 Y175.499 Z-6.877
N11990 X143.948 Y175.613 Z-6.874
N11995 X144.028 Y175.721 Z-6.876
N12000 X144.116 Y175.822 Z-6.883
N12005 X144.211 Y175.915 Z-6.895
N12010 X144.357 Y176.035 Z-6.92
N12015 X144.515 Y176.136 Z-6.951
N12020 X144.688 Y176.222 Z-6.992
N12025 X144.856 Y176.283 Z-7.037
N12030 X145.04 Y176.329 Z-7.092
N12035 X145.227 Y176.354 Z-7.151
N12040 X145.35 Y176.359 Z-7.193
N12045 X147.39 Y176.367 Z-7.91
N12050 X148.274 Y176.37 Z-7.954
N12055 X148.402 Z-7.922
N12060 X148.514 Y176.371 Z-7.881
N12065 X148.669 Z-7.786
N12070 X148.774 Y176.372 Z-7.686
N12075 X148.845 Z-7.593
N12080 X148.899 Z-7.488
N12085 X148.931 Z-7.399
N12090 X148.949 Y176.373 Z-7.311
N12095 Z-6.15
N12100 X148.954 Z-6.08
N12105 X148.973 Z-6.005
N12110 X149.015 Z-5.912
N12115 X149.079 Z-5.819
N12120 X149.163 Z-5.733
N12125 X149.316 Y176.374 Z-5.622
N12130 X149.487 Y176.375 Z-5.537
N12135 X149.67 Z-5.473
N12140 X149.861 Y176.376 Z-5.43
N12145 X150.121 Y176.377 Z-5.402
N12150 X153.609 Y176.39 Z-5.404
N12155 X154.101 Y176.392 Z-5.441
N12160 X154.51 Y176.394 Z-5.503
N12165 X154.984 Y176.396 Z-5.61
N12170 X155.266 Y176.397 Z-5.7
N12175 X155.484 Y176.398 Z-5.797
N12180 X155.655 Z-5.891
N12185 X155.754 Y176.399 Z-5.967
N12190 X155.797 Z-6.013
N12195 X155.84 Z-6.09
N12200 X155.85 Z-6.149
N12205 Z-8.15
N12210 X161.413 Y176.42 Z-8.145
N12215 X171.988 Y176.461 Z-7.935
N12220 X172.128 Z-7.859
N12225 X172.221 Y176.462 Z-7.78
N12230 X172.322 Z-7.66
N12235 X172.402 Z-7.508
N12240 X172.439 Y176.463 Z-7.367
N12245 X172.446 Z-7.326
N12250 X172.449 Z-6.086
N12255 X172.474 Z-5.952
N12260 X172.532 Z-5.811
N12265 X172.593 Z-5.714
N12270 X172.672 Z-5.625
N12275 X172.767 Y176.464 Z-5.547
N12280 X172.874 Z-5.483
N12285 X172.992 Y176.465 Z-5.437
N12290 X173.118 Z-5.408
N12295 X173.248 Y176.466 Z-5.4
N12300 X173.973 Y176.468 Z-5.396
N12305 X174.836 Y176.47 Z-5.36
N12310 X175.036 Y176.451 Z-5.354
N12315 X175.233 Y176.408 Z-5.351
N12320 X175.423 Y176.342 Z-5.352
N12325 X175.604 Y176.255 Z-5.355
N12330 X175.773 Y176.147 Z-5.362
N12335 X175.929 Y176.02 Z-5.372
N12340 X176.069 Y175.876 Z-5.385
N12345 X176.189 Y175.718 Z-5.4
N12350 X176.292 Y175.547
N12355 X176.374 Y175.363
N12360 X176.434 Y175.171
N12365 X176.471 Y174.974
N12370 X176.485 Y174.763
N12375 X176.512 Y167.445 Z-5.402
N12380 X176.513 Y167.308 Z-5.425
N12385 Y167.194 Z-5.465
N12390 X176.514 Y167.087 Z-5.524
N12395 Y166.989 Z-5.601
N12400 Y166.903 Z-5.696
N12405 X176.515 Y166.833 Z-5.808
N12410 Y166.786 Z-5.92
N12415 Y166.758 Z-6.038
N12420 Y166.75 Z-6.148
N12425 Z-8.017
N12430 X176.516 Y166.386 Z-8.09
N12435 X176.518 Y165.984 Z-8.093
N12440 X176.519 Y165.71 Z-8.116
N12445 X176.566 Y153.333 Z-8.113
N12450 Y153.276 Z-7.867
N12455 Z-7.572
N12460 Y153.25 Z-7.286
N12465 Y153.247 Z-6.089
N12470 Y153.226 Z-5.962
N12475 X176.567 Y153.174 Z-5.821
N12480 Y153.117 Z-5.723
N12485 Y153.042 Z-5.631
N12490 Y152.951 Z-5.551
N12495 X176.568 Y152.846 Z-5.485
N12500 Y152.73 Z-5.436
N12505 X176.569 Y152.604 Z-5.407
N12510 Y152.474 Z-5.4
N12515 X176.597 Y145.102
N12520 X176.585 Y144.901
N12525 X176.55 Y144.704
N12530 X176.492 Y144.511
N12535 X176.412 Y144.327
N12540 X176.33 Y144.183 Z-5.405
N12545 X176.221 Y144.03 Z-5.417
N12550 X176.086 Y143.881 Z-5.427
N12555 X175.935 Y143.749 Z-5.436
N12560 X175.769 Y143.635 Z-5.441
N12565 X175.591 Y143.542 Z-5.443
N12570 X175.403 Y143.47 Z-5.445
N12575 X175.209 Y143.421
N12580 X175.028 Y143.396 Z-5.441
N12585 X174.69 Y143.389 Z-5.431
N12590 X173.551 Y143.385 Z-5.4
N12595 X173.183 Y143.383 Z-5.406
N12600 X173.035 Z-5.439
N12605 X172.922 Y143.382 Z-5.484
N12610 X172.816 Z-5.547
N12615 X172.72 Z-5.627
N12620 X172.636 Y143.381 Z-5.725
N12625 X172.567 Z-5.842
N12630 X172.534 Z-5.924
N12635 X172.502 Z-6.071
N12640 X172.497 Z-6.15
N12645 X172.495 Z-7.424
N12650 X172.438 Z-7.556
N12655 X172.403 Y143.38 Z-7.613
N12660 X172.339 Z-7.689
N12665 X172.268 Z-7.753
N12670 X172.181 Z-7.812
N12675 X172.1 Y143.379 Z-7.856
N12680 X171.95 Z-7.907
N12685 X171.875 Y143.378 Z-7.925
N12690 X171.21 Y143.376 Z-7.944
N12695 X160.152 Y143.334 Z-8.15
N12700 X157.147 Y143.323
N12705 X157.145 Z-6.131
N12710 X157.113 Z-6.063
N12715 X157.075 Z-6.014
N12720 X157.013 Y143.322 Z-5.959
N12725 X156.861 Z-5.869
N12730 X156.622 Y143.321 Z-5.772
N12735 X156.181 Y143.319 Z-5.646
N12740 X155.811 Y143.318 Z-5.562
N12745 X155.176 Y143.315 Z-5.462
N12750 X154.718 Y143.314 Z-5.419
N12755 X154.25 Y143.312 Z-5.4
N12760 X149.633 Y143.294 Z-5.404
N12765 X149.394 Z-5.432
N12770 X149.163 Y143.293 Z-5.488
N12775 X148.996 Y143.292 Z-5.551
N12780 X148.835 Y143.291 Z-5.635
N12785 X148.689 Z-5.744
N12790 X148.602 Z-5.836
N12795 X148.531 Y143.29 Z-5.951
N12800 X148.492 Z-6.069
N12805 X148.485 Z-6.15
N12810 Z-7.536
N12815 X148.39 Z-7.612
N12820 X148.294 Y143.289 Z-7.67
N12825 X148.207 Z-7.717
N12830 X148.11 Z-7.762
N12835 X147.894 Y143.288 Z-7.837
N12840 X147.643 Y143.287 Z-7.89
N12845 X147.614 Z-7.889
N12850 X146.446 Y143.282 Z-7.452
N12855 X144.973 Y143.277 Z-6.892
N12860 X144.789 Y143.287 Z-6.825
N12865 X144.605 Y143.317 Z-6.764
N12870 X144.423 Y143.368 Z-6.709
N12875 X144.246 Y143.439 Z-6.662
N12880 X144.077 Y143.531 Z-6.624
N12885 X143.928 Y143.633 Z-6.596
N12890 X143.828 Y143.717 Z-6.583
N12895 X143.692 Y143.855 Z-6.572
N12900 X143.61 Y143.955 Z-6.569
N12905 X143.533 Y144.065 Z-6.571
N12910 X143.466 Y144.181 Z-6.578
N12915 X143.408 Y144.3 Z-6.59
N12920 X143.36 Y144.421 Z-6.606
N12925 X143.306 Y144.608 Z-6.638
N12930 X143.274 Y144.799 Z-6.679
N12935 X143.264 Y144.979 Z-6.725
N12940 X143.25 Y148.628 Z-7.723
N12945 X143.248 Y149.342 Z-7.91
N12950 X143.223 Y156.044 Z-8.15
N12955 X143.222 Y156.181
N12960 Z-6.15
N12965 Y156.195 Z-6.037
N12970 Y156.211 Z-5.982
N12975 Y156.245 Z-5.91
N12980 Y156.315 Z-5.816
N12985 X143.221 Y156.406 Z-5.741
N12990 Y156.517 Z-5.689
N12995 X143.22 Y156.642 Z-5.667
N13000 Y156.759 Z-5.675
N13005 X143.218 Y157.179 Z-5.773
N13010 X143.217 Y157.461 Z-5.866
N13015 X143.216 Y157.737 Z-5.986
N13020 Y157.797 Z-6.021
N13025 Y157.871 Z-6.087
N13030 Y157.889 Z-6.121
N13035 Y157.894 Z-8.15
N13040 X143.2 Y161.978
N13045 Y161.982 Z-6.122
N13050 Y162.016 Z-6.067
N13055 Y162.049 Z-6.036
N13060 Y162.169 Z-5.964
N13065 X143.199 Y162.347 Z-5.894
N13070 X143.198 Y162.706 Z-5.771
N13075 X143.196 Y163.087 Z-5.678
N13080 X143.195 Y163.281 Z-5.641
N13085 Y163.412 Z-5.643
N13090 Y163.536 Z-5.677
N13095 X143.194 Y163.644 Z-5.738
N13100 Y163.737 Z-5.828
N13105 Y163.801 Z-5.929
N13110 X143.193 Y163.84 Z-6.043
N13115 Y163.851 Z-6.15
N13120 Z-8.15
N13125 Y163.985 Z-8.143
N13130 X143.192 Y164.137 Z-8.132
N13135 Y164.216 Z-8.137
N13140 X143.189 Y164.882 Z-8.1
N13145 X143.188 Y165.15 Z-8.109
N13150 X143.168 Y170.539 Z-7.91
N13155 X143.165 Y171.425 Z-7.668
N13160 X143.151 Y175.072 Z-6.717
N13165 X143.156 Y175.284 Z-6.666
N13170 X143.181 Y175.475 Z-6.628
N13175 X143.228 Y175.663 Z-6.598
N13180 X143.291 Y175.834 Z-6.578
N13185 X143.349 Y175.953 Z-6.57
N13190 X143.416 Y176.069 Z-6.565
N13195 X143.492 Y176.179 Z-6.567
N13200 X143.576 Y176.283 Z-6.573
N13205 X143.668 Y176.379 Z-6.584
N13210 X143.765 Y176.467 Z-6.599
N13215 X143.922 Y176.583 Z-6.628
N13220 X144.09 Y176.68 Z-6.665
N13225 X144.266 Y176.756 Z-6.709
N13230 X144.449 Y176.812 Z-6.76
N13235 X144.635 Y176.847 Z-6.816
N13240 X144.759 Y176.859 Z-6.857
N13245 X144.974 Y176.862 Z-6.932
N13250 X147.205 Y176.87 Z-7.715
N13255 X147.456 Y176.871 Z-7.778
N13260 X147.715 Y176.872 Z-7.815
N13265 X147.765 Y176.873 Z-7.809
N13270 X147.938 Z-7.735
N13275 X147.997 Z-7.697
N13280 X148.095 Y176.874 Z-7.617
N13285 X148.181 Z-7.515
N13290 X148.225 Z-7.43
N13295 X148.258 Z-7.327
N13300 X148.261 Z-6.105
N13305 X148.287 Z-5.992
N13310 X148.332 Y176.875 Z-5.898
N13315 X148.4 Z-5.806
N13320 X148.486 Z-5.721
N13325 X148.641 Y176.876 Z-5.613
N13330 X148.813 Z-5.53
N13335 X148.998 Y176.877 Z-5.469
N13340 X149.188 Y176.878 Z-5.427
N13345 X149.449 Y176.879 Z-5.401
N13350 X155.119 Y176.9 Z-5.404
N13355 X155.759 Y176.902 Z-5.439
N13360 X156.593 Y176.905 Z-5.529
N13365 X157.597 Y176.909 Z-5.683
N13370 X157.945 Y176.91 Z-5.756
N13375 X158.002 Y176.911 Z-5.78
N13380 X158.055 Z-5.812
N13385 X158.107 Z-5.857
N13390 X158.149 Z-5.905
N13395 X158.191 Z-5.976
N13400 X158.215 Z-6.045
N13405 X158.229 Z-6.15
N13410 Z-8.15
N13415 X159.904 Y176.918 Z-8.145
N13420 X171.969 Y176.962 Z-7.906
N13425 X172.056 Y176.963 Z-7.887
N13430 X172.186 Z-7.832
N13435 X172.289 Y176.964 Z-7.769
N13440 X172.393 Z-7.688
N13445 X172.485 Z-7.589
N13450 X172.567 Y176.965 Z-7.455
N13455 X172.61 Z-7.325
N13460 X172.612 Z-6.107
N13465 X172.628 Z-5.993
N13470 X172.681 Z-5.843
N13475 X172.771 Z-5.702
N13480 X172.853 Y176.966 Z-5.613
N13485 X173.002 Z-5.499
N13490 X173.171 Y176.967 Z-5.416
N13495 X173.357 Y176.968 Z-5.365
N13500 X173.619 Y176.969 Z-5.346
N13505 X175.286 Y176.975 Z-5.276
N13510 X175.486 Y176.963 Z-5.269
N13515 X175.684 Y176.928 Z-5.266
N13520 X175.876 Y176.869 Z-5.265
N13525 X176.06 Y176.788 Z-5.268
N13530 X176.233 Y176.686 Z-5.274
N13535 X176.393 Y176.565 Z-5.283
N13540 X176.538 Y176.425 Z-5.294
N13545 X176.664 Y176.271 Z-5.309
N13550 X176.77 Y176.105 Z-5.326
N13555 X176.856 Y175.929 Z-5.345
N13560 X176.921 Y175.744 Z-5.366
N13565 X176.964 Y175.553 Z-5.389
N13570 X176.985 Y175.357 Z-5.4
N13575 X176.992 Y174.006
N13580 X177.016 Y167.436 Z-5.403
N13585 X177.017 Y167.308 Z-5.425
N13590 Y167.194 Z-5.465
N13595 X177.018 Y167.087 Z-5.524
N13600 Y166.989 Z-5.601
N13605 Y166.903 Z-5.696
N13610 X177.019 Y166.833 Z-5.808
N13615 Y166.786 Z-5.92
N13620 Y166.758 Z-6.038
N13625 Y166.75 Z-6.148
N13630 Z-7.937
N13635 Y166.616 Z-7.973
N13640 X177.021 Y166.228 Z-8.047
N13645 X177.022 Y165.981 Z-8.073
N13650 X177.023 Y165.653 Z-8.085
N13655 X177.068 Y153.38 Z-8.079
N13660 Y153.323 Z-7.865
N13665 X177.069 Y153.275 Z-7.59
N13670 Y153.25 Z-7.3
N13675 Z-6.145
N13680 Y153.245 Z-6.066
N13685 Y153.216 Z-5.926
N13690 Y153.154 Z-5.783
N13695 Y153.09 Z-5.686
N13700 X177.07 Y153.008 Z-5.599
N13705 Y152.912 Z-5.523
N13710 Y152.802 Z-5.464
N13715 X177.071 Y152.682 Z-5.422
N13720 Y152.554 Z-5.402
N13725 X177.101 Y144.601 Z-5.4
N13730 X177.093 Y144.443 Z-5.404
N13735 X177.07 Y144.277 Z-5.42
N13740 X177.021 Y144.085 Z-5.432
N13745 X176.95 Y143.898 Z-5.439
N13750 X176.857 Y143.72 Z-5.446
N13755 X176.743 Y143.554 Z-5.452
N13760 X176.611 Y143.402 Z-5.457
N13765 X176.463 Y143.267 Z-5.462
N13770 X176.299 Y143.15 Z-5.465
N13775 X176.123 Y143.053 Z-5.47
N13780 X175.937 Y142.978 Z-5.474
N13785 X175.743 Y142.924 Z-5.476
N13790 X175.545 Y142.894 Z-5.475
N13795 X175.326 Y142.887 Z-5.473
N13800 X173.516 Y142.88 Z-5.449
N13805 X173.335 Y142.879 Z-5.474
N13810 X173.163 Z-5.526
N13815 X173.002 Y142.878 Z-5.608
N13820 X172.88 Z-5.704
N13825 X172.816 Y142.877 Z-5.776
N13830 X172.776 Z-5.836
N13835 X172.738 Z-5.913
N13840 X172.705 Z-6.021
N13845 X172.692 Z-6.147
N13850 X172.685 Z-7.312
N13855 X172.642 Z-7.424
N13860 X172.578 Y142.876 Z-7.522
N13865 X172.53 Z-7.574
N13870 X172.432 Z-7.655
N13875 X172.281 Y142.875 Z-7.743
N13880 X172.123 Z-7.803
N13885 X171.397 Y142.872 Z-7.91
N13890 X158.602 Y142.825 Z-8.15
N13895 X158.47
N13900 X158.468 Z-6.099
N13905 X158.451 Z-5.994
N13910 X158.434 Z-5.937
N13915 X158.401 Z-5.856
N13920 X158.336 Y142.824 Z-5.751
N13925 X158.256 Z-5.664
N13930 X158.16 Z-5.591
N13935 X158.048 Y142.823 Z-5.535
N13940 X157.926 Z-5.501
N13945 X157.265 Y142.82 Z-5.451
N13950 X156.34 Y142.817 Z-5.407
N13955 X155.232 Y142.813 Z-5.4
N13960 X148.939 Y142.79 Z-5.404
N13965 X148.7 Y142.789 Z-5.432
N13970 X148.469 Y142.788 Z-5.488
N13975 X148.301 Z-5.551
N13980 X148.141 Y142.787 Z-5.635
N13985 X147.994 Y142.786 Z-5.744
N13990 X147.908 Z-5.836
N13995 X147.836 Z-5.951
N14000 X147.798 Z-6.07
N14005 X147.79 Z-6.146
N14010 Z-7.343
N14015 X147.753 Z-7.442
N14020 X147.726 Y142.785 Z-7.483
N14025 X147.635 Z-7.55
N14030 X147.54 Z-7.578
N14035 X147.399 Y142.784 Z-7.588
N14040 X147.238 Z-7.572
N14045 X147.021 Y142.783 Z-7.526
N14050 X146.553 Y142.781 Z-7.353
N14055 X144.471 Y142.774 Z-6.563
N14060 X144.287 Y142.784 Z-6.496
N14065 X144.103 Y142.814 Z-6.435
N14070 X143.921 Y142.864 Z-6.38
N14075 X143.745 Y142.936 Z-6.333
N14080 X143.587 Y143.02 Z-6.297
N14085 X143.479 Y143.091 Z-6.275
N14090 X143.376 Y143.171 Z-6.26
N14095 X143.278 Y143.258 Z-6.25
N14100 X143.187 Y143.354 Z-6.244
N14105 X143.12 Y143.436 Z-6.242
N14110 X143.027 Y143.569 Z-6.244
N14115 X142.959 Y143.685 Z-6.252
N14120 X142.902 Y143.804 Z-6.264
N14125 X142.855 Y143.926 Z-6.28
N14130 X142.802 Y144.113 Z-6.312
N14135 X142.771 Y144.304 Z-6.354
N14140 X142.761 Y144.478 Z-6.398
N14145 X142.747 Y148.25 Z-7.44
N14150 X142.741 Y150.04 Z-7.91
N14155 X142.72 Y155.692 Z-8.114
N14160 Y155.761 Z-7.893
N14165 Y155.763 Z-7.52
N14170 Y155.789 Z-7.284
N14175 Y155.792 Z-6.088
N14180 Y155.818 Z-5.963
N14185 Y155.858 Z-5.866
N14190 X142.719 Y155.917 Z-5.769
N14195 Y155.994 Z-5.679
N14200 Y156.087 Z-5.599
N14205 X142.718 Y156.249 Z-5.501
N14210 Y156.429 Z-5.436
N14215 X142.717 Y156.621 Z-5.404
N14220 X142.714 Y157.423 Z-5.425
N14225 X142.708 Y159.088 Z-5.488
N14230 X142.704 Y160.134 Z-5.498
N14235 X142.701 Y161.005 Z-5.481
N14240 X142.693 Y163.077 Z-5.405
N14245 X142.692 Y163.413
N14250 Y163.596 Z-5.438
N14255 X142.691 Y163.765 Z-5.499
N14260 X142.69 Y163.924 Z-5.591
N14265 Y164.019 Z-5.671
N14270 Y164.104 Z-5.768
N14275 X142.689 Y164.174 Z-5.885
N14280 Y164.209 Z-5.979
N14285 Y164.224 Z-6.041
N14290 Y164.234 Z-6.15
N14295 Z-8.02
N14300 X142.688 Y164.685 Z-8.056
N14305 X142.687 Y164.955 Z-8.061
N14310 X142.685 Y165.402 Z-8.075
N14315 X142.669 Y169.851 Z-7.91
N14320 X142.664 Y171.231 Z-7.532
N14325 X142.657 Y173.011 Z-7.07
N14330 X142.65 Y175.146 Z-6.515
N14335 X142.648 Y175.659 Z-6.386
N14340 X142.658 Y175.85 Z-6.343
N14345 X142.691 Y176.04 Z-6.307
N14350 X142.741 Y176.215 Z-6.282
N14355 X142.788 Y176.336 Z-6.27
N14360 X142.845 Y176.456 Z-6.263
N14365 X142.912 Y176.572 Z-6.26
N14370 X142.989 Y176.682 Z-6.262
N14375 X143.073 Y176.786 Z-6.268
N14380 X143.164 Y176.882 Z-6.279
N14385 X143.262 Y176.969 Z-6.294
N14390 X143.418 Y177.086 Z-6.324
N14395 X143.586 Y177.182 Z-6.36
N14400 X143.763 Y177.259 Z-6.404
N14405 X143.946 Y177.315 Z-6.454
N14410 X144.132 Y177.35 Z-6.51
N14415 X144.257 Y177.362 Z-6.551
N14420 X144.347 Y177.365 Z-6.583
N14425 X146.318 Y177.372 Z-7.274
N14430 X146.696 Y177.373 Z-7.372
N14435 X146.955 Y177.374 Z-7.412
N14440 X147.122 Y177.375 Z-7.419
N14445 X147.26 Z-7.412
N14450 X147.383 Y177.376 Z-7.385
N14455 X147.476 Z-7.344
N14460 X147.552 Z-7.275
N14465 X147.578 Z-7.224
N14470 X147.587 Z-7.198
N14475 X147.591 Z-6.745
N14480 X147.616 Z-6.639
N14485 X147.621 Z-6.087
N14490 X147.648 Y177.377 Z-5.961
N14495 X147.686 Z-5.875
N14500 X147.748 Z-5.781
N14505 X147.856 Z-5.676
N14510 X147.987 Y177.378 Z-5.593
N14515 X148.161 Z-5.515
N14520 X148.348 Y177.379 Z-5.458
N14525 X148.539 Y177.38 Z-5.421
N14530 X148.801 Y177.381 Z-5.4
N14535 X157.447 Y177.412 Z-5.403
N14540 X157.849 Y177.413 Z-5.411
N14545 X157.975 Y177.414 Z-5.428
N14550 X158.09 Z-5.464
N14555 X158.198 Y177.415 Z-5.519
N14560 X158.299 Z-5.591
N14565 X158.388 Z-5.681
N14570 X158.463 Y177.416 Z-5.788
N14575 X158.497 Z-5.854
N14580 X158.53 Z-5.939
N14585 X158.558 Z-6.083
N14590 X158.562 Z-8.1
N14595 X158.696 Z-8.096
N14600 X158.879 Y177.417 Z-8.122
N14605 X159.416 Y177.419 Z-8.105
N14610 X159.667 Y177.42 Z-8.12
N14615 X170.412 Y177.459 Z-7.91
N14620 X172.121 Y177.465 Z-7.675
N14625 X172.234 Z-7.638
N14630 X172.355 Y177.466 Z-7.581
N14635 X172.53 Z-7.463
N14640 X172.588 Y177.467 Z-7.415
N14645 X172.695 Z-7.293
N14650 X172.764 Z-7.17
N14655 X172.8 Z-7.058
N14660 X172.804 Z-6.792
N14665 X172.833 Z-6.646
N14670 X172.866 Y177.468 Z-6.53
N14675 X172.872 Z-6.155
N14680 X172.888 Z-5.969
N14685 X172.903 Z-5.901
N14690 X172.934 Z-5.813
N14695 X172.986 Z-5.713
N14700 X173.054 Z-5.617
N14705 X173.186 Y177.469 Z-5.487
N14710 X173.341 Z-5.386
N14715 X173.52 Y177.47 Z-5.314
N14720 X173.709 Y177.471 Z-5.278
N14725 X175.789 Y177.478 Z-5.194
N14730 X175.99 Y177.466 Z-5.187
N14735 X176.187 Y177.431 Z-5.184
N14740 X176.38 Y177.372
N14745 X176.564 Y177.292 Z-5.186
N14750 X176.737 Y177.19 Z-5.191
N14755 X176.897 Y177.068 Z-5.199
N14760 X177.039 Y176.931 Z-5.21
N14765 X177.166 Y176.776 Z-5.223
N14770 X177.266 Y176.622 Z-5.239
N14775 X177.353 Y176.446 Z-5.258
N14780 X177.42 Y176.262 Z-5.279
N14785 X177.465 Y176.071 Z-5.301
N14790 X177.487 Y175.891 Z-5.324
N14795 X177.49 Y175.783 Z-5.337
N14800 X177.492 Y175.262 Z-5.4
N14805 X177.52 Y167.427 Z-5.404
N14810 X177.521 Y167.308 Z-5.425
N14815 Y167.194 Z-5.465
N14820 X177.522 Y167.087 Z-5.524
N14825 Y166.989 Z-5.601
N14830 Y166.903 Z-5.696
N14835 Y166.833 Z-5.808
N14840 X177.523 Y166.786 Z-5.92
N14845 Y166.758 Z-6.038
N14850 Y166.75 Z-6.15
N14855 Y166.749 Z-7.84
N14860 Y166.653 Z-7.881
N14865 Y166.541 Z-7.923
N14870 X177.524 Y166.412 Z-7.963
N14875 X177.525 Y166.248 Z-8.
N14880 Y165.999 Z-8.041
N14885 X177.526 Y165.801 Z-8.053
N14890 X177.57 Y153.441 Z-8.047
N14895 X177.571 Y153.375 Z-7.899
N14900 Y153.334 Z-7.776
N14905 Y153.302 Z-7.654
N14910 Y153.256 Z-7.37
N14915 Y153.25 Z-7.297
N14920 Y153.247 Z-6.079
N14925 Y153.221 Z-5.943
N14930 Y153.164 Z-5.801
N14935 X177.572 Y153.103 Z-5.703
N14940 Y153.024 Z-5.614
N14945 Y152.93 Z-5.536
N14950 X177.573 Y152.823 Z-5.473
N14955 Y152.704 Z-5.428
N14960 X177.574 Y152.578 Z-5.404
N14965 X177.584 Y149.551 Z-5.4
N14970 X177.602 Y144.607 Z-5.404
N14975 X177.603 Y144.294 Z-5.428
N14980 X177.599 Y143.963 Z-5.442
N14985 X177.571 Y143.764 Z-5.45
N14990 X177.521 Y143.57 Z-5.458
N14995 X177.448 Y143.383 Z-5.465
N15000 X177.387 Y143.263 Z-5.47
N15005 X177.287 Y143.104 Z-5.482
N15010 X177.161 Y142.947 Z-5.493
N15015 X177.021 Y142.81 Z-5.502
N15020 X176.863 Y142.687 Z-5.51
N15025 X176.691 Y142.582 Z-5.517
N15030 X176.508 Y142.499 Z-5.521
N15035 X176.317 Y142.438 Z-5.524
N15040 X176.12 Y142.399
N15045 X175.896 Y142.384 Z-5.522
N15050 X174.422 Y142.379 Z-5.508
N15055 X173.953 Y142.377 Z-5.513
N15060 X173.769 Y142.376 Z-5.538
N15065 X173.598 Z-5.59
N15070 X173.435 Y142.375 Z-5.673
N15075 X173.336 Z-5.749
N15080 X173.248 Y142.374 Z-5.842
N15085 X173.175 Z-5.96
N15090 X173.137 Z-6.068
N15095 X172.966 Y142.373 Z-7.043
N15100 X172.948 Z-7.105
N15105 X172.92 Z-7.157
N15110 X172.854 Z-7.248
N15115 X172.764 Z-7.33
N15120 X172.616 Y142.372 Z-7.43
N15125 X172.418 Y142.371 Z-7.521
N15130 X172.263 Z-7.562
N15135 X169.805 Y142.362 Z-7.911
N15140 X158.72 Y142.323 Z-8.119
N15145 X158.666 Z-7.911
N15150 X158.661 Z-7.427
N15155 X158.646 Y142.322 Z-7.282
N15160 X158.642 Z-6.075
N15165 X158.616 Z-5.944
N15170 X158.557 Z-5.803
N15175 X158.494 Z-5.706
N15180 X158.413 Z-5.618
N15185 X158.318 Y142.321 Z-5.541
N15190 X158.209 Z-5.478
N15195 X158.091 Y142.32 Z-5.433
N15200 X157.965 Z-5.407
N15205 X157.834 Z-5.4
N15210 X148.294 Y142.286 Z-5.402
N15215 X148.122 Y142.285 Z-5.415
N15220 X148.006 Z-5.442
N15225 X147.893 Y142.284 Z-5.487
N15230 X147.738 Z-5.582
N15235 X147.644 Y142.283 Z-5.664
N15240 X147.561 Z-5.76
N15245 X147.492 Z-5.872
N15250 X147.444 Z-5.991
N15255 X147.418 Y142.282 Z-6.135
N15260 X147.372 Z-6.629
N15265 X147.311 Z-7.018
N15270 X147.287 Z-7.113
N15275 X147.242 Z-7.168
N15280 X147.163 Z-7.22
N15285 X147.053 Y142.281 Z-7.247
N15290 X146.902 Z-7.25
N15295 X146.725 Y142.28 Z-7.233
N15300 X146.479 Y142.279 Z-7.179
N15305 X146.142 Y142.278 Z-7.062
N15310 X144.683 Y142.273 Z-6.504
N15315 X143.967 Y142.27 Z-6.233
N15320 X143.782 Y142.28 Z-6.166
N15325 X143.598 Y142.31 Z-6.105
N15330 X143.423 Y142.359 Z-6.052
N15335 X143.252 Y142.427 Z-6.006
N15340 X143.082 Y142.517 Z-5.966
N15345 X142.974 Y142.588 Z-5.946
N15350 X142.871 Y142.668 Z-5.931
N15355 X142.774 Y142.755 Z-5.92
N15360 X142.683 Y142.851 Z-5.914
N15365 X142.598 Y142.955 Z-5.913
N15370 X142.522 Y143.066 Z-5.917
N15375 X142.455 Y143.182 Z-5.924
N15380 X142.398 Y143.301 Z-5.936
N15385 X142.351 Y143.423 Z-5.952
N15390 X142.298 Y143.611 Z-5.985
N15395 X142.267 Y143.801 Z-6.026
N15400 X142.258 Y143.973 Z-6.071
N15405 X142.243 Y148.123 Z-7.224
N15410 X142.234 Y150.737 Z-7.91
N15415 X142.218 Y155.245 Z-8.072
N15420 Y155.276 Z-8.007
N15425 Y155.321 Z-7.885
N15430 Y155.363 Z-7.735
N15435 Y155.401 Z-7.541
N15440 Y155.424 Z-7.3
N15445 Y155.426 Z-6.094
N15450 Y155.449 Z-5.976
N15455 X142.217 Y155.486 Z-5.879
N15460 Y155.543 Z-5.782
N15465 Y155.618 Z-5.69
N15470 Y155.708 Z-5.609
N15475 X142.216 Y155.812 Z-5.539
N15480 Y155.987 Z-5.46
N15485 X142.215 Y156.174 Z-5.414
N15490 X142.214 Y156.371 Z-5.4
N15495 X142.188 Y163.72 Z-5.401
N15500 Y163.863 Z-5.416
N15505 X142.187 Y164.036 Z-5.461
N15510 Y164.201 Z-5.534
N15515 X142.186 Y164.304 Z-5.601
N15520 Y164.397 Z-5.683
N15525 Y164.48 Z-5.781
N15530 X142.185 Y164.546 Z-5.899
N15535 Y164.575 Z-5.978
N15540 Y164.596 Z-6.079
N15545 Y164.6 Z-7.916
N15550 X142.184 Y165.059 Z-7.983
N15555 X142.182 Y165.379 Z-8.02
N15560 X142.181 Y165.678 Z-8.039
N15565 X142.169 Y169.163 Z-7.91
N15570 X142.163 Y170.923 Z-7.426
N15575 X142.155 Y173.084 Z-6.862
N15580 X142.147 Y175.475 Z-6.249
N15585 X142.144 Y176.164 Z-6.076
N15590 X142.155 Y176.355 Z-6.032
N15595 X142.188 Y176.546 Z-5.999
N15600 X142.222 Y176.671 Z-5.982
N15605 X142.265 Y176.794 Z-5.971
N15610 X142.32 Y176.917 Z-5.965
N15615 X142.384 Y177.035 Z-5.963
N15620 X142.496 Y177.201 Z-5.966
N15625 X142.628 Y177.353 Z-5.976
N15630 X142.759 Y177.474 Z-5.991
N15635 X142.9 Y177.579 Z-6.016
N15640 X143.055 Y177.672 Z-6.048
N15645 X143.231 Y177.752 Z-6.09
N15650 X143.413 Y177.811 Z-6.139
N15655 X143.598 Y177.849 Z-6.194
N15660 X143.782 Y177.866 Z-6.255
N15665 X144.337 Y177.869 Z-6.45
N15670 X145.453 Y177.873 Z-6.841
N15675 X145.83 Y177.875 Z-6.948
N15680 X146.086 Z-7.002
N15685 X146.404 Y177.877 Z-7.042
N15690 X146.597 Z-7.043
N15695 X146.744 Y177.878 Z-7.018
N15700 X146.846 Z-6.979
N15705 X146.92 Z-6.931
N15710 X146.969 Y177.879 Z-6.844
N15715 X147.012 Z-6.709
N15720 X147.123 Z-6.418
N15725 Z-6.29
N15730 X147.146 Z-6.126
N15735 X147.148 Z-5.994
N15740 X147.157 Z-5.937
N15745 X147.183 Z-5.848
N15750 X147.23 Y177.88 Z-5.753
N15755 X147.299 Z-5.662
N15760 X147.388 Z-5.58
N15765 X147.491 Z-5.511
N15770 X147.666 Y177.881 Z-5.435
N15775 X147.854 Y177.882 Z-5.391
N15780 X148.051 Z-5.377
N15785 X148.429 Y177.884 Z-5.4
N15790 X158.012 Y177.917 Z-5.404
N15795 X158.186 Y177.918 Z-5.439
N15800 X158.298 Z-5.484
N15805 X158.404 Y177.919 Z-5.546
N15810 X158.501 Z-5.626
N15815 X158.585 Z-5.724
N15820 X158.655 Y177.92 Z-5.84
N15825 X158.688 Z-5.922
N15830 X158.72 Z-6.067
N15835 X158.725 Z-7.997
N15840 X159.115 Y177.921 Z-8.056
N15845 X159.361 Y177.922 Z-8.065
N15850 X159.748 Y177.923 Z-8.088
N15855 X168.869 Y177.955 Z-7.91
N15860 X172.228 Y177.967 Z-7.453
N15865 X172.342 Y177.968 Z-7.418
N15870 X172.464 Z-7.367
N15875 X172.57 Z-7.311
N15880 X172.67 Y177.969 Z-7.246
N15885 X172.83 Z-7.11
N15890 X172.917 Y177.97 Z-7.005
N15895 X172.965 Z-6.924
N15900 X173.083 Z-6.528
N15905 X173.129 Z-6.324
N15910 X173.153 Z-6.129
N15915 X173.155 Z-5.957
N15920 X173.166 Y177.971 Z-5.88
N15925 X173.209 Z-5.739
N15930 X173.288 Z-5.595
N15935 X173.363 Z-5.502
N15940 X173.453 Y177.972 Z-5.419
N15945 X173.611 Z-5.315
N15950 X173.787 Y177.973 Z-5.243
N15955 X173.977 Z-5.206
N15960 X176.278 Y177.981 Z-5.117
N15965 X176.479 Y177.97 Z-5.111
N15970 X176.676 Y177.935 Z-5.107
N15975 X176.869 Y177.876
N15980 X177.053 Y177.796 Z-5.109
N15985 X177.227 Y177.695 Z-5.114
N15990 X177.387 Y177.574 Z-5.122
N15995 X177.531 Y177.438 Z-5.133
N16000 X177.659 Y177.283 Z-5.146
N16005 X177.767 Y177.117 Z-5.161
N16010 X177.855 Y176.941 Z-5.178
N16015 X177.918 Y176.77 Z-5.196
N16020 X177.965 Y176.579 Z-5.216
N16025 X177.989 Y176.392 Z-5.238
N16030 X177.993 Y176.272 Z-5.253
N16035 X177.997 Y175.126 Z-5.4
N16040 X178.024 Y167.426 Z-5.404
N16045 X178.025 Y167.308 Z-5.425
N16050 Y167.194 Z-5.465
N16055 Y167.087 Z-5.524
N16060 X178.026 Y166.989 Z-5.601
N16065 Y166.903 Z-5.696
N16070 Y166.833 Z-5.808
N16075 Y166.786 Z-5.92
N16080 X178.027 Y166.758 Z-6.038
N16085 Y166.75 Z-6.15
N16090 Y166.748 Z-7.755
N16095 Y166.61 Z-7.837
N16100 X178.028 Y166.47 Z-7.9
N16105 Y166.286 Z-7.962
N16110 X178.029 Y166.029 Z-8.011
N16115 X178.03 Y165.898 Z-8.022
N16120 X178.073 Y153.498 Z-8.017
N16125 Y153.415 Z-7.889
N16130 Y153.363 Z-7.782
N16135 Y153.325 Z-7.682
N16140 X178.074 Y153.278 Z-7.512
N16145 Y153.256 Z-7.362
N16150 Y153.25 Z-7.304
N16155 Z-6.145
N16160 Y153.239 Z-6.023
N16165 Y153.197 Z-5.874
N16170 Y153.122 Z-5.731
N16175 Y153.049 Z-5.639
N16180 X178.075 Y152.959 Z-5.557
N16185 Y152.855 Z-5.489
N16190 Y152.739 Z-5.439
N16195 X178.076 Y152.615 Z-5.409
N16200 Y152.485 Z-5.4
N16205 X178.103 Y144.77 Z-5.404
N16210 X178.104 Y144.387 Z-5.429
N16215 X178.106 Y143.524 Z-5.464
N16220 X178.095 Y143.39 Z-5.47
N16225 X178.064 Y143.208 Z-5.483
N16230 X178.008 Y143.017 Z-5.498
N16235 X177.93 Y142.833 Z-5.511
N16240 X177.83 Y142.658 Z-5.523
N16245 X177.72 Y142.507 Z-5.536
N16250 X177.584 Y142.359 Z-5.546
N16255 X177.431 Y142.229 Z-5.555
N16260 X177.264 Y142.117 Z-5.562
N16265 X177.085 Y142.025 Z-5.57
N16270 X176.897 Y141.955 Z-5.575
N16275 X176.702 Y141.908 Z-5.576
N16280 X176.502 Y141.884 Z-5.575
N16285 X175.8 Y141.879 Z-5.568
N16290 X175.264 Y141.877 Z-5.566
N16295 X174.393 Y141.874 Z-5.577
N16300 X174.21 Y141.873 Z-5.601
N16305 X174.024 Z-5.658
N16310 X173.876 Y141.872 Z-5.734
N16315 X173.777 Z-5.808
N16320 X173.689 Y141.871 Z-5.899
N16325 X173.617 Z-6.012
N16330 X173.274 Y141.87 Z-6.818
N16335 X173.21 Z-6.913
N16340 X173.127 Z-6.998
N16345 X173.026 Y141.869 Z-7.075
N16350 X172.923 Z-7.138
N16355 X172.694 Y141.868 Z-7.244
N16360 X172.564 Z-7.289
N16365 X172.309 Y141.867 Z-7.331
N16370 X168.26 Y141.853 Z-7.91
N16375 X158.929 Y141.82 Z-8.086
N16380 X158.867 Z-7.832
N16385 X158.822 Z-7.476
N16390 X158.811 Z-7.325
N16395 X158.806 Z-6.078
N16400 X158.779 Z-5.942
N16405 X158.719 Z-5.801
N16410 X158.655 Y141.819 Z-5.704
N16415 X158.575 Z-5.616
N16420 X158.479 Z-5.539
N16425 X158.37 Y141.818 Z-5.477
N16430 X158.251 Z-5.433
N16435 X158.125 Z-5.406
N16440 X157.888 Y141.817 Z-5.4
N16445 X148.442 Y141.784 Z-5.402
N16450 X147.934 Y141.782 Z-5.445
N16455 X147.752 Z-5.481
N16460 X147.585 Y141.781 Z-5.546
N16465 X147.428 Z-5.644
N16470 X147.335 Y141.78 Z-5.726
N16475 X147.252 Z-5.824
N16480 X147.183 Z-5.939
N16485 X147.157 Z-5.999
N16490 X147.12 Z-6.139
N16495 X146.989 Y141.779 Z-6.56
N16500 X146.908 Z-6.746
N16505 X146.862 Z-6.823
N16510 X146.825 Z-6.86
N16515 X146.774 Y141.778 Z-6.891
N16520 X146.698 Z-6.92
N16525 X146.57 Z-6.932
N16530 X146.388 Y141.777 Z-6.924
N16535 X146.204 Y141.776 Z-6.899
N16540 X145.945 Y141.775 Z-6.836
N16545 X145.622 Y141.774 Z-6.727
N16550 X144.163 Y141.769 Z-6.167
N16555 X143.459 Y141.767 Z-5.902
N16560 X143.305 Y141.774 Z-5.849
N16565 X143.211 Y141.785 Z-5.829
N16570 X143.084 Y141.809 Z-5.812
N16575 X142.942 Y141.847 Z-5.807
N16580 X142.755 Y141.919 Z-5.811
N16585 X142.578 Y142.013 Z-5.816
N16590 X142.412 Y142.127 Z-5.818
N16595 X142.261 Y142.259 Z-5.821
N16600 X142.127 Y142.409 Z-5.825
N16605 X142.007 Y142.579 Z-5.828
N16610 X141.912 Y142.756
N16615 X141.839 Y142.943
N16620 X141.788 Y143.137 Z-5.827
N16625 X141.76 Y143.336 Z-5.825
N16630 X141.755 Y143.541 Z-5.826
N16635 X141.754 Y143.793 Z-5.851
N16640 X141.753 Y144.025 Z-5.902
N16645 X141.74 Y147.839 Z-6.965
N16650 X141.73 Y150.708 Z-7.724
N16655 X141.728 Y151.427 Z-7.91
N16660 X141.716 Y154.79 Z-8.033
N16665 Y154.893 Z-7.88
N16670 Y154.948 Z-7.766
N16675 Y154.99 Z-7.651
N16680 X141.715 Y155.022 Z-7.535
N16685 Y155.043 Z-7.435
N16690 Y155.057 Z-7.313
N16695 Y155.062 Z-6.093
N16700 Y155.071 Z-6.028
N16705 Y155.095 Z-5.944
N16710 Y155.138 Z-5.846
N16715 Y155.201 Z-5.75
N16720 Y155.282 Z-5.662
N16725 X141.714 Y155.377 Z-5.584
N16730 Y155.543 Z-5.491
N16735 X141.713 Y155.725 Z-5.43
N16740 X141.712 Y155.918 Z-5.402
N16745 X141.684 Y164.098
N16750 Y164.288 Z-5.428
N16755 X141.683 Y164.458 Z-5.482
N16760 X141.682 Y164.62 Z-5.566
N16765 Y164.719 Z-5.641
N16770 Y164.808 Z-5.732
N16775 Y164.883 Z-5.841
N16780 X141.681 Y164.912 Z-5.899
N16785 Y164.941 Z-5.978
N16790 Y164.962 Z-6.079
N16795 Y164.966 Z-7.806
N16800 X141.68 Y165.351 Z-7.919
N16805 X141.679 Y165.704 Z-7.983
N16810 X141.678 Y165.948 Z-8.004
N16815 X141.669 Y168.494 Z-7.905
N16820 X141.661 Y170.742 Z-7.287
N16825 X141.654 Y172.888 Z-6.723
N16830 X141.651 Y173.767 Z-6.502
N16835 X141.645 Y175.65 Z-6.021
N16840 X141.643 Y175.969 Z-5.945
N16845 Y176.229 Z-5.916
N16850 X141.642 Y176.722 Z-5.908
N16855 X141.662 Y176.922 Z-5.907
N16860 X141.705 Y177.118 Z-5.908
N16865 X141.77 Y177.308 Z-5.91
N16870 X141.858 Y177.489 Z-5.913
N16875 X141.965 Y177.659 Z-5.918
N16880 X142.092 Y177.814 Z-5.923
N16885 X142.237 Y177.954 Z-5.929
N16890 X142.396 Y178.076 Z-5.932
N16895 X142.569 Y178.179 Z-5.935
N16900 X142.752 Y178.261 Z-5.94
N16905 X142.944 Y178.32 Z-5.947
N16910 X143.158 Y178.359 Z-5.955
N16915 X143.267 Y178.368 Z-5.966
N16920 X143.409 Y178.371 Z-5.996
N16925 X144.68 Y178.375 Z-6.438
N16930 X145.184 Y178.377 Z-6.582
N16935 X145.569 Y178.378 Z-6.662
N16940 X145.896 Y178.379 Z-6.695
N16945 X146.002 Y178.38 Z-6.699
N16950 X146.134 Z-6.691
N16955 X146.286 Y178.381 Z-6.649
N16960 X146.354 Z-6.613
N16965 X146.443 Z-6.533
N16970 X146.496 Z-6.479
N16975 X146.537 Y178.382 Z-6.427
N16980 X146.632 Z-6.253
N16985 X146.67 Z-6.122
N16990 X146.678 Z-5.875
N16995 X146.696 Z-5.797
N17000 X146.734 Z-5.703
N17005 X146.795 Z-5.609
N17010 X146.875 Y178.383 Z-5.523
N17015 X146.973 Z-5.448
N17020 X147.083 Z-5.387
N17025 X147.264 Y178.384 Z-5.322
N17030 X147.456 Y178.385 Z-5.29
N17035 X147.653 Z-5.287
N17040 X148.725 Y178.389 Z-5.4
N17045 X158.17 Y178.421 Z-5.403
N17050 X158.292 Y178.422 Z-5.423
N17055 X158.406 Z-5.459
N17060 X158.515 Z-5.512
N17065 X158.616 Y178.423 Z-5.583
N17070 X158.707 Z-5.671
N17075 X158.784 Z-5.776
N17080 X158.818 Z-5.84
N17085 X158.851 Y178.424 Z-5.922
N17090 X158.884 Z-6.067
N17095 X158.889 Z-7.904
N17100 X159.017 Z-7.936
N17105 X159.146 Y178.425 Z-7.965
N17110 X159.407 Z-8.015
N17115 X159.813 Y178.427 Z-8.055
N17120 X167.348 Y178.453 Z-7.909
N17125 X169.161 Y178.459 Z-7.658
N17130 X172.219 Y178.469 Z-7.248
N17135 X172.349 Y178.47 Z-7.227
N17140 X172.574 Z-7.152
N17145 X172.796 Y178.471 Z-7.041
N17150 X172.953 Y178.472 Z-6.934
N17155 X173.07 Z-6.832
N17160 X173.152 Z-6.739
N17165 X173.248 Y178.473 Z-6.569
N17170 X173.356 Z-6.334
N17175 X173.42 Z-6.143
N17180 X173.428 Z-6.094
N17185 Z-5.916
N17190 X173.441 Z-5.81
N17195 X173.487 Z-5.662
N17200 X173.567 Y178.474 Z-5.518
N17205 X173.643 Z-5.426
N17210 X173.785 Y178.475 Z-5.305
N17215 X173.949 Z-5.214
N17220 X174.132 Y178.476 Z-5.154
N17225 X174.325 Z-5.131
N17230 X176.787 Y178.485 Z-5.04
N17235 X176.987 Y178.473 Z-5.035
N17240 X177.185 Y178.438 Z-5.032
N17245 X177.378 Y178.379 Z-5.031
N17250 X177.562 Y178.299 Z-5.033
N17255 X177.735 Y178.198 Z-5.038
N17260 X177.895 Y178.077 Z-5.045
N17265 X178.04 Y177.937 Z-5.055
N17270 X178.161 Y177.793 Z-5.068
N17275 X178.266 Y177.632 Z-5.082
N17280 X178.352 Y177.463 Z-5.099
N17285 X178.42 Y177.279 Z-5.117
N17290 X178.467 Y177.089 Z-5.138
N17295 X178.492 Y176.895 Z-5.159
N17300 X178.496 Y176.781 Z-5.172
N17305 X178.499 Y176.012 Z-5.266
N17310 X178.503 Y174.97 Z-5.399
N17315 X178.528 Y167.423 Z-5.404
N17320 Y167.308 Z-5.425
N17325 X178.529 Y167.194 Z-5.465
N17330 Y167.087 Z-5.524
N17335 X178.53 Y166.989 Z-5.601
N17340 Y166.903 Z-5.696
N17345 Y166.833 Z-5.808
N17350 Y166.786 Z-5.92
N17355 Y166.758 Z-6.038
N17360 Y166.75 Z-6.15
N17365 Y166.747 Z-7.664
N17370 X178.531 Y166.651 Z-7.746
N17375 Y166.523 Z-7.832
N17380 X178.532 Y166.387 Z-7.896
N17385 Y166.181 Z-7.96
N17390 X178.533 Y165.985 Z-7.99
N17395 X178.575 Y153.564 Z-7.985
N17400 Y153.482 Z-7.9
N17405 Y153.449 Z-7.861
N17410 X178.576 Y153.354 Z-7.704
N17415 Y153.3 Z-7.563
N17420 Y153.258 Z-7.376
N17425 Y153.25 Z-7.311
N17430 Z-6.15
N17435 Y153.238 Z-6.014
N17440 Y153.193 Z-5.864
N17445 X178.577 Y153.115 Z-5.721
N17450 Y153.04 Z-5.63
N17455 Y152.949 Z-5.549
N17460 Y152.844 Z-5.484
N17465 X178.578 Y152.727 Z-5.435
N17470 Y152.602 Z-5.407
N17475 X178.579 Y152.472 Z-5.4
N17480 X178.604 Y144.931 Z-5.404
N17485 X178.609 Y143.692 Z-5.461
N17490 X178.61 Y143.188 Z-5.492
N17495 X178.605 Y142.949 Z-5.509
N17500 X178.579 Y142.752 Z-5.524
N17505 X178.529 Y142.56 Z-5.538
N17510 X178.456 Y142.373 Z-5.551
N17515 X178.362 Y142.195 Z-5.563
N17520 X178.252 Y142.036 Z-5.575
N17525 X178.124 Y141.889 Z-5.587
N17530 X177.976 Y141.754 Z-5.599
N17535 X177.812 Y141.638 Z-5.608
N17540 X177.636 Y141.541 Z-5.615
N17545 X177.449 Y141.466 Z-5.621
N17550 X177.255 Y141.414 Z-5.625
N17555 X177.046 Y141.384 Z-5.628
N17560 X176.779 Y141.377 Z-5.625
N17565 X175.707 Y141.374 Z-5.62
N17570 X174.769 Y141.371 Z-5.646
N17575 X174.594 Y141.37 Z-5.678
N17580 X174.424 Z-5.738
N17585 X174.266 Y141.369 Z-5.829
N17590 X174.172 Z-5.911
N17595 X173.976 Y141.368 Z-6.134
N17600 X173.609 Y141.367 Z-6.595
N17605 X173.428 Y141.366 Z-6.743
N17610 X173.271 Z-6.837
N17615 X173.068 Y141.365 Z-6.935
N17620 X172.86 Y141.364 Z-7.011
N17625 X172.733 Z-7.044
N17630 X166.692 Y141.344 Z-7.91
N17635 X159.168 Y141.318 Z-8.054
N17640 X159.142 Z-8.005
N17645 X159.1 Z-7.909
N17650 X159.057 Z-7.779
N17655 X159.024 Z-7.655
N17660 X158.986 Z-7.44
N17665 X158.976 Z-7.34
N17670 X158.97 Z-6.088
N17675 X158.947 Y141.317 Z-5.96
N17680 X158.886 Z-5.808
N17685 X158.79 Z-5.669
N17690 X158.703 Z-5.585
N17695 X158.602 Y141.316 Z-5.514
N17700 X158.489 Z-5.458
N17705 X158.367 Y141.315 Z-5.42
N17710 X158.239 Z-5.402
N17715 X148.781 Y141.283 Z-5.404
N17720 X147.849 Y141.28 Z-5.475
N17725 X147.541 Y141.279 Z-5.515
N17730 X147.368 Y141.278 Z-5.565
N17735 X147.206 Z-5.645
N17740 X147.058 Y141.277 Z-5.757
N17745 X146.971 Z-5.85
N17750 X146.898 Z-5.96
N17755 X146.731 Y141.276 Z-6.286
N17760 X146.611 Z-6.451
N17765 X146.488 Y141.275 Z-6.574
N17770 X146.37 Z-6.619
N17775 X146.249 Z-6.637
N17780 X146.063 Y141.274 Z-6.633
N17785 X145.843 Y141.273 Z-6.605
N17790 X145.547 Y141.272 Z-6.539
N17795 X145.195 Y141.271 Z-6.426
N17800 X143.749 Y141.266 Z-5.87
N17805 X143.562 Z-5.821
N17810 X143.367 Y141.265 Z-5.804
N17815 X142.967 Y141.264 Z-5.822
N17820 X142.766 Y141.275 Z-5.829
N17825 X142.568 Y141.311 Z-5.836
N17830 X142.376 Y141.369 Z-5.84
N17835 X142.192 Y141.449 Z-5.842
N17840 X142.018 Y141.55 Z-5.844
N17845 X141.858 Y141.671 Z-5.847
N17850 X141.712 Y141.809 Z-5.849
N17855 X141.584 Y141.964
N17860 X141.481 Y142.122
N17865 X141.391 Y142.302 Z-5.848
N17870 X141.323 Y142.491 Z-5.846
N17875 X141.277 Y142.687 Z-5.843
N17880 X141.255 Y142.886 Z-5.84
N17885 X141.251 Y143.375 Z-5.835
N17890 X141.248 Y144.254 Z-5.842
N17895 X141.247 Y144.5 Z-5.868
N17900 X141.246 Y144.732 Z-5.92
N17905 X141.239 Y146.855 Z-6.518
N17910 X141.224 Y151.259 Z-7.689
N17915 X141.222 Y152.124 Z-7.91
N17920 X141.214 Y154.315 Z-7.987
N17925 Y154.451 Z-7.88
N17930 X141.213 Y154.529 Z-7.782
N17935 Y154.602 Z-7.653
N17940 Y154.672 Z-7.443
N17945 Y154.691 Z-7.324
N17950 Y154.696 Z-6.101
N17955 Y154.704 Z-6.037
N17960 Y154.729 Z-5.946
N17965 Y154.772 Z-5.848
N17970 X141.212 Y154.835 Z-5.752
N17975 Y154.915 Z-5.664
N17980 Y155.01 Z-5.585
N17985 X141.211 Y155.175 Z-5.492
N17990 Y155.357 Z-5.431
N17995 X141.21 Y155.55 Z-5.402
N18000 X141.18 Y164.465
N18005 Y164.654 Z-5.428
N18010 X141.179 Y164.825 Z-5.482
N18015 X141.178 Y164.987 Z-5.566
N18020 Y165.085 Z-5.641
N18025 Y165.174 Z-5.732
N18030 Y165.25 Z-5.841
N18035 Y165.278 Z-5.899
N18040 X141.177 Y165.307 Z-5.978
N18045 Y165.328 Z-6.079
N18050 Y165.332 Z-7.696
N18055 Y165.452 Z-7.761
N18060 X141.176 Y165.737 Z-7.876
N18065 X141.175 Y165.939 Z-7.93
N18070 X141.174 Y166.195 Z-7.966
N18075 X141.169 Y167.787 Z-7.91
N18080 X141.16 Y170.56 Z-7.148
N18085 X141.152 Y172.846 Z-6.544
N18090 X141.149 Y173.852 Z-6.291
N18095 X141.144 Y175.24 Z-5.942
N18100 X141.143 Y175.498 Z-5.907
N18105 X141.138 Y177.166 Z-5.882
N18110 X141.15 Y177.366 Z-5.88
N18115 X141.185 Y177.564 Z-5.878
N18120 X141.243 Y177.756 Z-5.88
N18125 X141.324 Y177.941 Z-5.881
N18130 X141.425 Y178.114 Z-5.884
N18135 X141.546 Y178.274 Z-5.887
N18140 X141.686 Y178.419 Z-5.89
N18145 X141.841 Y178.547 Z-5.893
N18150 X142.01 Y178.655 Z-5.896
N18155 X142.191 Y178.743 Z-5.901
N18160 X142.38 Y178.809 Z-5.906
N18165 X142.577 Y178.852 Z-5.913
N18170 X142.775 Y178.872 Z-5.921
N18175 X143.577 Y178.876 Z-5.958
N18180 X143.761 Y178.877 Z-5.99
N18185 X143.988 Z-6.059
N18190 X144.477 Y178.879 Z-6.209
N18195 X144.922 Y178.881 Z-6.318
N18200 X145.231 Y178.882 Z-6.372
N18205 X145.496 Z-6.393
N18210 X145.708 Y178.883 Z-6.378
N18215 X145.795 Z-6.359
N18220 X145.887 Y178.884 Z-6.327
N18225 X146.019 Z-6.247
N18230 X146.107 Z-6.18
N18235 X146.173 Y178.885 Z-6.101
N18240 X146.198 Z-6.049
N18245 X146.204 Z-5.786
N18250 X146.229 Z-5.687
N18255 X146.274 Z-5.592
N18260 X146.34 Z-5.5
N18265 X146.425 Y178.886 Z-5.416
N18270 X146.526 Z-5.345
N18275 X146.7 Z-5.264
N18280 X146.886 Y178.887 Z-5.216
N18285 X147.082 Y178.888 Z-5.198
N18290 X147.283 Z-5.208
N18295 X148.04 Y178.891 Z-5.288
N18300 X149.058 Y178.894 Z-5.399
N18305 X158.303 Y178.925 Z-5.401
N18310 X158.455 Z-5.423
N18315 X158.57 Y178.926 Z-5.459
N18320 X158.679 Z-5.512
N18325 X158.78 Y178.927 Z-5.583
N18330 X158.871 Z-5.671
N18335 X158.947 Z-5.776
N18340 X158.982 Z-5.84
N18345 X159.015 Z-5.922
N18350 X159.048 Z-6.067
N18355 X159.053 Z-6.15
N18360 Z-7.81
N18365 X159.234 Y178.928 Z-7.885
N18370 X159.546 Y178.929 Z-7.973
N18375 X159.805 Y178.93 Z-8.016
